;FLAVOR:Marlin
;TIME:3860
;Filament used: 3.2673m
;Layer height: 0.2
;MINX:67.715
;MINY:67.708
;MINZ:0.2
;MAXX:167.286
;MAXY:167.292
;MAXZ:1
;Generated with Cura_SteamEngine 5.4.0
M82 ;absolute extrusion mode
                                 ; BIQU B1 Start G-code
M117 Getting the bed up to temp!
M140 S60      ; Set Heat Bed temperature
M190 S60      ; Wait for Heat Bed temperature
M117 Getting the extruder up to temp!
M104 S180    ; Set Extruder temperature
G92 E0                           ; Reset Extruder
M117 Homing axes
G28                              ; Home all axes
M109 S180    ; Wait for Extruder temperature
G1 Z2.0 F3000                    ; Move Z Axis up little to prevent scratching of Heat Bed
G1 X4.1 Y20 Z0.3 F5000.0         ; Move to start position
M117 Purging
G1 X4.1 Y200.0 Z0.3 F1500.0 E15  ; Draw the first line
G1 X4.4 Y200.0 Z0.3 F5000.0      ; Move to side a little
G1 X4.4 Y20 Z0.3 F1500.0 E30     ; Draw the second line
G92 E0                           ; Reset Extruder
M117 Lets make
G1 Z2.0 F3000                    ; Move Z Axis up little to prevent scratching of Heat Bed
G1 X5 Y20 Z0.3 F5000.0           ; Move over to prevent blob squish
G92 E0
G92 E0
G1 F4200 E-7
;LAYER_COUNT:5
;LAYER:0
M107
;MESH:cylinder.stl
G0 F6000 X118.318 Y166.492 Z0.2
;TYPE:WALL-INNER
G1 F4200 E0
G1 F1200 X121.563 Y166.33 E0.10806
G1 X124.789 Y165.956 E0.21608
G1 X127.959 Y165.372 E0.32329
G1 X131.102 Y164.577 E0.43112
G1 X134.197 Y163.571 E0.53936
G1 X137.187 Y162.376 E0.64645
G1 X140.115 Y160.976 E0.7544
G1 X142.951 Y159.378 E0.86267
G1 X145.649 Y157.615 E0.96987
G1 X148.239 Y155.667 E1.07765
G1 X150.694 Y153.554 E1.18539
G1 X153.017 Y151.27 E1.29374
G1 X155.173 Y148.848 E1.40159
G1 X157.136 Y146.326 E1.50789
G1 X158.993 Y143.583 E1.61806
G1 X160.588 Y140.854 E1.72319
G1 X162.058 Y137.911 E1.83261
G1 X163.305 Y134.936 E1.9399
G1 X164.362 Y131.858 E2.04814
G1 X165.203 Y128.751 E2.1552
G1 X165.843 Y125.569 E2.26315
G1 X166.273 Y122.341 E2.37146
G1 X166.486 Y119.109 E2.47919
G1 X166.486 Y115.891 E2.58623
G1 X166.271 Y112.637 E2.69469
G1 X165.843 Y109.426 E2.80243
G1 X165.203 Y106.249 E2.91022
G1 X164.362 Y103.142 E3.01728
G1 X163.303 Y100.058 E3.12573
G1 X162.058 Y97.089 E3.23281
G1 X160.588 Y94.146 E3.34223
G1 X158.993 Y91.417 E3.44736
G1 X157.136 Y88.674 E3.55754
G1 X155.173 Y86.152 E3.66383
G1 X153.017 Y83.73 E3.77168
G1 X150.692 Y81.444 E3.88013
G1 X148.235 Y79.329 E3.98796
G1 X145.647 Y77.383 E4.09565
G1 X142.951 Y75.622 E4.20276
G1 X140.109 Y74.022 E4.31123
G1 X137.187 Y72.624 E4.41897
G1 X134.197 Y71.429 E4.52607
G1 X131.102 Y70.423 E4.63431
G1 X127.959 Y69.628 E4.74214
G1 X124.789 Y69.044 E4.84934
G1 X121.563 Y68.67 E4.95736
G1 X118.318 Y68.508 E5.06542
G1 X115.074 Y68.562 E5.17334
G1 X111.859 Y68.827 E5.28063
G1 X108.652 Y69.309 E5.38849
G1 X105.496 Y69.998 E5.49593
G1 X102.362 Y70.903 E5.60443
G1 X99.325 Y72.001 E5.71184
G1 X96.348 Y73.307 E5.81996
G1 X93.493 Y74.792 E5.927
G1 X90.705 Y76.486 E6.0355
G1 X88.062 Y78.341 E6.1429
G1 X85.529 Y80.381 E6.25107
G1 X83.162 Y82.561 E6.3581
G1 X80.914 Y84.923 E6.46656
G1 X78.84 Y87.413 E6.57434
G1 X76.949 Y90.016 E6.68135
G1 X75.21 Y92.776 E6.78985
G1 X73.668 Y95.628 E6.89768
G1 X72.317 Y98.572 E7.00542
G1 X71.174 Y101.579 E7.11242
G1 X70.222 Y104.678 E7.22024
G1 X69.474 Y107.853 E7.32873
G1 X68.941 Y111.047 E7.43644
G1 X68.623 Y114.25 E7.54349
G1 X68.515 Y117.509 E7.65195
G1 X68.623 Y120.748 E7.75974
G1 X68.941 Y123.953 E7.86686
G1 X69.474 Y127.147 E7.97456
G1 X70.222 Y130.32 E8.08299
G1 X71.172 Y133.416 E8.1907
G1 X72.317 Y136.428 E8.29787
G1 X73.668 Y139.372 E8.40561
G1 X75.21 Y142.224 E8.51344
G1 X76.949 Y144.984 E8.62194
G1 X78.84 Y147.587 E8.72895
G1 X80.914 Y150.077 E8.83674
G1 X83.162 Y152.439 E8.94519
G1 X85.529 Y154.619 E9.05222
G1 X88.062 Y156.659 E9.16039
G1 X90.705 Y158.514 E9.26779
G1 X93.493 Y160.208 E9.37629
G1 X96.348 Y161.693 E9.48333
G1 X99.325 Y162.999 E9.59145
G1 X102.362 Y164.097 E9.69886
G1 X105.496 Y165.002 E9.80736
G1 X108.652 Y165.691 E9.9148
G1 X111.859 Y166.173 E10.02266
G1 X115.074 Y166.438 E10.12996
G1 X117.518 Y166.479 E10.21126
G0 F1080 X118.318 Y166.492
G0 F6000 X118.325 Y166.892
G1 F1200 X121.596 Y166.729 E10.32019
G1 X124.848 Y166.352 E10.42907
G1 X128.044 Y165.763 E10.53716
G1 X131.213 Y164.962 E10.64588
G1 X134.333 Y163.947 E10.755
G1 X137.347 Y162.743 E10.86295
G1 X140.3 Y161.331 E10.97182
G1 X143.159 Y159.72 E11.08097
G1 X145.879 Y157.943 E11.18903
G1 X148.49 Y155.979 E11.2977
G1 X150.965 Y153.849 E11.4063
G1 X153.307 Y151.546 E11.51555
G1 X155.48 Y149.104 E11.62427
G1 X157.46 Y146.562 E11.73144
G1 X159.331 Y143.797 E11.84248
G1 X160.94 Y141.045 E11.94851
G1 X162.422 Y138.078 E12.05882
G1 X163.679 Y135.079 E12.16697
G1 X164.745 Y131.976 E12.2761
G1 X165.592 Y128.843 E12.38404
G1 X166.237 Y125.635 E12.49288
G1 X166.671 Y122.381 E12.60207
G1 X166.886 Y119.122 E12.7107
G1 X166.886 Y115.878 E12.81859
G1 X166.669 Y112.597 E12.92796
G1 X166.237 Y109.36 E13.03657
G1 X165.592 Y106.157 E13.14525
G1 X164.745 Y103.024 E13.25319
G1 X163.677 Y99.915 E13.36253
G1 X162.422 Y96.922 E13.47047
G1 X160.94 Y93.955 E13.58078
G1 X159.331 Y91.203 E13.68681
G1 X157.46 Y88.438 E13.79785
G1 X155.48 Y85.896 E13.90502
G1 X153.307 Y83.454 E14.01374
G1 X150.963 Y81.149 E14.12308
G1 X148.486 Y79.017 E14.23178
G1 X145.877 Y77.055 E14.34035
G1 X143.159 Y75.28 E14.44833
G1 X140.294 Y73.667 E14.55768
G1 X137.347 Y72.257 E14.66634
G1 X134.333 Y71.053 E14.77429
G1 X131.213 Y70.038 E14.88341
G1 X128.044 Y69.237 E14.99213
G1 X124.848 Y68.648 E15.10022
G1 X121.596 Y68.271 E15.2091
G1 X118.325 Y68.108 E15.31803
G1 X115.054 Y68.162 E15.42684
G1 X111.813 Y68.43 E15.53501
G1 X108.579 Y68.915 E15.64377
G1 X105.398 Y69.61 E15.75207
G1 X102.239 Y70.522 E15.86143
G1 X99.176 Y71.629 E15.96975
G1 X96.175 Y72.946 E16.07876
G1 X93.297 Y74.444 E16.18667
G1 X90.486 Y76.151 E16.29605
G1 X87.821 Y78.021 E16.40433
G1 X85.267 Y80.077 E16.51339
G1 X82.882 Y82.275 E16.62126
G1 X80.615 Y84.657 E16.73063
G1 X78.524 Y87.167 E16.83929
G1 X76.618 Y89.792 E16.94718
G1 X74.865 Y92.574 E17.05655
G1 X73.31 Y95.45 E17.16529
G1 X71.948 Y98.417 E17.27388
G1 X70.795 Y101.449 E17.38177
G1 X69.836 Y104.574 E17.49049
G1 X69.082 Y107.774 E17.59984
G1 X68.545 Y110.995 E17.70845
G1 X68.224 Y114.223 E17.81634
G1 X68.115 Y117.509 E17.92569
G1 X68.224 Y120.775 E18.03438
G1 X68.545 Y124.005 E18.14234
G1 X69.082 Y127.226 E18.25095
G1 X69.836 Y130.425 E18.36026
G1 X70.793 Y133.546 E18.46884
G1 X71.948 Y136.583 E18.57691
G1 X73.31 Y139.55 E18.68549
G1 X74.865 Y142.426 E18.79423
G1 X76.618 Y145.208 E18.9036
G1 X78.524 Y147.833 E19.0115
G1 X80.615 Y150.343 E19.12015
G1 X82.882 Y152.725 E19.22952
G1 X85.267 Y154.923 E19.3374
G1 X87.821 Y156.979 E19.44645
G1 X90.486 Y158.849 E19.55473
G1 X93.297 Y160.556 E19.66412
G1 X96.175 Y162.054 E19.77203
G1 X99.176 Y163.371 E19.88103
G1 X102.239 Y164.478 E19.98936
G1 X105.398 Y165.39 E20.09872
G1 X108.579 Y166.085 E20.20701
G1 X111.813 Y166.57 E20.31578
G1 X115.054 Y166.838 E20.42394
G1 X117.525 Y166.879 E20.50614
G0 F1080 X118.325 Y166.892
G0 F6000 X118.331 Y167.292
;TYPE:WALL-OUTER
G1 F1200 X121.629 Y167.128 E20.61597
G1 X124.908 Y166.748 E20.72576
G1 X128.13 Y166.154 E20.83473
G1 X131.324 Y165.346 E20.94431
G1 X134.469 Y164.323 E21.0543
G1 X137.508 Y163.109 E21.16315
G1 X140.484 Y161.686 E21.27286
G1 X143.367 Y160.062 E21.38292
G1 X146.109 Y158.271 E21.49185
G1 X148.741 Y156.291 E21.60139
G1 X151.236 Y154.143 E21.7109
G1 X153.597 Y151.822 E21.82101
G1 X155.788 Y149.36 E21.93063
G1 X157.784 Y146.797 E22.03868
G1 X159.67 Y144.01 E22.1506
G1 X161.292 Y141.235 E22.25751
G1 X162.786 Y138.245 E22.36868
G1 X164.053 Y135.221 E22.47773
G1 X165.127 Y132.093 E22.58773
G1 X165.982 Y128.935 E22.69655
G1 X166.632 Y125.701 E22.80626
G1 X167.069 Y122.421 E22.91632
G1 X167.286 Y119.135 E23.02585
G1 X167.286 Y115.865 E23.13461
G1 X167.067 Y112.557 E23.24488
G1 X166.632 Y109.294 E23.35436
G1 X165.982 Y106.065 E23.46391
G1 X165.127 Y102.907 E23.57273
G1 X164.051 Y99.773 E23.68294
G1 X162.786 Y96.755 E23.79178
G1 X161.292 Y93.765 E23.90295
G1 X159.67 Y90.99 E24.00986
G1 X157.784 Y88.203 E24.12179
G1 X155.788 Y85.64 E24.22983
G1 X153.597 Y83.178 E24.33945
G1 X151.234 Y80.855 E24.44966
G1 X148.737 Y78.705 E24.55926
G1 X146.107 Y76.727 E24.66871
G1 X143.367 Y74.938 E24.77755
G1 X140.478 Y73.312 E24.88781
G1 X137.508 Y71.891 E24.99732
G1 X134.469 Y70.677 E25.10616
G1 X131.324 Y69.654 E25.21616
G1 X128.13 Y68.846 E25.32574
G1 X124.908 Y68.252 E25.43471
G1 X121.629 Y67.872 E25.5445
G1 X118.331 Y67.708 E25.65432
G1 X115.034 Y67.762 E25.764
G1 X111.767 Y68.032 E25.87303
G1 X108.507 Y68.521 E25.98267
G1 X105.3 Y69.222 E26.09185
G1 X102.115 Y70.142 E26.20212
G1 X99.028 Y71.257 E26.31128
G1 X96.002 Y72.585 E26.4212
G1 X93.101 Y74.095 E26.52997
G1 X90.267 Y75.816 E26.64025
G1 X87.581 Y77.701 E26.74939
G1 X85.006 Y79.774 E26.85934
G1 X82.601 Y81.99 E26.96811
G1 X80.316 Y84.391 E27.07835
G1 X78.208 Y86.921 E27.18788
G1 X76.286 Y89.568 E27.29668
G1 X74.519 Y92.372 E27.40691
G1 X72.952 Y95.271 E27.51652
G1 X71.579 Y98.263 E27.62601
G1 X70.417 Y101.319 E27.73476
G1 X69.45 Y104.469 E27.84435
G1 X68.69 Y107.695 E27.95458
G1 X68.148 Y110.942 E28.06407
G1 X67.824 Y114.197 E28.17287
G1 X67.715 Y117.509 E28.28309
G1 X67.824 Y120.801 E28.39264
G1 X68.148 Y124.058 E28.5015
G1 X68.69 Y127.305 E28.61099
G1 X69.45 Y130.529 E28.72116
G1 X70.415 Y133.676 E28.83064
G1 X71.579 Y136.737 E28.93957
G1 X72.952 Y139.729 E29.04906
G1 X74.519 Y142.628 E29.15866
G1 X76.286 Y145.432 E29.2689
G1 X78.208 Y148.079 E29.3777
G1 X80.316 Y150.609 E29.48723
G1 X82.601 Y153.01 E29.59747
G1 X85.006 Y155.226 E29.70624
G1 X87.581 Y157.299 E29.81619
G1 X90.267 Y159.184 E29.92533
G1 X93.101 Y160.905 E30.03561
G1 X96.002 Y162.415 E30.14438
G1 X99.028 Y163.743 E30.25429
G1 X102.115 Y164.858 E30.36346
G1 X105.3 Y165.778 E30.47372
G1 X108.507 Y166.479 E30.58291
G1 X111.767 Y166.968 E30.69255
G1 X115.034 Y167.238 E30.80158
G1 X117.531 Y167.279 E30.88464
G0 F1080 X118.331 Y167.292
G0 F6000 X118.327 Y166.594
G0 X118.307 Y166.131
;TYPE:SKIN
G1 F1200 X115.082 Y166.078 E30.99192
G1 X111.911 Y165.817 E31.09775
G1 X108.714 Y165.336 E31.20527
G1 X105.596 Y164.655 E31.31142
G1 X102.464 Y163.75 E31.41986
G1 X99.459 Y162.665 E31.52612
G1 X96.493 Y161.364 E31.63384
G1 X93.681 Y159.899 E31.7393
G1 X90.893 Y158.206 E31.84779
G1 X88.278 Y156.371 E31.95404
G1 X85.754 Y154.338 E32.06183
G1 X83.416 Y152.183 E32.16759
G1 X81.183 Y149.837 E32.27531
G1 X79.117 Y147.357 E32.38267
G1 X77.243 Y144.771 E32.48889
G1 X75.516 Y142.033 E32.59656
G1 X73.996 Y139.219 E32.70294
G1 X72.645 Y136.278 E32.81058
G1 X71.515 Y133.305 E32.91636
G1 X70.573 Y130.233 E33.02324
G1 X69.827 Y127.065 E33.13149
G1 X69.298 Y123.894 E33.23841
G1 X68.984 Y120.734 E33.34403
G1 X68.876 Y117.518 E33.45106
G1 X68.984 Y114.262 E33.55941
G1 X69.298 Y111.106 E33.6649
G1 X69.827 Y107.935 E33.77182
G1 X70.573 Y104.764 E33.88017
G1 X71.519 Y101.685 E33.9873
G1 X72.645 Y98.722 E34.09273
G1 X73.996 Y95.781 E34.20037
G1 X75.516 Y92.968 E34.30672
G1 X77.243 Y90.229 E34.41442
G1 X79.117 Y87.643 E34.52064
G1 X81.183 Y85.163 E34.62799
G1 X83.416 Y82.817 E34.73572
G1 X85.754 Y80.662 E34.84147
G1 X88.278 Y78.629 E34.94927
G1 X90.893 Y76.794 E35.05552
G1 X93.681 Y75.101 E35.16401
G1 X96.493 Y73.636 E35.26947
G1 X99.459 Y72.334 E35.3772
G1 X102.464 Y71.25 E35.48345
G1 X105.596 Y70.345 E35.59189
G1 X108.714 Y69.664 E35.69804
G1 X111.911 Y69.183 E35.80557
G1 X115.082 Y68.922 E35.91139
G1 X118.307 Y68.869 E36.01867
G1 X121.535 Y69.03 E36.12617
G1 X124.746 Y69.401 E36.23367
G1 X127.876 Y69.98 E36.33954
G1 X130.997 Y70.769 E36.44662
G1 X134.084 Y71.773 E36.55458
G1 X137.032 Y72.95 E36.66016
G1 X139.932 Y74.337 E36.76708
G1 X142.773 Y75.937 E36.87553
G1 X145.432 Y77.671 E36.98111
G1 X148 Y79.603 E37.08799
G1 X150.439 Y81.703 E37.19504
G1 X152.763 Y83.986 E37.30339
G1 X154.904 Y86.392 E37.41051
G1 X156.837 Y88.875 E37.51517
G1 X158.692 Y91.617 E37.62528
G1 X160.252 Y94.284 E37.72805
G1 X161.734 Y97.249 E37.8383
G1 X162.963 Y100.177 E37.94391
G1 X164.021 Y103.258 E38.05226
G1 X164.849 Y106.322 E38.15783
G1 X165.484 Y109.475 E38.2648
G1 X165.911 Y112.661 E38.37171
G1 X166.126 Y115.915 E38.48018
G1 X166.126 Y119.085 E38.58561
G1 X165.915 Y122.295 E38.69261
G1 X165.484 Y125.516 E38.8007
G1 X164.849 Y128.679 E38.908
G1 X164.021 Y131.742 E39.01353
G1 X162.967 Y134.811 E39.12146
G1 X161.734 Y137.751 E39.22749
G1 X160.252 Y140.716 E39.33774
G1 X158.692 Y143.383 E39.44051
G1 X156.837 Y146.125 E39.55061
G1 X154.904 Y148.608 E39.65527
G1 X152.763 Y151.014 E39.76239
G1 X150.443 Y153.293 E39.87056
G1 X148.008 Y155.389 E39.97742
G1 X145.436 Y157.325 E40.08449
G1 X142.773 Y159.063 E40.19026
G1 X139.944 Y160.659 E40.29829
G1 X137.032 Y162.05 E40.40563
G1 X134.084 Y163.228 E40.51122
G1 X130.996 Y164.231 E40.61921
G1 X127.876 Y165.02 E40.72624
G1 X124.746 Y165.599 E40.83211
G1 X121.535 Y165.97 E40.93962
G1 X119.106 Y166.092 E41.02051
G0 F1080 X118.307 Y166.131
G1 F4200 E34.02051
G0 F6000 X118.303 Y166.391
G0 X115.083 Y166.277
G0 X111.878 Y166.013
G0 X108.681 Y165.534
G0 X105.536 Y164.846
G0 X102.412 Y163.945
G0 X99.385 Y162.85
G0 X96.417 Y161.549
G0 X93.573 Y160.067
G0 X90.793 Y158.379
G0 X88.158 Y156.53
G0 X86.114 Y154.885
G0 X83.695 Y152.793
G0 X84.007 Y152.455
G1 F4200 E41.02051
G1 F1200 X82.851 Y151.299 E41.07489
G0 F6000 X82.517 Y151.615
G0 X82.097 Y151.149
G0 X78.702 Y147.225
G0 X79.074 Y146.956
G1 F1200 X88.04 Y155.922 E41.49662
G0 F6000 X87.751 Y156.279
G0 X89.794 Y157.751
G0 X90.059 Y157.375
G1 F1200 X77.587 Y144.903 E42.08327
G0 F6000 X77.213 Y145.174
G0 X76.168 Y143.554
G0 X76.558 Y143.309
G1 F1200 X91.725 Y158.476 E42.79668
G0 F6000 X91.486 Y158.87
G0 X92.927 Y159.745
G0 X93.166 Y159.351
G1 F1200 X75.622 Y141.807 E43.62189
G0 F6000 X75.217 Y142.025
G0 X74.552 Y140.794
G0 X74.956 Y140.576
G1 F1200 X94.458 Y160.077 E44.53918
G0 F6000 X94.245 Y160.485
G0 X95.426 Y161.1
G0 X95.639 Y160.692
G1 F1200 X74.29 Y139.344 E45.54335
G0 F6000 X73.886 Y139.562
G0 X73.359 Y138.457
G0 X73.778 Y138.266
G1 F1200 X96.785 Y161.273 E46.62553
G0 F6000 X96.6 Y161.694
G0 X97.606 Y162.135
G0 X97.792 Y161.714
G1 F1200 X73.297 Y137.22 E47.77768
G0 F6000 X72.879 Y137.411
G0 X72.391 Y136.339
G0 X72.82 Y136.177
G1 F1200 X98.799 Y162.156 E48.99965
G0 F6000 X98.614 Y162.577
G0 X99.617 Y162.998
G0 X99.774 Y162.565
G1 F1200 X72.474 Y135.265 E50.28376
G0 F6000 X72.127 Y134.352
G1 F1200 X100.659 Y162.884 E51.62581
G0 F6000 X101.545 Y163.205
G1 F1200 X71.779 Y133.439 E53.02592
G0 F6000 X71.508 Y132.602
G1 F1200 X102.43 Y163.524 E54.48039
G0 F6000 X103.236 Y163.764
G1 F1200 X71.258 Y131.787 E55.98452
G0 F6000 X71.008 Y130.971
G1 F1200 X104.031 Y163.994 E57.53782
G0 F6000 X104.827 Y164.224
G1 F1200 X70.76 Y130.157 E59.14022
G0 F6000 X70.586 Y129.417
G1 F1200 X105.622 Y164.453 E60.78821
G0 F6000 X106.348 Y164.613
G1 F1200 X70.411 Y128.677 E62.47855
G0 F6000 X70.236 Y127.936
G1 F1200 X107.071 Y164.771 E64.21116
G0 F6000 X107.795 Y164.929
G1 F1200 X70.062 Y127.197 E65.98598
G0 F6000 X69.935 Y126.504
G1 F1200 X108.519 Y165.088 E67.80085
G0 F6000 X109.203 Y165.206
G1 F1200 X69.821 Y125.824 E69.65326
G0 F6000 X69.708 Y125.145
G1 F1200 X109.869 Y165.306 E71.54231
G0 F6000 X110.534 Y165.406
G1 F1200 X69.595 Y124.467 E73.46796
G0 F6000 X69.488 Y123.793
G1 F1200 X111.201 Y165.506 E75.43001
G0 F6000 X111.866 Y165.606
G1 F1200 X69.425 Y123.165 E77.4263
G0 F6000 X69.363 Y122.538
G1 F1200 X112.487 Y165.662 E79.45472
G0 F6000 X113.104 Y165.713
G1 F1200 X69.301 Y121.91 E81.51508
G0 F6000 X69.239 Y121.282
G1 F1200 X113.721 Y165.764 E83.60738
G0 F6000 X114.337 Y165.815
G1 F1200 X69.181 Y120.659 E85.73138
G0 F6000 X69.162 Y120.073
G1 F1200 X114.954 Y165.866 E87.88532
G0 F6000 X115.538 Y165.884
G1 F1200 X69.142 Y119.488 E90.06764
G0 F6000 X69.122 Y118.902
G1 F1200 X116.113 Y165.893 E92.27795
G0 F6000 X116.688 Y165.903
G1 F1200 X69.102 Y118.317 E94.51625
G0 F6000 X69.082 Y117.731
G1 F1200 X117.263 Y165.912 E96.78254
G0 F6000 X117.839 Y165.922
G1 F1200 X69.087 Y117.17 E99.07569
G0 F6000 X69.105 Y116.623
G1 F1200 X118.407 Y165.924 E101.39468
G0 F6000 X118.945 Y165.897
