;FLAVOR:Marlin
;TIME:170
;Filament used: 0.153071m
;Layer height: 0.2
;MINX:92.754
;MINY:92.754
;MINZ:0.2
;MAXX:142.247
;MAXY:142.247
;MAXZ:2.4
;Generated with Cura_SteamEngine 5.4.0
M140 S60
M105
M190 S60
M104 S180
M105
M109 S180
M82 ;absolute extrusion mode

G92 E0
G92 E0
G1 F4200 E-7
;LAYER_COUNT:12
;LAYER:0
M107
;MESH:cylinder v2.stl
G0 F6000 X117.919 Y142.247 Z0.2
;TYPE:WALL-OUTER
G1 F4200 E0
G1 F960 X117.111 Y142.24 E0.03359
G1 X116.27 Y142.22 E0.06857
G1 X115.435 Y142.157 E0.10338
G1 X114.661 Y142.086 E0.1357
G1 X113.767 Y141.959 E0.17324
G1 X113.038 Y141.843 E0.20393
G1 F961.9 X112.134 Y141.652 E0.24226
G1 X111.449 Y141.496 E0.27141
G1 F960 X110.506 Y141.232 E0.31213
G1 X109.856 Y141.037 E0.34034
G1 X108.915 Y140.706 E0.38181
G1 X108.327 Y140.485 E0.40793
G1 F961.9 X107.383 Y140.078 E0.45058
G1 X106.818 Y139.823 E0.4763
G1 X105.89 Y139.348 E0.51956
G1 X105.386 Y139.079 E0.54326
G1 F950.5 X103.967 Y138.218 E0.61296
G1 X102.625 Y137.277 E0.68178
G1 X101.353 Y136.251 E0.7504
G1 F952.4 X100.157 Y135.151 E0.8185
G1 X99.028 Y133.966 E0.88709
G1 F954.3 X97.973 Y132.7 E0.95602
G1 X97.018 Y131.384 E1.02403
G1 X96.139 Y129.992 E1.09288
G1 X95.37 Y128.57 E1.1605
G1 X94.676 Y127.063 E1.22989
G1 F956.2 X94.1 Y125.55 E1.29747
G1 F958.1 X93.621 Y123.988 E1.36553
G1 X93.239 Y122.376 E1.43454
G1 F960 X92.97 Y120.762 E1.50257
G1 X92.809 Y119.153 E1.5698
G1 X92.754 Y117.525 E1.63752
G1 F961.9 X92.808 Y115.862 E1.70656
G1 X92.969 Y114.245 E1.77398
G1 X93.237 Y112.64 E1.8415
G1 F960 X93.617 Y111.025 E1.91047
G1 F958.1 X94.098 Y109.459 E1.97872
G1 X94.67 Y107.951 E2.04591
G1 F956.2 X95.363 Y106.444 E2.11514
G1 X96.131 Y105.022 E2.1826
G1 F954.3 X97.01 Y103.628 E2.25153
G1 X97.964 Y102.313 E2.31948
G1 X99.018 Y101.046 E2.38841
G1 X100.146 Y99.86 E2.45687
G1 F952.4 X101.342 Y98.759 E2.52499
G1 F950.5 X102.619 Y97.728 E2.59391
G1 X103.954 Y96.791 E2.6624
G1 F960 X104.406 Y96.509 E2.68455
G1 F961.9 X105.373 Y95.929 E2.73133
G1 F960 X105.881 Y95.656 E2.75531
G1 X106.804 Y95.183 E2.79843
G1 F961.9 X107.371 Y94.926 E2.82426
G1 F960 X108.312 Y94.521 E2.86685
G1 X108.898 Y94.302 E2.89286
G1 F961.9 X109.841 Y93.968 E2.93437
G1 X110.488 Y93.774 E2.9624
G1 X111.435 Y93.508 E3.00321
G1 X112.102 Y93.354 E3.03161
G1 F960 X113.022 Y93.159 E3.07071
G1 X113.736 Y93.045 E3.10077
G1 F958.1 X114.645 Y92.916 E3.13902
G1 F960 X115.401 Y92.845 E3.17059
G1 X116.262 Y92.781 E3.20648
G1 X117.077 Y92.76 E3.24038
G1 F961.9 X117.903 Y92.754 E3.27465
G1 X118.741 Y92.788 E3.30945
G1 X119.546 Y92.836 E3.34291
G1 X120.413 Y92.929 E3.37909
G1 F960 X121.187 Y93.025 E3.41152
G1 X122.058 Y93.179 E3.44829
G1 F961.9 X122.766 Y93.316 E3.47821
G1 X123.684 Y93.541 E3.51743
G1 X124.367 Y93.721 E3.54673
G1 X125.305 Y94.018 E3.58756
G1 X125.939 Y94.231 E3.61531
G1 X126.872 Y94.596 E3.65688
G1 X127.433 Y94.828 E3.68207
G1 F950.5 X128.908 Y95.533 E3.75072
G1 F960 X129.867 Y96.063 E3.79627
G1 X130.354 Y96.346 E3.81969
G1 X131.28 Y96.943 E3.86549
G1 X131.706 Y97.229 E3.88683
G1 F952.4 X133.014 Y98.211 E3.95537
G1 X134.256 Y99.278 E4.02399
G1 F950.5 X135.444 Y100.446 E4.09395
G1 X136.528 Y101.664 E4.16241
G1 F952.4 X137.507 Y102.92 E4.22915
G1 F954.3 X138.466 Y104.335 E4.30064
G1 F952.4 X139.252 Y105.68 E4.36593
G1 F954.3 X140.007 Y107.187 E4.43643
G1 F956.2 X140.633 Y108.677 E4.50389
G1 F954.3 X141.172 Y110.245 E4.57323
G1 F956.2 X141.593 Y111.804 E4.64064
G1 F958.1 X141.918 Y113.409 E4.70886
G1 X142.136 Y115.031 E4.77704
G1 F960 X142.247 Y116.701 E4.84662
G1 X142.247 Y118.299 E4.91306
G1 X142.139 Y119.94 E4.98143
G1 F961.9 X141.921 Y121.571 E5.0497
G1 F960 X141.597 Y123.181 E5.11798
G1 F956.2 X141.176 Y124.74 E5.18539
G1 F958.1 X140.641 Y126.302 E5.25417
G1 X140.013 Y127.799 E5.3218
G1 F956.2 X139.26 Y129.307 E5.39215
G1 F954.3 X138.474 Y130.652 E5.45731
G1 X137.512 Y132.074 E5.52912
G1 X136.537 Y133.324 E5.59542
G1 F952.4 X135.449 Y134.548 E5.66405
G1 X134.27 Y135.709 E5.73339
G1 F950.5 X133.03 Y136.776 E5.80209
G1 F961.9 X132.663 Y137.06 E5.82134
G1 X131.721 Y137.76 E5.87004
G1 F960 X131.28 Y138.057 E5.89214
G1 X130.367 Y138.646 E5.93731
G1 X129.868 Y138.936 E5.96131
G1 X128.928 Y139.458 E6.00601
G1 F961.9 X128.419 Y139.708 E6.02954
G1 X127.447 Y140.166 E6.07412
G1 F963.9 X126.859 Y140.408 E6.10045
G1 F961.9 X125.946 Y140.766 E6.14114
G1 X125.336 Y140.972 E6.16786
G1 X124.383 Y141.275 E6.20935
G1 F960 X123.716 Y141.451 E6.23803
G1 X122.781 Y141.682 E6.27807
G1 X122.091 Y141.815 E6.30729
G1 X121.195 Y141.973 E6.34511
G1 X120.446 Y142.068 E6.3765
G1 X119.561 Y142.164 E6.41351
G1 X118.773 Y142.211 E6.44633
G1 X118.353 Y142.229 E6.46381
G0 F1080 X117.919 Y142.247
G0 F6000 X117.101 Y141.747
G1 F958.1 X117.903 Y141.739 E6.49722
G1 F960 X118.725 Y141.718 E6.53141
G1 X119.512 Y141.66 E6.56421
G1 X120.372 Y141.581 E6.60012
G1 F973.6 X121.977 Y141.334 E6.66669
G1 F960 X122.665 Y141.188 E6.69593
G1 X123.57 Y140.98 E6.73454
G1 X124.234 Y140.791 E6.76324
G1 X125.159 Y140.512 E6.80341
G1 F961.9 X125.766 Y140.294 E6.83017
G1 X126.683 Y139.948 E6.87083
G1 F963.9 X127.236 Y139.707 E6.89581
G1 F961.9 X128.183 Y139.275 E6.939
G1 F973.6 X129.619 Y138.509 E7.00572
G1 F961.9 X130.096 Y138.22 E7.02886
G1 F960 X131.014 Y137.64 E7.074
G1 X131.423 Y137.353 E7.09478
G1 F961.9 X132.344 Y136.682 E7.14206
G1 F971.7 X133.614 Y135.629 E7.20982
G1 F973.6 X134.791 Y134.511 E7.27637
G1 X135.898 Y133.308 E7.34339
G1 F969.7 X136.924 Y132.028 E7.41091
G1 X137.866 Y130.678 E7.47866
G1 X138.707 Y129.276 E7.54595
G1 F967.7 X139.458 Y127.808 E7.61396
G1 X140.109 Y126.296 E7.68185
G1 X140.643 Y124.774 E7.74838
G1 F965.8 X141.086 Y123.173 E7.81702
G1 X141.413 Y121.587 E7.88395
G1 X141.634 Y119.96 E7.9518
G1 F963.9 X141.745 Y118.34 E8.01904
G1 F961.9 X141.747 Y116.701 E8.08705
G1 X141.635 Y115.04 E8.15612
G1 F963.9 X141.416 Y113.43 E8.2234
G1 X141.086 Y111.827 E8.29117
G1 F965.8 X140.647 Y110.238 E8.3593
G1 X140.109 Y108.704 E8.42648
G1 X139.465 Y107.207 E8.49382
G1 X138.716 Y105.739 E8.56193
G1 F967.7 X137.876 Y104.337 E8.62934
G1 F969.7 X136.934 Y102.985 E8.69716
G1 X135.909 Y101.705 E8.76465
G1 F971.7 X134.803 Y100.501 E8.83181
G1 X133.627 Y99.382 E8.89849
G1 X132.357 Y98.328 E8.96628
G1 X131.028 Y97.369 E9.0336
G1 X129.625 Y96.493 E9.10154
G1 F960 X128.68 Y95.983 E9.14619
G1 F961.9 X128.197 Y95.733 E9.16875
G1 X127.235 Y95.292 E9.21266
G1 X126.689 Y95.053 E9.23739
G1 F971.7 X125.166 Y94.49 E9.30409
G1 F960 X124.233 Y94.208 E9.34461
G1 F961.9 X123.586 Y94.024 E9.37252
G1 X122.665 Y93.811 E9.41174
G1 X121.993 Y93.669 E9.44024
G1 F960 X121.111 Y93.526 E9.47739
G1 F958.1 X120.372 Y93.419 E9.5085
G1 F960 X119.512 Y93.34 E9.5444
G1 X118.733 Y93.281 E9.57688
G1 X117.903 Y93.26 E9.6114
G1 X117.101 Y93.253 E9.64474
G1 F958.1 X116.294 Y93.287 E9.67839
G1 F960 X115.467 Y93.336 E9.71284
G1 X114.712 Y93.419 E9.74441
G1 F958.1 X113.833 Y93.53 E9.78132
G1 F960 X113.122 Y93.656 E9.81134
G1 X112.232 Y93.83 E9.84905
G1 F973.6 X110.642 Y94.241 E9.91637
G1 X109.09 Y94.756 E9.9834
G1 X107.575 Y95.375 E10.05049
G1 F971.7 X106.108 Y96.093 E10.11758
G1 F969.7 X104.68 Y96.919 E10.18548
G1 F971.7 X103.325 Y97.828 E10.2525
G1 F961.9 X102.931 Y98.125 E10.27297
G1 F960 X102.032 Y98.83 E10.32047
G1 F971.7 X100.783 Y99.936 E10.389
G1 X99.657 Y101.082 E10.45499
G1 X98.584 Y102.332 E10.52266
G1 X97.613 Y103.631 E10.58928
G1 F969.7 X96.722 Y105.004 E10.65664
G1 X95.92 Y106.449 E10.72467
G1 F967.7 X95.219 Y107.938 E10.79254
G1 F965.8 X94.631 Y109.443 E10.85932
G1 X94.137 Y111.018 E10.92753
G1 X93.75 Y112.62 E10.99564
G1 X93.475 Y114.226 E11.06297
G1 F963.9 X93.31 Y115.843 E11.13028
G1 F961.9 X93.254 Y117.491 E11.1987
G1 F960 X93.308 Y119.121 E11.2665
G1 F961.9 X93.473 Y120.757 E11.33473
G1 F963.9 X93.746 Y122.363 E11.40218
G1 F965.8 X94.133 Y123.966 E11.47033
G1 X94.624 Y125.538 E11.53839
G1 X95.212 Y127.047 E11.60532
G1 X95.912 Y128.536 E11.67331
G1 F967.7 X96.711 Y129.978 E11.7413
G1 F969.7 X97.601 Y131.352 E11.80869
G1 X98.573 Y132.655 E11.87559
G1 F971.7 X99.657 Y133.918 E11.94396
G1 X100.783 Y135.064 E12.00996
G1 X102.02 Y136.16 E12.07784
G1 F969.7 X103.32 Y137.17 E12.1456
G1 X104.671 Y138.075 E12.21253
G1 F961.9 X105.63 Y138.637 E12.25865
G1 X106.097 Y138.9 E12.28089
G1 F973.6 X107.569 Y139.623 E12.34812
G1 X109.074 Y140.238 E12.41476
G1 F961.9 X110.006 Y140.554 E12.4556
G1 X110.633 Y140.755 E12.48291
G1 X111.568 Y141.005 E12.52307
G1 F960 X112.225 Y141.169 E12.55123
G1 X113.123 Y141.344 E12.58926
G1 X113.817 Y141.467 E12.61857
G1 X114.712 Y141.582 E12.65608
G1 X115.459 Y141.665 E12.68733
G1 X116.295 Y141.713 E12.72214
G1 F958.1 X117.101 Y141.747 E12.75575
;MESH:NONMESH
G0 F300 X117.101 Y141.747 Z0.4
G0 F6000 X117.919 Y142.247
;TIME_ELAPSED:23.920452
;LAYER:1
M106 S85
;TYPE:WALL-OUTER
;MESH:cylinder v2.stl
G1 F1200 X117.111 Y142.24 E12.78934
G1 X116.27 Y142.22 E12.82432
G1 X115.435 Y142.157 E12.85913
G1 X114.661 Y142.086 E12.89145
G1 X113.767 Y141.959 E12.92899
G1 X113.038 Y141.843 E12.95968
G1 F1202.4 X112.134 Y141.652 E12.99801
G1 X111.449 Y141.496 E13.02716
G1 F1200 X110.506 Y141.232 E13.06788
G1 X109.856 Y141.037 E13.09609
G1 X108.915 Y140.706 E13.13756
G1 X108.327 Y140.485 E13.16368
G1 F1202.4 X107.383 Y140.078 E13.20633
G1 X106.818 Y139.823 E13.23205
G1 X105.89 Y139.348 E13.27531
G1 X105.386 Y139.079 E13.29901
G1 F1188.1 X103.967 Y138.218 E13.36871
G1 X102.625 Y137.277 E13.43753
G1 X101.353 Y136.251 E13.50615
G1 F1190.5 X100.157 Y135.151 E13.57425
G1 X99.028 Y133.966 E13.64284
G1 F1192.8 X97.973 Y132.7 E13.71177
G1 X97.018 Y131.384 E13.77978
G1 X96.139 Y129.992 E13.84863
G1 X95.37 Y128.57 E13.91625
G1 X94.676 Y127.063 E13.98564
G1 F1195.2 X94.1 Y125.55 E14.05321
G1 F1197.6 X93.621 Y123.988 E14.12128
G1 X93.239 Y122.376 E14.19029
G1 F1200 X92.97 Y120.762 E14.25832
G1 X92.809 Y119.153 E14.32554
G1 X92.754 Y117.525 E14.39327
G1 F1202.4 X92.808 Y115.862 E14.46231
G1 X92.969 Y114.245 E14.52973
G1 X93.237 Y112.64 E14.59725
G1 F1200 X93.617 Y111.025 E14.66622
G1 F1197.6 X94.098 Y109.459 E14.73447
G1 X94.67 Y107.951 E14.80166
G1 F1195.2 X95.363 Y106.444 E14.87089
G1 X96.131 Y105.022 E14.93835
G1 F1192.8 X97.01 Y103.628 E15.00728
G1 X97.964 Y102.313 E15.07523
G1 X99.018 Y101.046 E15.14416
G1 X100.146 Y99.86 E15.21262
G1 F1190.5 X101.342 Y98.759 E15.28074
G1 F1188.1 X102.619 Y97.728 E15.34966
G1 X103.954 Y96.791 E15.41815
G1 F1200 X104.406 Y96.509 E15.4403
G1 F1202.4 X105.373 Y95.929 E15.48708
G1 F1200 X105.881 Y95.656 E15.51106
G1 X106.804 Y95.183 E15.55418
G1 F1202.4 X107.371 Y94.926 E15.58001
G1 F1200 X108.312 Y94.521 E15.6226
G1 X108.898 Y94.302 E15.64861
G1 F1202.4 X109.841 Y93.968 E15.69012
G1 X110.488 Y93.774 E15.71814
G1 X111.435 Y93.508 E15.75896
G1 X112.102 Y93.354 E15.78736
G1 F1200 X113.022 Y93.159 E15.82646
G1 X113.736 Y93.045 E15.85652
G1 F1197.6 X114.645 Y92.916 E15.89477
G1 F1200 X115.401 Y92.845 E15.92634
G1 X116.262 Y92.781 E15.96223
G1 X117.077 Y92.76 E15.99613
G1 F1202.4 X117.903 Y92.754 E16.0304
G1 X118.741 Y92.788 E16.0652
G1 X119.546 Y92.836 E16.09866
G1 X120.413 Y92.929 E16.13484
G1 F1200 X121.187 Y93.025 E16.16727
G1 X122.058 Y93.179 E16.20404
G1 F1202.4 X122.766 Y93.316 E16.23396
G1 X123.684 Y93.541 E16.27318
G1 X124.367 Y93.721 E16.30248
G1 X125.305 Y94.018 E16.34331
G1 X125.939 Y94.231 E16.37106
G1 F1188.1 X127.433 Y94.828 E16.43862
G1 X128.908 Y95.533 E16.50726
G1 F1200 X129.867 Y96.063 E16.55282
G1 X130.354 Y96.346 E16.57624
G1 X131.28 Y96.943 E16.62204
G1 X131.706 Y97.229 E16.64337
G1 F1190.5 X133.014 Y98.211 E16.71192
G1 X134.256 Y99.278 E16.78054
G1 F1188.1 X135.444 Y100.446 E16.8505
G1 X136.528 Y101.664 E16.91896
G1 F1190.5 X137.507 Y102.92 E16.9857
G1 F1192.8 X138.466 Y104.335 E17.05719
G1 F1190.5 X139.252 Y105.68 E17.12248
G1 F1192.8 X140.007 Y107.187 E17.19297
G1 F1195.2 X140.633 Y108.677 E17.26044
G1 F1192.8 X141.172 Y110.245 E17.32978
G1 F1195.2 X141.593 Y111.804 E17.39719
G1 F1197.6 X141.918 Y113.409 E17.46541
G1 X142.136 Y115.031 E17.53359
G1 F1200 X142.245 Y116.661 E17.6015
G1 X142.247 Y118.299 E17.6696
G1 X142.139 Y119.94 E17.73798
G1 F1202.4 X141.921 Y121.571 E17.80625
G1 F1200 X141.597 Y123.181 E17.87453
G1 F1195.2 X141.176 Y124.74 E17.94194
G1 F1197.6 X140.641 Y126.302 E18.01072
G1 X140.013 Y127.799 E18.07834
G1 F1195.2 X139.26 Y129.307 E18.1487
G1 F1192.8 X138.474 Y130.652 E18.21386
G1 X137.512 Y132.074 E18.28566
G1 X136.537 Y133.324 E18.35197
G1 F1190.5 X135.449 Y134.548 E18.4206
G1 X134.27 Y135.709 E18.48994
G1 F1188.1 X133.03 Y136.776 E18.55863
G1 F1202.4 X132.663 Y137.06 E18.57789
G1 X131.721 Y137.76 E18.62658
G1 F1200 X131.28 Y138.057 E18.64869
G1 X130.367 Y138.646 E18.69386
G1 X129.868 Y138.936 E18.71786
G1 X128.928 Y139.458 E18.76256
G1 F1202.4 X128.419 Y139.708 E18.78609
G1 X127.447 Y140.166 E18.83067
G1 F1204.8 X126.859 Y140.408 E18.857
G1 F1202.4 X125.946 Y140.766 E18.89769
G1 X125.336 Y140.972 E18.9244
G1 X124.383 Y141.275 E18.9659
G1 F1200 X123.716 Y141.451 E18.99458
G1 X122.781 Y141.682 E19.03462
G1 X122.091 Y141.815 E19.06383
G1 X121.195 Y141.973 E19.10166
G1 X120.446 Y142.068 E19.13305
G1 X119.561 Y142.164 E19.17006
G1 X118.773 Y142.211 E19.20288
G1 X118.353 Y142.229 E19.22036
G0 F1350 X117.919 Y142.247
G0 F7500 X117.101 Y141.747
G1 F1197.6 X117.903 Y141.739 E19.25377
G1 F1200 X118.725 Y141.718 E19.28795
G1 X119.512 Y141.66 E19.32076
G1 X120.372 Y141.581 E19.35667
G1 F1217 X121.977 Y141.334 E19.42324
G1 F1200 X122.665 Y141.188 E19.45248
G1 X123.57 Y140.98 E19.49108
G1 X124.234 Y140.791 E19.51979
G1 X125.159 Y140.512 E19.55995
G1 F1202.4 X125.766 Y140.294 E19.58671
G1 X126.683 Y139.948 E19.62738
G1 F1204.8 X127.236 Y139.707 E19.65236
G1 F1202.4 X128.183 Y139.275 E19.69555
G1 F1217 X129.619 Y138.509 E19.76227
G1 F1202.4 X130.096 Y138.22 E19.78541
G1 F1200 X131.014 Y137.64 E19.83055
G1 X131.423 Y137.353 E19.85132
G1 F1202.4 X132.344 Y136.682 E19.89861
G1 F1214.6 X133.614 Y135.629 E19.96637
G1 F1217 X134.791 Y134.511 E20.03292
G1 X135.898 Y133.308 E20.09993
G1 F1212.1 X136.924 Y132.028 E20.16745
G1 X137.866 Y130.678 E20.23521
G1 X138.707 Y129.276 E20.3025
G1 F1209.7 X139.458 Y127.808 E20.37051
G1 X140.109 Y126.296 E20.4384
G1 X140.643 Y124.774 E20.50492
G1 F1207.2 X141.086 Y123.173 E20.57357
G1 X141.413 Y121.587 E20.64049
G1 X141.634 Y119.96 E20.70835
G1 F1204.8 X141.745 Y118.34 E20.77559
G1 F1202.4 X141.747 Y116.701 E20.84359
G1 X141.635 Y115.04 E20.91267
G1 F1204.8 X141.416 Y113.43 E20.97995
G1 X141.086 Y111.827 E21.04772
G1 F1207.2 X140.647 Y110.238 E21.11585
G1 X140.109 Y108.704 E21.18303
G1 X139.465 Y107.207 E21.25037
G1 X138.716 Y105.739 E21.31848
G1 F1209.7 X137.876 Y104.337 E21.38588
G1 F1212.1 X136.934 Y102.985 E21.45371
G1 X135.909 Y101.705 E21.5212
G1 F1214.6 X134.803 Y100.501 E21.58836
G1 X133.627 Y99.382 E21.65504
G1 X132.357 Y98.328 E21.72283
G1 X131.028 Y97.369 E21.79015
G1 X129.625 Y96.493 E21.85809
G1 F1200 X128.68 Y95.983 E21.90273
G1 F1202.4 X128.197 Y95.733 E21.9253
G1 X127.235 Y95.292 E21.96921
G1 X126.689 Y95.053 E21.99394
G1 F1214.6 X125.166 Y94.49 E22.06064
G1 F1200 X124.233 Y94.208 E22.10116
G1 F1202.4 X123.586 Y94.024 E22.12907
G1 X122.665 Y93.811 E22.16829
G1 X121.993 Y93.669 E22.19679
G1 F1200 X121.111 Y93.526 E22.23394
G1 F1197.6 X120.372 Y93.419 E22.26504
G1 F1200 X119.512 Y93.34 E22.30095
G1 X118.733 Y93.281 E22.33343
G1 X117.903 Y93.26 E22.36795
G1 X117.101 Y93.253 E22.40129
G1 F1197.6 X116.294 Y93.287 E22.43494
G1 F1200 X115.467 Y93.336 E22.46938
G1 X114.712 Y93.419 E22.50096
G1 F1197.6 X113.833 Y93.53 E22.53787
G1 F1200 X113.122 Y93.656 E22.56789
G1 X112.232 Y93.83 E22.60559
G1 F1217 X110.642 Y94.241 E22.67291
G1 X109.09 Y94.756 E22.73995
G1 X107.575 Y95.375 E22.80704
G1 F1214.6 X106.108 Y96.093 E22.87412
G1 F1212.1 X104.68 Y96.919 E22.94202
G1 F1214.6 X103.325 Y97.828 E23.00905
G1 F1202.4 X102.931 Y98.125 E23.02952
G1 F1200 X102.032 Y98.83 E23.07702
G1 F1214.6 X100.783 Y99.936 E23.14554
G1 X99.657 Y101.082 E23.21154
G1 X98.584 Y102.332 E23.27921
G1 X97.613 Y103.631 E23.34582
G1 F1212.1 X96.722 Y105.004 E23.41319
G1 X95.92 Y106.449 E23.48121
G1 F1209.7 X95.219 Y107.938 E23.54909
G1 F1207.2 X94.631 Y109.443 E23.61586
G1 X94.137 Y111.018 E23.68408
G1 X93.75 Y112.62 E23.75219
G1 X93.475 Y114.226 E23.81952
