;FLAVOR:Marlin
;TIME:56
;Filament used: 0.0331838m
;Layer height: 0.2
;MINX:112.755
;MINY:17.707
;MINZ:0.2
;MAXX:122.245
;MAXY:217.293
;MAXZ:0.4
;Generated with Cura_SteamEngine 5.4.0
M140 S60
M105
M190 S60
M104 S200
M105
M109 S200
M82 ;absolute extrusion mode

G92 E0
G92 E0
G1 F3000 E-5
;LAYER_COUNT:1
;LAYER:0
M107
G1 F300 Z0.4
;MESH:EllipseV3.stl
G0 F6000 X117.196 Y19.585 Z0.4
;TYPE:WALL-INNER
G1 F300 Z0.2
G1 F3000 E0
G1 F941.2 X117.62 Y19.579 E0.01798
G1 X117.852 Y19.637 E0.02812
G1 X117.608 Y18.784 E0.06575
G1 X117.5 Y18.518 E0.07792
G1 X117.388 Y18.795 E0.09059
G1 X117.184 Y19.515 E0.12233
G0 F1080 X117.15 Y19.637
G0 X117.196 Y19.585
G1 F3000 E-4.87767
G1 F300 Z0.4
G0 F6000 X117.796 Y215.414 Z0.4
G1 F300 Z0.2
G1 F3000 E0.12233
G1 F943 X117.38 Y215.42 E0.13994
G1 X117.149 Y215.368 E0.14996
G1 X117.392 Y216.217 E0.18733
G1 X117.5 Y216.484 E0.19952
G1 X117.612 Y216.205 E0.21225
G1 X117.819 Y215.48 E0.24416
G0 F1080 X117.852 Y215.364
G0 X117.796 Y215.414
G0 F6000 X117.87 Y214.858
;TYPE:WALL-OUTER
G1 F1069 X117.695 Y214.954 E0.25161
G1 F1200 X117.328 Y214.968 E0.26382
G1 F1059.6 X117.136 Y214.863 E0.27207
G1 F954.3 X117.059 Y214.534 E0.2862
G1 F963.9 X116.891 Y213.664 E0.32289
G1 F965.8 X116.711 Y212.582 E0.36822
G1 F960 X116.554 Y211.499 E0.41372
G1 F958.1 X116.358 Y209.992 E0.47702
G1 X116.185 Y208.485 E0.54022
G1 X115.995 Y206.666 E0.6164
G1 F954.3 X115.716 Y203.587 E0.74571
G1 F952.4 X115.589 Y202.025 E0.81139
G1 F956.2 X115.338 Y198.674 E0.95165
G1 X115.099 Y195.032 E1.104
G1 F958.1 X114.862 Y190.942 E1.27467
G1 F961.9 X114.554 Y184.744 E1.53216
G1 F967.7 X114.175 Y175.411 E1.91739
G1 X113.972 Y169.211 E2.17323
G1 F969.7 X113.718 Y159.459 E2.57475
G1 F956.2 X113.557 Y151.174 E2.92065
G1 F952.4 X113.474 Y146.388 E3.12125
G1 F944.9 X113.371 Y136.998 E3.51791
G1 F948.6 X113.301 Y129.115 E3.84959
G1 F960 X113.264 Y115.692 E4.40766
G1 F954.3 X113.343 Y99.117 E5.10091
G1 F961.9 X113.457 Y89.498 E5.50005
G1 F967.7 X113.617 Y80.148 E5.88572
G1 F965.8 X113.9 Y68.271 E6.37669
G1 X114.261 Y57.264 E6.8318
G1 F967.7 X114.539 Y50.543 E7.10923
G1 F963.9 X114.715 Y46.828 E7.26324
G1 X115.006 Y41.431 E7.48705
G1 F965.8 X115.175 Y38.675 E7.60115
G1 X115.348 Y36.07 E7.70905
G1 F963.9 X115.528 Y33.623 E7.81065
G1 X115.713 Y31.365 E7.90446
G1 F961.9 X115.89 Y29.381 E7.98711
G1 F960 X116.107 Y27.184 E8.07889
G1 F961.9 X116.287 Y25.571 E8.14624
G1 F963.9 X116.556 Y23.456 E8.23452
G1 F965.8 X116.896 Y21.309 E8.32435
G1 F969.7 X117.122 Y20.184 E8.37158
G1 F1073.8 X117.305 Y20.046 E8.3801
G1 F1200 X117.675 Y20.032 E8.39242
G1 F1066.7 X117.874 Y20.177 E8.40163
G1 F960 X117.941 Y20.466 E8.41396
G1 F963.9 X118.107 Y21.325 E8.45019
G1 F965.8 X118.288 Y22.411 E8.49569
G1 F960 X118.446 Y23.501 E8.54148
G1 F958.1 X118.642 Y25.008 E8.60479
G1 X118.816 Y26.514 E8.66794
G1 X119.005 Y28.337 E8.74429
G1 F954.3 X119.284 Y31.412 E8.87343
G1 F952.4 X119.411 Y32.975 E8.93915
G1 F954.3 X119.662 Y36.325 E9.07966
G1 F956.2 X119.901 Y39.967 E9.232
G1 F958.1 X120.138 Y44.06 E9.4028
G1 F961.9 X120.446 Y50.254 E9.66012
G1 F967.7 X120.825 Y59.589 E10.04543
G1 X121.028 Y65.788 E10.30123
G1 F969.7 X121.282 Y75.542 E10.70284
G1 F954.3 X121.443 Y83.824 E11.0493
G1 F950.5 X121.526 Y88.613 E11.25042
G1 F944.9 X121.629 Y97.998 E11.64687
G1 F948.6 X121.699 Y105.885 E11.97872
G1 F961.9 X121.736 Y119.31 E12.53575
G1 F956.2 X121.657 Y135.885 E13.22763
G1 F963.9 X121.543 Y145.503 E13.62592
G1 F969.7 X121.383 Y154.854 E14.01086
G1 F967.7 X121.1 Y166.731 E14.50084
G1 X120.739 Y177.739 E14.95508
G1 F969.7 X120.461 Y184.458 E15.23187
G1 F967.7 X120.313 Y187.63 E15.36283
G1 F965.8 X119.995 Y193.57 E15.60866
G1 F967.7 X119.825 Y196.327 E15.72258
G1 F965.8 X119.651 Y198.932 E15.83047
G1 X119.471 Y201.379 E15.93187
G1 X119.287 Y203.636 E16.02545
G1 F961.9 X119.11 Y205.619 E16.10806
G1 F960 X118.893 Y207.816 E16.19984
G1 F963.9 X118.713 Y209.429 E16.26705
G1 X118.444 Y211.544 E16.35534
G1 X118.107 Y213.675 E16.44467
G1 X117.949 Y214.459 E16.47779
G0 F1080 X117.87 Y214.858
G0 F6000 X118.346 Y215.009
G1 F958.1 X118.47 Y214.446 E16.50181
G1 F954.3 X118.705 Y213.146 E16.55706
G1 F960 X118.95 Y211.522 E16.62534
G1 F961.9 X119.164 Y209.855 E16.69508
G1 X119.389 Y207.868 E16.77805
G1 X119.615 Y205.599 E16.87266
G1 F960 X119.822 Y203.249 E16.97074
G1 F958.1 X120.043 Y200.451 E17.08766
G1 F960 X120.228 Y197.802 E17.19806
G1 F961.9 X120.422 Y194.784 E17.32355
G1 F960 X120.606 Y191.581 E17.45693
G1 F958.1 X120.786 Y188.197 E17.5981
G1 F956.2 X121.114 Y180.928 E17.90183
G1 F952.4 X121.404 Y173.047 E18.23233
G1 F950.5 X121.658 Y164.632 E18.58584
G1 F952.4 X121.956 Y151.184 E19.14956
G1 F950.5 X122.152 Y137.004 E19.74504
G1 F946.7 X122.245 Y117.499 E20.56733
G1 F956.2 X122.195 Y105.882 E21.05225
G1 F948.6 X122.146 Y97.992 E21.38422
G1 F944.9 X122.026 Y88.606 E21.78072
G1 F950.5 X121.953 Y83.815 E21.98192
G1 F954.3 X121.778 Y75.531 E22.32847
G1 F960 X121.657 Y70.365 E22.54331
G1 F952.4 X121.406 Y61.951 E22.89608
G1 X121.112 Y54.07 E23.22658
G1 F948.6 X120.783 Y46.801 E23.53273
G1 F952.4 X120.606 Y43.421 E23.67457
G1 F956.2 X120.42 Y40.215 E23.80862
G1 F952.4 X120.225 Y37.196 E23.9354
G1 F948.6 X120.037 Y34.548 E24.0471
G1 F946.7 X119.819 Y31.746 E24.16558
G1 X119.605 Y29.33 E24.26783
G1 F950.5 X119.387 Y27.124 E24.36091
G1 F954.3 X119.163 Y25.14 E24.44442
G1 F956.2 X118.934 Y23.376 E24.51867
G1 X118.703 Y21.84 E24.58351
G1 X118.469 Y20.549 E24.63827
G1 X118.362 Y20.067 E24.65888
G1 F1066.7 X118.286 Y19.495 E24.68047
G1 F1200 X118.04 Y18.64 E24.71006
G1 X117.811 Y18.077 E24.73028
G1 X117.599 Y17.761 E24.74293
G1 X117.5 Y17.707 E24.74669
G1 X117.401 Y17.761 E24.75044
G1 X117.189 Y18.077 E24.76309
G1 X116.96 Y18.64 E24.78331
G1 X116.715 Y19.495 E24.81289
G1 F1071.4 X116.632 Y20.087 E24.83516
G1 F961.9 X116.53 Y20.554 E24.85499
G1 F956.2 X116.295 Y21.854 E24.91013
G1 F960 X116.05 Y23.478 E24.97842
G1 F961.9 X115.836 Y25.145 E25.04815
G1 F960 X115.611 Y27.132 E25.13129
G1 X115.385 Y29.401 E25.22609
G1 X115.178 Y31.751 E25.32417
G1 X114.957 Y34.549 E25.44086
G1 F961.9 X114.772 Y37.198 E25.55104
G1 X114.578 Y40.216 E25.67652
G1 F960 X114.394 Y43.419 E25.80991
G1 X114.215 Y46.803 E25.95079
G1 F958.1 X113.887 Y54.072 E26.25392
G1 F952.4 X113.596 Y61.953 E26.58442
G1 F950.5 X113.342 Y70.368 E26.93793
G1 F952.4 X113.044 Y83.816 E27.50164
G1 F950.5 X112.848 Y97.996 E28.09713
G1 F944.9 X112.755 Y117.501 E28.92104
G1 F954.3 X112.805 Y129.118 E29.40692
G1 F948.6 X112.854 Y137.004 E29.73872
G1 F944.9 X112.974 Y146.395 E30.13544
G1 F952.4 X113.047 Y151.183 E30.33611
G1 F956.2 X113.222 Y159.47 E30.6821
G1 F960 X113.342 Y164.633 E30.89681
G1 F954.3 X113.594 Y173.047 E31.24888
G1 F952.4 X113.888 Y180.926 E31.5793
G1 F950.5 X114.216 Y188.195 E31.88485
G1 F952.4 X114.394 Y191.579 E32.02686
G1 F954.3 X114.58 Y194.783 E32.16109
G1 F952.4 X114.775 Y197.802 E32.28787
G1 F950.5 X114.963 Y200.452 E32.39943
G1 X115.213 Y203.631 E32.53333
G1 F948.6 X115.394 Y205.668 E32.61937
G1 F950.5 X115.613 Y207.87 E32.71229
G1 F954.3 X115.837 Y209.857 E32.79593
G1 F956.2 X116.064 Y211.616 E32.86996
G1 X116.295 Y213.152 E32.93479
G1 X116.531 Y214.45 E32.98986
G1 F952.4 X116.657 Y215.015 E33.01412
G1 F1059.6 X116.714 Y215.505 E33.0327
G1 F1200 X116.96 Y216.36 E33.06229
G1 X117.189 Y216.923 E33.08251
G1 X117.401 Y217.239 E33.09517
G1 X117.5 Y217.293 E33.09892
G1 X117.599 Y217.239 E33.10267
G1 X117.811 Y216.923 E33.11532
G1 X118.04 Y216.36 E33.13554
G1 X118.285 Y215.506 E33.16509
G1 F1069 X118.346 Y215.009 E33.18378
;TIME_ELAPSED:56.864201
G1 F3000 E28.18378
M140 S0

M82 ;absolute extrusion mode
M104 S0
;End of Gcode
;SETTING_3 {"global_quality": "[general]\\nversion = 4\\nname = ModelOnly\\ndefi
;SETTING_3 nition = biqu_b1\\n\\n[metadata]\\ntype = quality_changes\\nquality_t
;SETTING_3 ype = standard\\nsetting_version = 22\\n\\n[values]\\nadhesion_type =
;SETTING_3  none\\nsupport_enable = False\\n\\n", "extruder_quality": ["[general
;SETTING_3 ]\\nversion = 4\\nname = ModelOnly\\ndefinition = biqu_b1\\n\\n[metad
;SETTING_3 ata]\\ntype = quality_changes\\nquality_type = standard\\nintent_cate
;SETTING_3 gory = default\\nposition = 0\\nsetting_version = 22\\n\\n[values]\\n
;SETTING_3 infill_sparse_density = 0\\nretraction_hop_enabled = True\\n\\n"]}
