;FLAVOR:Marlin
;TIME:301
;Filament used: 0.170806m
;Layer height: 0.2
;MINX:88.551
;MINY:88.095
;MINZ:0.2
;MAXX:146.45
;MAXY:146.905
;MAXZ:0.2
;Generated with Cura_SteamEngine 5.4.0
M82 ;absolute extrusion mode
                                 ; BIQU B1 Start G-code
M117 Getting the bed up to temp!
M140 S60      ; Set Heat Bed temperature
M190 S60      ; Wait for Heat Bed temperature
M117 Getting the extruder up to temp!
M104 S180    ; Set Extruder temperature
G92 E0                           ; Reset Extruder
M117 Homing axes
G28                              ; Home all axes
M109 S180    ; Wait for Extruder temperature
G1 Z2.0 F3000                    ; Move Z Axis up little to prevent scratching of Heat Bed
G1 X4.1 Y20 Z0.3 F5000.0         ; Move to start position
M117 Purging
G1 X4.1 Y200.0 Z0.3 F1500.0 E15  ; Draw the first line
G1 X4.4 Y200.0 Z0.3 F5000.0      ; Move to side a little
G1 X4.4 Y20 Z0.3 F1500.0 E30     ; Draw the second line
G92 E0                           ; Reset Extruder
M117 Lets make
G1 Z2.0 F3000                    ; Move Z Axis up little to prevent scratching of Heat Bed
G1 X5 Y20 Z0.3 F5000.0           ; Move over to prevent blob squish
G92 E0
G92 E0
G1 F4200 E-7
;LAYER_COUNT:1
;LAYER:0
M107
;MESH:mencastlogo.stl
G0 F6000 X98.95 Y134.119 Z0.2
;TYPE:WALL-INNER
G1 F4200 E0
G1 F1200 X98.523 Y133.936 E0.01545
G1 X98.324 Y133.804 E0.02339
G1 X98.146 Y133.605 E0.03227
G1 X97.973 Y133.248 E0.04547
G1 X97.973 Y89.003 E1.51706
G1 X89.351 Y89.003 E1.80383
G1 X89.351 Y145.917 E3.6968
G1 X96.628 Y145.917 E3.93883
G1 X98.123 Y145.65 E3.98934
G1 X99.656 Y145.284 E4.04177
G1 X101.154 Y144.83 E4.09383
G1 X102.621 Y144.285 E4.14588
G1 X104.062 Y143.643 E4.19835
G1 X105.443 Y142.919 E4.25021
G1 X106.797 Y142.099 E4.30286
G1 X108.12 Y141.183 E4.35638
G1 X109.381 Y140.195 E4.40966
G1 X110.59 Y139.132 E4.4632
G1 X111.745 Y138.002 E4.51695
G1 X112.84 Y136.81 E4.57078
G1 X113.875 Y135.564 E4.62466
G1 X114.854 Y134.262 E4.67884
G1 X115.778 Y132.91 E4.7333
G1 X116.714 Y131.412 E4.79205
G1 X116.97 Y131.18 E4.80354
G1 X117.176 Y131.081 E4.81115
G1 X117.4 Y131.032 E4.81877
G1 X117.734 Y131.053 E4.8299
G1 X118.116 Y131.235 E4.84398
G1 X118.296 Y131.417 E4.85249
G1 X118.976 Y132.505 E4.89516
G1 X119.545 Y133.383 E4.92996
G1 X120.231 Y134.382 E4.97027
G1 X120.814 Y135.188 E5.00335
G1 X121.409 Y135.966 E5.03593
G1 X122.012 Y136.705 E5.06765
G1 X122.628 Y137.413 E5.09887
G1 X123.156 Y137.969 E5.12437
G1 X123.781 Y138.599 E5.15389
G1 X124.365 Y139.139 E5.18034
G1 X124.968 Y139.66 E5.20685
G1 X125.555 Y140.134 E5.23194
G1 X126.809 Y141.064 E5.28387
G1 X128.103 Y141.937 E5.33578
G1 X129.451 Y142.777 E5.38861
G1 X130.883 Y143.588 E5.44335
G1 X131.624 Y143.971 E5.47109
G1 X132.375 Y144.33 E5.49878
G1 X133.132 Y144.658 E5.52622
G1 X133.928 Y144.968 E5.55463
G1 X134.81 Y145.267 E5.5856
G1 X135.54 Y145.471 E5.61081
G1 X136.374 Y145.672 E5.63935
G1 X137.236 Y145.837 E5.66854
G1 X138.093 Y145.959 E5.69733
G1 X138.986 Y146.045 E5.72717
G1 X139.915 Y146.094 E5.75811
G1 X140.886 Y146.105 E5.79041
G1 X145.649 Y146.096 E5.94883
G1 X145.55 Y88.897 E7.85128
G1 X136.894 Y88.921 E8.13918
G1 X136.894 Y133.216 E9.61243
G1 X136.795 Y133.525 E9.62323
G1 X136.64 Y133.757 E9.63251
G1 X136.449 Y133.922 E9.6409
G1 X136.058 Y134.076 E9.65488
G1 X135.199 Y134.133 E9.68351
G1 X134.466 Y134.105 E9.70791
G1 X133.755 Y134.005 E9.73179
G1 X132.991 Y133.826 E9.75789
G1 X132.145 Y133.536 E9.78763
G1 X131.428 Y133.214 E9.81378
G1 X130.68 Y132.797 E9.84226
G1 X129.93 Y132.296 E9.87226
G1 X129.215 Y131.738 E9.90242
G1 X128.563 Y131.151 E9.9316
G1 X127.849 Y130.411 E9.9658
G1 X127.233 Y129.681 E9.99757
G1 X126.603 Y128.833 E10.03271
G1 X126.027 Y127.937 E10.06814
G1 X125.481 Y126.965 E10.10522
G1 X124.983 Y125.941 E10.14309
G1 X124.535 Y124.882 E10.18133
G1 X124.14 Y123.795 E10.2198
G1 X123.779 Y122.643 E10.25995
G1 X123.461 Y121.465 E10.30054
G1 X123.183 Y120.26 E10.34167
G1 X122.94 Y119.025 E10.38353
G1 X122.73 Y117.774 E10.42572
G1 X122.547 Y116.485 E10.46903
G1 X122.411 Y115.336 E10.50751
G1 X122.268 Y113.876 E10.5563
G1 X122.162 Y112.54 E10.60088
G1 X122.07 Y111.017 E10.65162
G1 X121.986 Y108.479 E10.73608
G1 X121.975 Y102.45 E10.93661
G1 X113.071 Y102.45 E11.23276
G1 X113.071 Y106.737 E11.37534
G1 X112.994 Y107.894 E11.41391
G1 X112.905 Y109.01 E11.45115
G1 X112.704 Y111.156 E11.52284
G1 X112.59 Y112.185 E11.55727
G1 X112.322 Y114.203 E11.62498
G1 X112.021 Y116.098 E11.6888
G1 X111.855 Y117.007 E11.71953
G1 X111.684 Y117.872 E11.74886
G1 X111.303 Y119.574 E11.80687
G1 X111.101 Y120.379 E11.83447
G1 X110.683 Y121.882 E11.88636
G1 X110.247 Y123.25 E11.93411
G1 X110.01 Y123.923 E11.95784
G1 X109.552 Y125.108 E12.0001
G1 X109.311 Y125.676 E12.02062
G1 X108.856 Y126.655 E12.05653
G1 X108.623 Y127.113 E12.07362
G1 X108.389 Y127.544 E12.08993
G1 X107.961 Y128.269 E12.11793
G1 X107.489 Y128.987 E12.14651
G1 X107.064 Y129.572 E12.17056
G1 X106.178 Y130.669 E12.21746
G1 X105.709 Y131.19 E12.24078
G1 X105.194 Y131.71 E12.26512
G1 X104.609 Y132.225 E12.29104
G1 X103.947 Y132.712 E12.31837
G1 X103.317 Y133.09 E12.34281
G1 X102.662 Y133.399 E12.3669
G1 X101.968 Y133.656 E12.39151
G1 X101.235 Y133.859 E12.41681
G1 X100.619 Y133.987 E12.43774
G1 X100.15 Y134.056 E12.4535
G1 X99.749 Y134.092 E12.46689
G0 F1080 X99.611 Y134.104
G0 X98.95 Y134.119
G0 F6000 X99.025 Y133.717
G1 F1200 X98.625 Y133.546 E12.48136
G1 X98.476 Y133.38 E12.48878
G1 X98.379 Y133.134 E12.49758
G1 X98.373 Y88.603 E13.97868
G1 X88.951 Y88.603 E14.29206
G1 X88.951 Y146.317 E16.21164
G1 X96.663 Y146.317 E16.46814
G1 X98.205 Y146.042 E16.52024
G1 X99.761 Y145.67 E16.57345
G1 X101.282 Y145.21 E16.6263
G1 X102.772 Y144.656 E16.67917
G1 X104.237 Y144.003 E16.73252
G1 X105.639 Y143.268 E16.78517
G1 X107.015 Y142.435 E16.83867
G1 X108.357 Y141.505 E16.89297
G1 X109.637 Y140.503 E16.94704
G1 X110.862 Y139.425 E17.00131
G1 X112.032 Y138.281 E17.05574
G1 X113.141 Y137.074 E17.11025
G1 X114.189 Y135.812 E17.16481
G1 X115.179 Y134.496 E17.21959
G1 X116.114 Y133.129 E17.27467
G1 X117.029 Y131.658 E17.33229
G1 X117.183 Y131.518 E17.33921
G1 X117.374 Y131.44 E17.34607
G1 X117.642 Y131.443 E17.35499
G1 X117.871 Y131.552 E17.36342
G1 X118 Y131.689 E17.36968
G1 X118.638 Y132.719 E17.40998
G1 X119.291 Y133.723 E17.44982
G1 X119.875 Y134.572 E17.48409
G1 X120.529 Y135.474 E17.52115
G1 X121.095 Y136.214 E17.55213
G1 X121.706 Y136.963 E17.58428
G1 X122.332 Y137.682 E17.61599
G1 X122.833 Y138.212 E17.64025
G1 X123.503 Y138.887 E17.67188
G1 X124.098 Y139.437 E17.69883
G1 X124.711 Y139.967 E17.72578
G1 X125.31 Y140.451 E17.75139
G1 X126.578 Y141.391 E17.80389
G1 X127.885 Y142.273 E17.85634
G1 X129.246 Y143.121 E17.90967
G1 X130.692 Y143.94 E17.96494
G1 X131.446 Y144.329 E17.99316
G1 X132.209 Y144.694 E18.02129
G1 X132.98 Y145.028 E18.04924
G1 X133.792 Y145.344 E18.07822
G1 X134.692 Y145.649 E18.10983
G1 X135.44 Y145.859 E18.13567
G1 X136.29 Y146.063 E18.16474
G1 X137.17 Y146.231 E18.19454
G1 X138.046 Y146.356 E18.22397
G1 X138.957 Y146.444 E18.25441
G1 X139.903 Y146.494 E18.28592
G1 X140.886 Y146.505 E18.31862
G1 X146.05 Y146.495 E18.49037
G1 X145.95 Y88.496 E20.41943
G1 X136.494 Y88.523 E20.73394
G1 X136.494 Y133.167 E22.2188
G1 X136.435 Y133.351 E22.22523
G1 X136.227 Y133.589 E22.23574
G1 X135.992 Y133.682 E22.24415
G1 X135.213 Y133.733 E22.27011
G1 X134.506 Y133.707 E22.29365
G1 X133.811 Y133.609 E22.31699
G1 X133.029 Y133.421 E22.34374
G1 X132.354 Y133.188 E22.36749
G1 X131.583 Y132.844 E22.39557
G1 X130.892 Y132.458 E22.4219
G1 X130.185 Y131.988 E22.45013
G1 X129.516 Y131.468 E22.47832
G1 X128.801 Y130.824 E22.51032
G1 X128.155 Y130.153 E22.5413
G1 X127.515 Y129.393 E22.57435
G1 X126.945 Y128.624 E22.60618
G1 X126.367 Y127.727 E22.64168
G1 X125.84 Y126.79 E22.67743
G1 X125.351 Y125.785 E22.7146
G1 X124.922 Y124.774 E22.75113
G1 X124.522 Y123.675 E22.79003
G1 X124.165 Y122.538 E22.82967
G1 X123.851 Y121.375 E22.86974
G1 X123.576 Y120.183 E22.91042
G1 X123.335 Y118.959 E22.95191
G1 X123.126 Y117.718 E22.99377
G1 X122.945 Y116.438 E23.03677
G1 X122.809 Y115.296 E23.07502
G1 X122.666 Y113.845 E23.12351
G1 X122.562 Y112.515 E23.16788
G1 X122.47 Y111.003 E23.21827
G1 X122.386 Y108.447 E23.30333
G1 X122.374 Y102.05 E23.51609
G1 X112.671 Y102.05 E23.83881
G1 X112.67 Y106.738 E23.99474
G1 X112.596 Y107.862 E24.0322
G1 X112.507 Y108.973 E24.06927
G1 X112.306 Y111.112 E24.14073
G1 X112.19 Y112.151 E24.1755
G1 X111.927 Y114.141 E24.24227
G1 X111.628 Y116.026 E24.30575
G1 X111.462 Y116.93 E24.33631
G1 X111.288 Y117.81 E24.36615
G1 X110.915 Y119.477 E24.42297
G1 X110.716 Y120.272 E24.45022
G1 X110.301 Y121.764 E24.50173
G1 X109.863 Y123.136 E24.54963
G1 X109.637 Y123.779 E24.5723
G1 X109.184 Y124.952 E24.61412
G1 X108.948 Y125.507 E24.63418
G1 X108.499 Y126.474 E24.66964
G1 X108.271 Y126.922 E24.68636
G1 X108.044 Y127.341 E24.70221
G1 X107.601 Y128.09 E24.73116
G1 X107.166 Y128.751 E24.75747
G1 X106.731 Y129.348 E24.78204
G1 X105.87 Y130.413 E24.82759
G1 X105.415 Y130.92 E24.85025
G1 X104.914 Y131.424 E24.87389
G1 X104.358 Y131.913 E24.89851
G1 X103.791 Y132.336 E24.92204
G1 X103.128 Y132.737 E24.94781
G1 X102.495 Y133.036 E24.9711
G1 X101.784 Y133.295 E24.99627
G1 X101.153 Y133.468 E25.01803
G1 X100.597 Y133.585 E25.03693
G1 X100.059 Y133.664 E25.05501
G1 X99.824 Y133.685 E25.06286
G0 F1080 X99.602 Y133.704
G0 X99.025 Y133.717
G1 F4200 E18.06286
G0 F6000 X99.031 Y134.017
G0 X97.865 Y133.391
G0 X97.801 Y89.175
G0 X89.523 Y89.175
G0 X89.523 Y145.745
G0 X96.613 Y145.756
G0 X98.09 Y145.493
G0 X99.614 Y145.129
G0 X101.102 Y144.678
G0 X102.56 Y144.137
G0 X103.992 Y143.499
G0 X105.363 Y142.779
G0 X106.709 Y141.964
G0 X108.024 Y141.054
G0 X109.279 Y140.071
G0 X110.481 Y139.014
G0 X111.629 Y137.89
G0 X112.719 Y136.705
G0 X113.302 Y136.003
G0 X116.806 Y131.445
G1 F4200 E25.06286
G0 F6000 X117.437 Y131.837
;TYPE:WALL-OUTER
G1 F1200 X117.584 Y131.843 E25.06775
G1 X117.674 Y131.921 E25.07171
G1 X118.328 Y132.977 E25.11303
G1 X118.888 Y133.84 E25.14724
G1 X119.548 Y134.802 E25.18605
G1 X120.172 Y135.665 E25.22147
G1 X120.781 Y136.462 E25.25483
G1 X121.4 Y137.221 E25.2874
G1 X122.036 Y137.951 E25.3196
G1 X122.588 Y138.533 E25.34628
G1 X123.225 Y139.175 E25.37636
G1 X123.832 Y139.735 E25.40383
G1 X124.455 Y140.274 E25.43123
G1 X125.065 Y140.767 E25.45732
G1 X126.347 Y141.717 E25.51039
G1 X127.667 Y142.609 E25.56338
G1 X129.042 Y143.465 E25.61725
G1 X130.502 Y144.292 E25.67306
G1 X131.268 Y144.687 E25.70172
G1 X132.043 Y145.058 E25.7303
G1 X132.828 Y145.398 E25.75875
G1 X133.655 Y145.72 E25.78827
G1 X134.574 Y146.031 E25.82054
G1 X135.339 Y146.246 E25.84697
G1 X136.206 Y146.454 E25.87662
G1 X137.104 Y146.626 E25.90703
G1 X137.998 Y146.754 E25.93707
G1 X138.927 Y146.843 E25.96811
G1 X139.89 Y146.894 E26.00019
G1 X140.887 Y146.905 E26.03335
G1 X146.45 Y146.894 E26.21838
G1 X146.349 Y88.095 E28.17404
G1 X136.094 Y88.124 E28.51513
G1 X136.092 Y133.124 E30.01183
G1 X136.044 Y133.223 E30.01549
G1 X135.927 Y133.287 E30.01993
G1 X135.227 Y133.333 E30.04326
G1 X134.537 Y133.308 E30.06622
G1 X133.867 Y133.213 E30.08873
G1 X133.159 Y133.043 E30.11295
G1 X132.472 Y132.805 E30.13713
G1 X131.788 Y132.5 E30.16204
G1 X131.101 Y132.116 E30.18822
G1 X130.421 Y131.664 E30.21537
G1 X129.751 Y131.143 E30.2436
G1 X129.089 Y130.546 E30.27325
G1 X128.461 Y129.895 E30.30334
G1 X127.837 Y129.155 E30.33553
G1 X127.26 Y128.375 E30.3678
G1 X126.703 Y127.509 E30.40205
G1 X126.205 Y126.625 E30.43579
G1 X125.719 Y125.629 E30.47266
G1 X125.29 Y124.618 E30.50918
G1 X124.904 Y123.555 E30.5468
G1 X124.551 Y122.434 E30.58589
G1 X124.242 Y121.293 E30.6252
G1 X123.968 Y120.105 E30.66575
G1 X123.729 Y118.893 E30.70684
G1 X123.522 Y117.662 E30.74836
G1 X123.342 Y116.391 E30.79106
G1 X123.207 Y115.257 E30.82904
G1 X123.065 Y113.813 E30.8773
G1 X122.961 Y112.491 E30.9214
G1 X122.87 Y110.99 E30.97142
G1 X122.786 Y108.446 E31.05608
G1 X122.773 Y101.65 E31.28212
G1 X112.271 Y101.65 E31.63141
G1 X112.271 Y106.712 E31.79978
G1 X112.197 Y107.83 E31.83704
G1 X112.109 Y108.935 E31.87391
G1 X111.908 Y111.068 E31.94517
G1 X111.794 Y112.099 E31.97967
G1 X111.532 Y114.078 E32.04607
G1 X111.234 Y115.954 E32.10924
G1 X111.07 Y116.852 E32.13961
G1 X110.898 Y117.722 E32.1691
G1 X110.527 Y119.38 E32.22561
G1 X110.33 Y120.165 E32.25253
G1 X109.919 Y121.646 E32.30365
G1 X109.705 Y122.338 E32.32774
G1 X109.485 Y123.004 E32.35107
G1 X109.264 Y123.635 E32.37331
G1 X108.816 Y124.796 E32.4147
G1 X108.585 Y125.339 E32.43432
G1 X108.142 Y126.293 E32.46931
G1 X107.919 Y126.732 E32.48568
G1 X107.7 Y127.137 E32.501
G1 X107.267 Y127.87 E32.52931
G1 X106.842 Y128.516 E32.55503
G1 X106.42 Y129.096 E32.57889
G1 X105.557 Y130.163 E32.62453
G1 X105.12 Y130.649 E32.64627
G1 X104.627 Y131.145 E32.66953
G1 X104.1 Y131.607 E32.69284
G1 X103.535 Y132.026 E32.71624
G1 X102.93 Y132.388 E32.73969
G1 X102.312 Y132.678 E32.76239
G1 X101.678 Y132.909 E32.78483
G1 X101.071 Y133.076 E32.80577
G1 X100.503 Y133.195 E32.82508
G1 X100.023 Y133.266 E32.84121
G1 X99.607 Y133.304 E32.85511
G1 X99.09 Y133.309 E32.8723
G1 X98.863 Y133.21 E32.88054
G1 X98.775 Y133.073 E32.88596
G1 X98.773 Y88.203 E34.37834
G1 X88.551 Y88.203 E34.71832
G1 X88.551 Y146.717 E36.66451
G1 X96.699 Y146.717 E36.93551
G1 X98.287 Y146.434 E36.98916
G1 X99.865 Y146.056 E37.04313
G1 X101.41 Y145.589 E37.09681
G1 X102.923 Y145.026 E37.15051
G1 X104.411 Y144.363 E37.20469
G1 X105.836 Y143.616 E37.2582
G1 X107.233 Y142.771 E37.3125
G1 X108.595 Y141.827 E37.36762
G1 X109.893 Y140.811 E37.42245
G1 X111.134 Y139.719 E37.47743
G1 X112.32 Y138.559 E37.5326
G1 X113.443 Y137.337 E37.5878
G1 X114.503 Y136.06 E37.643
G1 X115.504 Y134.729 E37.69839
G1 X116.449 Y133.347 E37.75408
G1 X116.983 Y132.484 E37.78783
G0 F1080 X117.354 Y131.885
G0 X117.437 Y131.837
G1 F4200 E30.78783
G0 F6000 X116.806 Y131.445
G0 X113.749 Y135.464
G0 X112.719 Y136.705
G0 X111.629 Y137.89
G0 X110.481 Y139.014
G0 X109.279 Y140.071
G0 X108.024 Y141.054
G0 X106.709 Y141.964
G0 X105.363 Y142.779
G0 X103.992 Y143.499
G0 X102.56 Y144.137
G0 X101.102 Y144.678
G0 X99.614 Y145.129
G0 X98.09 Y145.493
G0 X96.613 Y145.756
G0 X89.523 Y145.745
G0 X89.523 Y89.175
G0 X97.801 Y89.175
G0 X98.013 Y133.696
G0 X100.11 Y134.223
G0 X104.047 Y132.839
G0 X108.07 Y128.398
G0 X111.459 Y119.614
G0 X113.23 Y106.777
G0 X113.243 Y102.622
G0 X121.803 Y102.622
G0 X122.571 Y117.796
G0 X124.861 Y126.061
G0 X128.396 Y131.213
G0 X130.999 Y133.184
G0 X133.741 Y133.841
G0 X134.956 Y133.947
G0 X136.678 Y133.881
G1 F4200 E37.78783
G0 F6000 X136.86 Y134.066
;TYPE:SKIN
G1 F1200 X137.121 Y133.685 E37.80319
G1 X137.252 Y133.272 E37.8176
G1 X137.254 Y89.282 E39.28072
G1 X145.19 Y89.258 E39.54467
G1 X145.289 Y145.735 E41.42311
G1 X140.916 Y145.745 E41.56855
G1 X139.936 Y145.734 E41.60115
G1 X139.007 Y145.685 E41.63209
G1 X138.129 Y145.601 E41.66143
G1 X137.304 Y145.482 E41.68915
G1 X136.452 Y145.319 E41.718
G1 X135.512 Y145.089 E41.75019
G1 X134.91 Y144.919 E41.77099
G1 X134.059 Y144.631 E41.80088
G1 X133.264 Y144.322 E41.82925
G1 X132.529 Y144.003 E41.85589
G1 X131.79 Y143.649 E41.88315
G1 X131.05 Y143.267 E41.91085
G1 X129.629 Y142.462 E41.96517
G1 X128.303 Y141.639 E42.01707
G1 X127.023 Y140.773 E42.06847
G1 X125.77 Y139.844 E42.12035
G1 X125.203 Y139.387 E42.14458
G1 X124.601 Y138.866 E42.17106
G1 X124.026 Y138.335 E42.19709
G1 X123.411 Y137.715 E42.22613
G1 X122.893 Y137.167 E42.25121
G1 X122.291 Y136.478 E42.28165
G1 X121.69 Y135.739 E42.31333
G1 X121.138 Y135.017 E42.34355
G1 X120.494 Y134.129 E42.38004
G1 X119.844 Y133.182 E42.41824
G1 X119.318 Y132.368 E42.45048
G1 X118.581 Y131.196 E42.49652
G1 X118.396 Y130.998 E42.50554
G1 X118.112 Y130.81 E42.51687
G1 X117.837 Y130.709 E42.52661
G1 X117.424 Y130.652 E42.54048
G1 X117.025 Y130.753 E42.55416
G1 X116.689 Y130.92 E42.56664
G1 X116.4 Y131.223 E42.58057
G1 X115.482 Y132.707 E42.63861
G1 X114.565 Y134.046 E42.69259
G1 X113.597 Y135.335 E42.7462
G1 X112.573 Y136.566 E42.79946
G1 X111.479 Y137.757 E42.85325
G1 X110.351 Y138.861 E42.90574
G1 X109.159 Y139.912 E42.9586
G1 X107.914 Y140.886 E43.01118
G1 X106.593 Y141.802 E43.06464
G1 X105.273 Y142.601 E43.11596
