MODULE Cylinder
    PERS tooldata tool1:=[True,[[0, 0, 0],[0, 0, 1, 0]],[1,[0, 0, 1],[1, 0, 0, 0],0,0,0]];

    CONST robtarget zcHome := [[650.0, 0.0, 1000.0], [-1.0, 0.0, 0.0, 0.0],[-1.0, 0.0, 1.0, 0.0], [9E+9, 9E+9, 9E9, 9E9, 9E9, 9E9]];
    CONST robtarget p_DrawCylinder_0 := [[1117.919, 92.24700000000001, 430.0], [-1.0, 0.0, 0.0, 0.0],[-1.0, 0.0, 1.0, 0.0], [9E+9, 9E+9, 9E9, 9E9, 9E9, 9E9]];
    CONST robtarget p_DrawCylinder_1 := [[1117.919, 92.24700000000001, 430.0], [-1.0, 0.0, 0.0, 0.0],[-1.0, 0.0, 1.0, 0.0], [9E+9, 9E+9, 9E9, 9E9, 9E9, 9E9]];
    CONST robtarget p_DrawCylinder_2 := [[1117.111, 92.24000000000001, 430.0], [-1.0, 0.0, 0.0, 0.0],[-1.0, 0.0, 1.0, 0.0], [9E+9, 9E+9, 9E9, 9E9, 9E9, 9E9]];
    CONST robtarget p_DrawCylinder_3 := [[1116.27, 92.22, 430.0], [-1.0, 0.0, 0.0, 0.0],[-1.0, 0.0, 1.0, 0.0], [9E+9, 9E+9, 9E9, 9E9, 9E9, 9E9]];
    CONST robtarget p_DrawCylinder_4 := [[1115.435, 92.15700000000001, 430.0], [-1.0, 0.0, 0.0, 0.0],[-1.0, 0.0, 1.0, 0.0], [9E+9, 9E+9, 9E9, 9E9, 9E9, 9E9]];
    CONST robtarget p_DrawCylinder_5 := [[1114.661, 92.08600000000001, 430.0], [-1.0, 0.0, 0.0, 0.0],[-1.0, 0.0, 1.0, 0.0], [9E+9, 9E+9, 9E9, 9E9, 9E9, 9E9]];
    CONST robtarget p_DrawCylinder_6 := [[1113.767, 91.959, 430.0], [-1.0, 0.0, 0.0, 0.0],[-1.0, 0.0, 1.0, 0.0], [9E+9, 9E+9, 9E9, 9E9, 9E9, 9E9]];
    CONST robtarget p_DrawCylinder_7 := [[1113.038, 91.84299999999999, 430.0], [-1.0, 0.0, 0.0, 0.0],[-1.0, 0.0, 1.0, 0.0], [9E+9, 9E+9, 9E9, 9E9, 9E9, 9E9]];
    CONST robtarget p_DrawCylinder_8 := [[1112.134, 91.65199999999999, 430.0], [-1.0, 0.0, 0.0, 0.0],[-1.0, 0.0, 1.0, 0.0], [9E+9, 9E+9, 9E9, 9E9, 9E9, 9E9]];
    CONST robtarget p_DrawCylinder_9 := [[1111.449, 91.49600000000001, 430.0], [-1.0, 0.0, 0.0, 0.0],[-1.0, 0.0, 1.0, 0.0], [9E+9, 9E+9, 9E9, 9E9, 9E9, 9E9]];
    CONST robtarget p_DrawCylinder_10 := [[1110.506, 91.232, 430.0], [-1.0, 0.0, 0.0, 0.0],[-1.0, 0.0, 1.0, 0.0], [9E+9, 9E+9, 9E9, 9E9, 9E9, 9E9]];
    CONST robtarget p_DrawCylinder_11 := [[1109.856, 91.037, 430.0], [-1.0, 0.0, 0.0, 0.0],[-1.0, 0.0, 1.0, 0.0], [9E+9, 9E+9, 9E9, 9E9, 9E9, 9E9]];
    CONST robtarget p_DrawCylinder_12 := [[1108.915, 90.70599999999999, 430.0], [-1.0, 0.0, 0.0, 0.0],[-1.0, 0.0, 1.0, 0.0], [9E+9, 9E+9, 9E9, 9E9, 9E9, 9E9]];
    CONST robtarget p_DrawCylinder_13 := [[1108.327, 90.48500000000001, 430.0], [-1.0, 0.0, 0.0, 0.0],[-1.0, 0.0, 1.0, 0.0], [9E+9, 9E+9, 9E9, 9E9, 9E9, 9E9]];
    CONST robtarget p_DrawCylinder_14 := [[1107.383, 90.078, 430.0], [-1.0, 0.0, 0.0, 0.0],[-1.0, 0.0, 1.0, 0.0], [9E+9, 9E+9, 9E9, 9E9, 9E9, 9E9]];
    CONST robtarget p_DrawCylinder_15 := [[1106.818, 89.82300000000001, 430.0], [-1.0, 0.0, 0.0, 0.0],[-1.0, 0.0, 1.0, 0.0], [9E+9, 9E+9, 9E9, 9E9, 9E9, 9E9]];
    CONST robtarget p_DrawCylinder_16 := [[1105.89, 89.34800000000001, 430.0], [-1.0, 0.0, 0.0, 0.0],[-1.0, 0.0, 1.0, 0.0], [9E+9, 9E+9, 9E9, 9E9, 9E9, 9E9]];
    CONST robtarget p_DrawCylinder_17 := [[1105.386, 89.07900000000001, 430.0], [-1.0, 0.0, 0.0, 0.0],[-1.0, 0.0, 1.0, 0.0], [9E+9, 9E+9, 9E9, 9E9, 9E9, 9E9]];
    CONST robtarget p_DrawCylinder_18 := [[1103.967, 88.21799999999999, 430.0], [-1.0, 0.0, 0.0, 0.0],[-1.0, 0.0, 1.0, 0.0], [9E+9, 9E+9, 9E9, 9E9, 9E9, 9E9]];
    CONST robtarget p_DrawCylinder_19 := [[1102.625, 87.27699999999999, 430.0], [-1.0, 0.0, 0.0, 0.0],[-1.0, 0.0, 1.0, 0.0], [9E+9, 9E+9, 9E9, 9E9, 9E9, 9E9]];
    CONST robtarget p_DrawCylinder_20 := [[1101.353, 86.251, 430.0], [-1.0, 0.0, 0.0, 0.0],[-1.0, 0.0, 1.0, 0.0], [9E+9, 9E+9, 9E9, 9E9, 9E9, 9E9]];
    CONST robtarget p_DrawCylinder_21 := [[1100.157, 85.15100000000001, 430.0], [-1.0, 0.0, 0.0, 0.0],[-1.0, 0.0, 1.0, 0.0], [9E+9, 9E+9, 9E9, 9E9, 9E9, 9E9]];
    CONST robtarget p_DrawCylinder_22 := [[1099.028, 83.96600000000001, 430.0], [-1.0, 0.0, 0.0, 0.0],[-1.0, 0.0, 1.0, 0.0], [9E+9, 9E+9, 9E9, 9E9, 9E9, 9E9]];
    CONST robtarget p_DrawCylinder_23 := [[1097.973, 82.69999999999999, 430.0], [-1.0, 0.0, 0.0, 0.0],[-1.0, 0.0, 1.0, 0.0], [9E+9, 9E+9, 9E9, 9E9, 9E9, 9E9]];
    CONST robtarget p_DrawCylinder_24 := [[1097.018, 81.38399999999999, 430.0], [-1.0, 0.0, 0.0, 0.0],[-1.0, 0.0, 1.0, 0.0], [9E+9, 9E+9, 9E9, 9E9, 9E9, 9E9]];
    CONST robtarget p_DrawCylinder_25 := [[1096.139, 79.99199999999999, 430.0], [-1.0, 0.0, 0.0, 0.0],[-1.0, 0.0, 1.0, 0.0], [9E+9, 9E+9, 9E9, 9E9, 9E9, 9E9]];
    CONST robtarget p_DrawCylinder_26 := [[1095.37, 78.57, 430.0], [-1.0, 0.0, 0.0, 0.0],[-1.0, 0.0, 1.0, 0.0], [9E+9, 9E+9, 9E9, 9E9, 9E9, 9E9]];
    CONST robtarget p_DrawCylinder_27 := [[1094.676, 77.063, 430.0], [-1.0, 0.0, 0.0, 0.0],[-1.0, 0.0, 1.0, 0.0], [9E+9, 9E+9, 9E9, 9E9, 9E9, 9E9]];
    CONST robtarget p_DrawCylinder_28 := [[1094.1, 75.55, 430.0], [-1.0, 0.0, 0.0, 0.0],[-1.0, 0.0, 1.0, 0.0], [9E+9, 9E+9, 9E9, 9E9, 9E9, 9E9]];
    CONST robtarget p_DrawCylinder_29 := [[1093.621, 73.988, 430.0], [-1.0, 0.0, 0.0, 0.0],[-1.0, 0.0, 1.0, 0.0], [9E+9, 9E+9, 9E9, 9E9, 9E9, 9E9]];
    CONST robtarget p_DrawCylinder_30 := [[1093.239, 72.376, 430.0], [-1.0, 0.0, 0.0, 0.0],[-1.0, 0.0, 1.0, 0.0], [9E+9, 9E+9, 9E9, 9E9, 9E9, 9E9]];
    CONST robtarget p_DrawCylinder_31 := [[1092.97, 70.762, 430.0], [-1.0, 0.0, 0.0, 0.0],[-1.0, 0.0, 1.0, 0.0], [9E+9, 9E+9, 9E9, 9E9, 9E9, 9E9]];
    CONST robtarget p_DrawCylinder_32 := [[1092.809, 69.153, 430.0], [-1.0, 0.0, 0.0, 0.0],[-1.0, 0.0, 1.0, 0.0], [9E+9, 9E+9, 9E9, 9E9, 9E9, 9E9]];
    CONST robtarget p_DrawCylinder_33 := [[1092.754, 67.525, 430.0], [-1.0, 0.0, 0.0, 0.0],[-1.0, 0.0, 1.0, 0.0], [9E+9, 9E+9, 9E9, 9E9, 9E9, 9E9]];
    CONST robtarget p_DrawCylinder_34 := [[1092.808, 65.862, 430.0], [-1.0, 0.0, 0.0, 0.0],[-1.0, 0.0, 1.0, 0.0], [9E+9, 9E+9, 9E9, 9E9, 9E9, 9E9]];
    CONST robtarget p_DrawCylinder_35 := [[1092.969, 64.245, 430.0], [-1.0, 0.0, 0.0, 0.0],[-1.0, 0.0, 1.0, 0.0], [9E+9, 9E+9, 9E9, 9E9, 9E9, 9E9]];
    CONST robtarget p_DrawCylinder_36 := [[1093.237, 62.64, 430.0], [-1.0, 0.0, 0.0, 0.0],[-1.0, 0.0, 1.0, 0.0], [9E+9, 9E+9, 9E9, 9E9, 9E9, 9E9]];
    CONST robtarget p_DrawCylinder_37 := [[1093.617, 61.025000000000006, 430.0], [-1.0, 0.0, 0.0, 0.0],[-1.0, 0.0, 1.0, 0.0], [9E+9, 9E+9, 9E9, 9E9, 9E9, 9E9]];
    CONST robtarget p_DrawCylinder_38 := [[1094.098, 59.459, 430.0], [-1.0, 0.0, 0.0, 0.0],[-1.0, 0.0, 1.0, 0.0], [9E+9, 9E+9, 9E9, 9E9, 9E9, 9E9]];
    CONST robtarget p_DrawCylinder_39 := [[1094.67, 57.95099999999999, 430.0], [-1.0, 0.0, 0.0, 0.0],[-1.0, 0.0, 1.0, 0.0], [9E+9, 9E+9, 9E9, 9E9, 9E9, 9E9]];
    CONST robtarget p_DrawCylinder_40 := [[1095.363, 56.444, 430.0], [-1.0, 0.0, 0.0, 0.0],[-1.0, 0.0, 1.0, 0.0], [9E+9, 9E+9, 9E9, 9E9, 9E9, 9E9]];
    CONST robtarget p_DrawCylinder_41 := [[1096.131, 55.022000000000006, 430.0], [-1.0, 0.0, 0.0, 0.0],[-1.0, 0.0, 1.0, 0.0], [9E+9, 9E+9, 9E9, 9E9, 9E9, 9E9]];
    CONST robtarget p_DrawCylinder_42 := [[1097.01, 53.628, 430.0], [-1.0, 0.0, 0.0, 0.0],[-1.0, 0.0, 1.0, 0.0], [9E+9, 9E+9, 9E9, 9E9, 9E9, 9E9]];
    CONST robtarget p_DrawCylinder_43 := [[1097.964, 52.313, 430.0], [-1.0, 0.0, 0.0, 0.0],[-1.0, 0.0, 1.0, 0.0], [9E+9, 9E+9, 9E9, 9E9, 9E9, 9E9]];
    CONST robtarget p_DrawCylinder_44 := [[1099.018, 51.04600000000001, 430.0], [-1.0, 0.0, 0.0, 0.0],[-1.0, 0.0, 1.0, 0.0], [9E+9, 9E+9, 9E9, 9E9, 9E9, 9E9]];
    CONST robtarget p_DrawCylinder_45 := [[1100.146, 49.86, 430.0], [-1.0, 0.0, 0.0, 0.0],[-1.0, 0.0, 1.0, 0.0], [9E+9, 9E+9, 9E9, 9E9, 9E9, 9E9]];
    CONST robtarget p_DrawCylinder_46 := [[1101.342, 48.759, 430.0], [-1.0, 0.0, 0.0, 0.0],[-1.0, 0.0, 1.0, 0.0], [9E+9, 9E+9, 9E9, 9E9, 9E9, 9E9]];
    CONST robtarget p_DrawCylinder_47 := [[1102.619, 47.727999999999994, 430.0], [-1.0, 0.0, 0.0, 0.0],[-1.0, 0.0, 1.0, 0.0], [9E+9, 9E+9, 9E9, 9E9, 9E9, 9E9]];
    CONST robtarget p_DrawCylinder_48 := [[1103.954, 46.791, 430.0], [-1.0, 0.0, 0.0, 0.0],[-1.0, 0.0, 1.0, 0.0], [9E+9, 9E+9, 9E9, 9E9, 9E9, 9E9]];
    CONST robtarget p_DrawCylinder_49 := [[1104.406, 46.509, 430.0], [-1.0, 0.0, 0.0, 0.0],[-1.0, 0.0, 1.0, 0.0], [9E+9, 9E+9, 9E9, 9E9, 9E9, 9E9]];
    CONST robtarget p_DrawCylinder_50 := [[1105.373, 45.929, 430.0], [-1.0, 0.0, 0.0, 0.0],[-1.0, 0.0, 1.0, 0.0], [9E+9, 9E+9, 9E9, 9E9, 9E9, 9E9]];
    CONST robtarget p_DrawCylinder_51 := [[1105.881, 45.656000000000006, 430.0], [-1.0, 0.0, 0.0, 0.0],[-1.0, 0.0, 1.0, 0.0], [9E+9, 9E+9, 9E9, 9E9, 9E9, 9E9]];
    CONST robtarget p_DrawCylinder_52 := [[1106.804, 45.18300000000001, 430.0], [-1.0, 0.0, 0.0, 0.0],[-1.0, 0.0, 1.0, 0.0], [9E+9, 9E+9, 9E9, 9E9, 9E9, 9E9]];
    CONST robtarget p_DrawCylinder_53 := [[1107.371, 44.926, 430.0], [-1.0, 0.0, 0.0, 0.0],[-1.0, 0.0, 1.0, 0.0], [9E+9, 9E+9, 9E9, 9E9, 9E9, 9E9]];
    CONST robtarget p_DrawCylinder_54 := [[1108.312, 44.521, 430.0], [-1.0, 0.0, 0.0, 0.0],[-1.0, 0.0, 1.0, 0.0], [9E+9, 9E+9, 9E9, 9E9, 9E9, 9E9]];
    CONST robtarget p_DrawCylinder_55 := [[1108.898, 44.30200000000001, 430.0], [-1.0, 0.0, 0.0, 0.0],[-1.0, 0.0, 1.0, 0.0], [9E+9, 9E+9, 9E9, 9E9, 9E9, 9E9]];
    CONST robtarget p_DrawCylinder_56 := [[1109.841, 43.968, 430.0], [-1.0, 0.0, 0.0, 0.0],[-1.0, 0.0, 1.0, 0.0], [9E+9, 9E+9, 9E9, 9E9, 9E9, 9E9]];
    CONST robtarget p_DrawCylinder_57 := [[1110.488, 43.774, 430.0], [-1.0, 0.0, 0.0, 0.0],[-1.0, 0.0, 1.0, 0.0], [9E+9, 9E+9, 9E9, 9E9, 9E9, 9E9]];
    CONST robtarget p_DrawCylinder_58 := [[1111.435, 43.507999999999996, 430.0], [-1.0, 0.0, 0.0, 0.0],[-1.0, 0.0, 1.0, 0.0], [9E+9, 9E+9, 9E9, 9E9, 9E9, 9E9]];
    CONST robtarget p_DrawCylinder_59 := [[1112.102, 43.354, 430.0], [-1.0, 0.0, 0.0, 0.0],[-1.0, 0.0, 1.0, 0.0], [9E+9, 9E+9, 9E9, 9E9, 9E9, 9E9]];
    CONST robtarget p_DrawCylinder_60 := [[1113.022, 43.159000000000006, 430.0], [-1.0, 0.0, 0.0, 0.0],[-1.0, 0.0, 1.0, 0.0], [9E+9, 9E+9, 9E9, 9E9, 9E9, 9E9]];
    CONST robtarget p_DrawCylinder_61 := [[1113.736, 43.045, 430.0], [-1.0, 0.0, 0.0, 0.0],[-1.0, 0.0, 1.0, 0.0], [9E+9, 9E+9, 9E9, 9E9, 9E9, 9E9]];
    CONST robtarget p_DrawCylinder_62 := [[1114.645, 42.916, 430.0], [-1.0, 0.0, 0.0, 0.0],[-1.0, 0.0, 1.0, 0.0], [9E+9, 9E+9, 9E9, 9E9, 9E9, 9E9]];
    CONST robtarget p_DrawCylinder_63 := [[1115.401, 42.845, 430.0], [-1.0, 0.0, 0.0, 0.0],[-1.0, 0.0, 1.0, 0.0], [9E+9, 9E+9, 9E9, 9E9, 9E9, 9E9]];
    CONST robtarget p_DrawCylinder_64 := [[1116.262, 42.781000000000006, 430.0], [-1.0, 0.0, 0.0, 0.0],[-1.0, 0.0, 1.0, 0.0], [9E+9, 9E+9, 9E9, 9E9, 9E9, 9E9]];
    CONST robtarget p_DrawCylinder_65 := [[1117.077, 42.760000000000005, 430.0], [-1.0, 0.0, 0.0, 0.0],[-1.0, 0.0, 1.0, 0.0], [9E+9, 9E+9, 9E9, 9E9, 9E9, 9E9]];
    CONST robtarget p_DrawCylinder_66 := [[1117.903, 42.754000000000005, 430.0], [-1.0, 0.0, 0.0, 0.0],[-1.0, 0.0, 1.0, 0.0], [9E+9, 9E+9, 9E9, 9E9, 9E9, 9E9]];
    CONST robtarget p_DrawCylinder_67 := [[1118.741, 42.788, 430.0], [-1.0, 0.0, 0.0, 0.0],[-1.0, 0.0, 1.0, 0.0], [9E+9, 9E+9, 9E9, 9E9, 9E9, 9E9]];
    CONST robtarget p_DrawCylinder_68 := [[1119.546, 42.836, 430.0], [-1.0, 0.0, 0.0, 0.0],[-1.0, 0.0, 1.0, 0.0], [9E+9, 9E+9, 9E9, 9E9, 9E9, 9E9]];
    CONST robtarget p_DrawCylinder_69 := [[1120.413, 42.929, 430.0], [-1.0, 0.0, 0.0, 0.0],[-1.0, 0.0, 1.0, 0.0], [9E+9, 9E+9, 9E9, 9E9, 9E9, 9E9]];
    CONST robtarget p_DrawCylinder_70 := [[1121.187, 43.025000000000006, 430.0], [-1.0, 0.0, 0.0, 0.0],[-1.0, 0.0, 1.0, 0.0], [9E+9, 9E+9, 9E9, 9E9, 9E9, 9E9]];
    CONST robtarget p_DrawCylinder_71 := [[1122.058, 43.179, 430.0], [-1.0, 0.0, 0.0, 0.0],[-1.0, 0.0, 1.0, 0.0], [9E+9, 9E+9, 9E9, 9E9, 9E9, 9E9]];
    CONST robtarget p_DrawCylinder_72 := [[1122.766, 43.316, 430.0], [-1.0, 0.0, 0.0, 0.0],[-1.0, 0.0, 1.0, 0.0], [9E+9, 9E+9, 9E9, 9E9, 9E9, 9E9]];
    CONST robtarget p_DrawCylinder_73 := [[1123.684, 43.541, 430.0], [-1.0, 0.0, 0.0, 0.0],[-1.0, 0.0, 1.0, 0.0], [9E+9, 9E+9, 9E9, 9E9, 9E9, 9E9]];
    CONST robtarget p_DrawCylinder_74 := [[1124.367, 43.721000000000004, 430.0], [-1.0, 0.0, 0.0, 0.0],[-1.0, 0.0, 1.0, 0.0], [9E+9, 9E+9, 9E9, 9E9, 9E9, 9E9]];
    CONST robtarget p_DrawCylinder_75 := [[1125.305, 44.018, 430.0], [-1.0, 0.0, 0.0, 0.0],[-1.0, 0.0, 1.0, 0.0], [9E+9, 9E+9, 9E9, 9E9, 9E9, 9E9]];
    CONST robtarget p_DrawCylinder_76 := [[1125.939, 44.230999999999995, 430.0], [-1.0, 0.0, 0.0, 0.0],[-1.0, 0.0, 1.0, 0.0], [9E+9, 9E+9, 9E9, 9E9, 9E9, 9E9]];
    CONST robtarget p_DrawCylinder_77 := [[1126.872, 44.596000000000004, 430.0], [-1.0, 0.0, 0.0, 0.0],[-1.0, 0.0, 1.0, 0.0], [9E+9, 9E+9, 9E9, 9E9, 9E9, 9E9]];
    CONST robtarget p_DrawCylinder_78 := [[1127.433, 44.828, 430.0], [-1.0, 0.0, 0.0, 0.0],[-1.0, 0.0, 1.0, 0.0], [9E+9, 9E+9, 9E9, 9E9, 9E9, 9E9]];
    CONST robtarget p_DrawCylinder_79 := [[1128.908, 45.533, 430.0], [-1.0, 0.0, 0.0, 0.0],[-1.0, 0.0, 1.0, 0.0], [9E+9, 9E+9, 9E9, 9E9, 9E9, 9E9]];
    CONST robtarget p_DrawCylinder_80 := [[1129.867, 46.063, 430.0], [-1.0, 0.0, 0.0, 0.0],[-1.0, 0.0, 1.0, 0.0], [9E+9, 9E+9, 9E9, 9E9, 9E9, 9E9]];
    CONST robtarget p_DrawCylinder_81 := [[1130.354, 46.346000000000004, 430.0], [-1.0, 0.0, 0.0, 0.0],[-1.0, 0.0, 1.0, 0.0], [9E+9, 9E+9, 9E9, 9E9, 9E9, 9E9]];
    CONST robtarget p_DrawCylinder_82 := [[1131.28, 46.943, 430.0], [-1.0, 0.0, 0.0, 0.0],[-1.0, 0.0, 1.0, 0.0], [9E+9, 9E+9, 9E9, 9E9, 9E9, 9E9]];
    CONST robtarget p_DrawCylinder_83 := [[1131.706, 47.229, 430.0], [-1.0, 0.0, 0.0, 0.0],[-1.0, 0.0, 1.0, 0.0], [9E+9, 9E+9, 9E9, 9E9, 9E9, 9E9]];
    CONST robtarget p_DrawCylinder_84 := [[1133.0140000000001, 48.211, 430.0], [-1.0, 0.0, 0.0, 0.0],[-1.0, 0.0, 1.0, 0.0], [9E+9, 9E+9, 9E9, 9E9, 9E9, 9E9]];
    CONST robtarget p_DrawCylinder_85 := [[1134.256, 49.278000000000006, 430.0], [-1.0, 0.0, 0.0, 0.0],[-1.0, 0.0, 1.0, 0.0], [9E+9, 9E+9, 9E9, 9E9, 9E9, 9E9]];
    CONST robtarget p_DrawCylinder_86 := [[1135.444, 50.446, 430.0], [-1.0, 0.0, 0.0, 0.0],[-1.0, 0.0, 1.0, 0.0], [9E+9, 9E+9, 9E9, 9E9, 9E9, 9E9]];
    CONST robtarget p_DrawCylinder_87 := [[1136.528, 51.664, 430.0], [-1.0, 0.0, 0.0, 0.0],[-1.0, 0.0, 1.0, 0.0], [9E+9, 9E+9, 9E9, 9E9, 9E9, 9E9]];
    CONST robtarget p_DrawCylinder_88 := [[1137.507, 52.92, 430.0], [-1.0, 0.0, 0.0, 0.0],[-1.0, 0.0, 1.0, 0.0], [9E+9, 9E+9, 9E9, 9E9, 9E9, 9E9]];
    CONST robtarget p_DrawCylinder_89 := [[1138.466, 54.334999999999994, 430.0], [-1.0, 0.0, 0.0, 0.0],[-1.0, 0.0, 1.0, 0.0], [9E+9, 9E+9, 9E9, 9E9, 9E9, 9E9]];
    CONST robtarget p_DrawCylinder_90 := [[1139.252, 55.68000000000001, 430.0], [-1.0, 0.0, 0.0, 0.0],[-1.0, 0.0, 1.0, 0.0], [9E+9, 9E+9, 9E9, 9E9, 9E9, 9E9]];
    CONST robtarget p_DrawCylinder_91 := [[1140.007, 57.187, 430.0], [-1.0, 0.0, 0.0, 0.0],[-1.0, 0.0, 1.0, 0.0], [9E+9, 9E+9, 9E9, 9E9, 9E9, 9E9]];
    CONST robtarget p_DrawCylinder_92 := [[1140.633, 58.67700000000001, 430.0], [-1.0, 0.0, 0.0, 0.0],[-1.0, 0.0, 1.0, 0.0], [9E+9, 9E+9, 9E9, 9E9, 9E9, 9E9]];
    CONST robtarget p_DrawCylinder_93 := [[1141.172, 60.245000000000005, 430.0], [-1.0, 0.0, 0.0, 0.0],[-1.0, 0.0, 1.0, 0.0], [9E+9, 9E+9, 9E9, 9E9, 9E9, 9E9]];
    CONST robtarget p_DrawCylinder_94 := [[1141.593, 61.804, 430.0], [-1.0, 0.0, 0.0, 0.0],[-1.0, 0.0, 1.0, 0.0], [9E+9, 9E+9, 9E9, 9E9, 9E9, 9E9]];
    CONST robtarget p_DrawCylinder_95 := [[1141.9180000000001, 63.409000000000006, 430.0], [-1.0, 0.0, 0.0, 0.0],[-1.0, 0.0, 1.0, 0.0], [9E+9, 9E+9, 9E9, 9E9, 9E9, 9E9]];
    CONST robtarget p_DrawCylinder_96 := [[1142.136, 65.031, 430.0], [-1.0, 0.0, 0.0, 0.0],[-1.0, 0.0, 1.0, 0.0], [9E+9, 9E+9, 9E9, 9E9, 9E9, 9E9]];
    CONST robtarget p_DrawCylinder_97 := [[1142.247, 66.701, 430.0], [-1.0, 0.0, 0.0, 0.0],[-1.0, 0.0, 1.0, 0.0], [9E+9, 9E+9, 9E9, 9E9, 9E9, 9E9]];
    CONST robtarget p_DrawCylinder_98 := [[1142.247, 68.299, 430.0], [-1.0, 0.0, 0.0, 0.0],[-1.0, 0.0, 1.0, 0.0], [9E+9, 9E+9, 9E9, 9E9, 9E9, 9E9]];
    CONST robtarget p_DrawCylinder_99 := [[1142.1390000000001, 69.94, 430.0], [-1.0, 0.0, 0.0, 0.0],[-1.0, 0.0, 1.0, 0.0], [9E+9, 9E+9, 9E9, 9E9, 9E9, 9E9]];
    CONST robtarget p_DrawCylinder_100 := [[1141.921, 71.571, 430.0], [-1.0, 0.0, 0.0, 0.0],[-1.0, 0.0, 1.0, 0.0], [9E+9, 9E+9, 9E9, 9E9, 9E9, 9E9]];
    CONST robtarget p_DrawCylinder_101 := [[1141.597, 73.181, 430.0], [-1.0, 0.0, 0.0, 0.0],[-1.0, 0.0, 1.0, 0.0], [9E+9, 9E+9, 9E9, 9E9, 9E9, 9E9]];
    CONST robtarget p_DrawCylinder_102 := [[1141.176, 74.74, 430.0], [-1.0, 0.0, 0.0, 0.0],[-1.0, 0.0, 1.0, 0.0], [9E+9, 9E+9, 9E9, 9E9, 9E9, 9E9]];
    CONST robtarget p_DrawCylinder_103 := [[1140.641, 76.302, 430.0], [-1.0, 0.0, 0.0, 0.0],[-1.0, 0.0, 1.0, 0.0], [9E+9, 9E+9, 9E9, 9E9, 9E9, 9E9]];
    CONST robtarget p_DrawCylinder_104 := [[1140.013, 77.799, 430.0], [-1.0, 0.0, 0.0, 0.0],[-1.0, 0.0, 1.0, 0.0], [9E+9, 9E+9, 9E9, 9E9, 9E9, 9E9]];
    CONST robtarget p_DrawCylinder_105 := [[1139.26, 79.30699999999999, 430.0], [-1.0, 0.0, 0.0, 0.0],[-1.0, 0.0, 1.0, 0.0], [9E+9, 9E+9, 9E9, 9E9, 9E9, 9E9]];
    CONST robtarget p_DrawCylinder_106 := [[1138.474, 80.65199999999999, 430.0], [-1.0, 0.0, 0.0, 0.0],[-1.0, 0.0, 1.0, 0.0], [9E+9, 9E+9, 9E9, 9E9, 9E9, 9E9]];
    CONST robtarget p_DrawCylinder_107 := [[1137.512, 82.07400000000001, 430.0], [-1.0, 0.0, 0.0, 0.0],[-1.0, 0.0, 1.0, 0.0], [9E+9, 9E+9, 9E9, 9E9, 9E9, 9E9]];
    CONST robtarget p_DrawCylinder_108 := [[1136.537, 83.32400000000001, 430.0], [-1.0, 0.0, 0.0, 0.0],[-1.0, 0.0, 1.0, 0.0], [9E+9, 9E+9, 9E9, 9E9, 9E9, 9E9]];
    CONST robtarget p_DrawCylinder_109 := [[1135.449, 84.548, 430.0], [-1.0, 0.0, 0.0, 0.0],[-1.0, 0.0, 1.0, 0.0], [9E+9, 9E+9, 9E9, 9E9, 9E9, 9E9]];
    CONST robtarget p_DrawCylinder_110 := [[1134.27, 85.709, 430.0], [-1.0, 0.0, 0.0, 0.0],[-1.0, 0.0, 1.0, 0.0], [9E+9, 9E+9, 9E9, 9E9, 9E9, 9E9]];
    CONST robtarget p_DrawCylinder_111 := [[1133.03, 86.77600000000001, 430.0], [-1.0, 0.0, 0.0, 0.0],[-1.0, 0.0, 1.0, 0.0], [9E+9, 9E+9, 9E9, 9E9, 9E9, 9E9]];
    CONST robtarget p_DrawCylinder_112 := [[1132.663, 87.06, 430.0], [-1.0, 0.0, 0.0, 0.0],[-1.0, 0.0, 1.0, 0.0], [9E+9, 9E+9, 9E9, 9E9, 9E9, 9E9]];
    CONST robtarget p_DrawCylinder_113 := [[1131.721, 87.75999999999999, 430.0], [-1.0, 0.0, 0.0, 0.0],[-1.0, 0.0, 1.0, 0.0], [9E+9, 9E+9, 9E9, 9E9, 9E9, 9E9]];
    CONST robtarget p_DrawCylinder_114 := [[1131.28, 88.05699999999999, 430.0], [-1.0, 0.0, 0.0, 0.0],[-1.0, 0.0, 1.0, 0.0], [9E+9, 9E+9, 9E9, 9E9, 9E9, 9E9]];
    CONST robtarget p_DrawCylinder_115 := [[1130.367, 88.64599999999999, 430.0], [-1.0, 0.0, 0.0, 0.0],[-1.0, 0.0, 1.0, 0.0], [9E+9, 9E+9, 9E9, 9E9, 9E9, 9E9]];
    CONST robtarget p_DrawCylinder_116 := [[1129.868, 88.936, 430.0], [-1.0, 0.0, 0.0, 0.0],[-1.0, 0.0, 1.0, 0.0], [9E+9, 9E+9, 9E9, 9E9, 9E9, 9E9]];
    CONST robtarget p_DrawCylinder_117 := [[1128.9279999999999, 89.458, 430.0], [-1.0, 0.0, 0.0, 0.0],[-1.0, 0.0, 1.0, 0.0], [9E+9, 9E+9, 9E9, 9E9, 9E9, 9E9]];
    CONST robtarget p_DrawCylinder_118 := [[1128.419, 89.708, 430.0], [-1.0, 0.0, 0.0, 0.0],[-1.0, 0.0, 1.0, 0.0], [9E+9, 9E+9, 9E9, 9E9, 9E9, 9E9]];
    CONST robtarget p_DrawCylinder_119 := [[1127.4470000000001, 90.166, 430.0], [-1.0, 0.0, 0.0, 0.0],[-1.0, 0.0, 1.0, 0.0], [9E+9, 9E+9, 9E9, 9E9, 9E9, 9E9]];
    CONST robtarget p_DrawCylinder_120 := [[1126.859, 90.40799999999999, 430.0], [-1.0, 0.0, 0.0, 0.0],[-1.0, 0.0, 1.0, 0.0], [9E+9, 9E+9, 9E9, 9E9, 9E9, 9E9]];
    CONST robtarget p_DrawCylinder_121 := [[1125.946, 90.76599999999999, 430.0], [-1.0, 0.0, 0.0, 0.0],[-1.0, 0.0, 1.0, 0.0], [9E+9, 9E+9, 9E9, 9E9, 9E9, 9E9]];
    CONST robtarget p_DrawCylinder_122 := [[1125.336, 90.97200000000001, 430.0], [-1.0, 0.0, 0.0, 0.0],[-1.0, 0.0, 1.0, 0.0], [9E+9, 9E+9, 9E9, 9E9, 9E9, 9E9]];
    CONST robtarget p_DrawCylinder_123 := [[1124.383, 91.275, 430.0], [-1.0, 0.0, 0.0, 0.0],[-1.0, 0.0, 1.0, 0.0], [9E+9, 9E+9, 9E9, 9E9, 9E9, 9E9]];
    CONST robtarget p_DrawCylinder_124 := [[1123.716, 91.451, 430.0], [-1.0, 0.0, 0.0, 0.0],[-1.0, 0.0, 1.0, 0.0], [9E+9, 9E+9, 9E9, 9E9, 9E9, 9E9]];
    CONST robtarget p_DrawCylinder_125 := [[1122.781, 91.68199999999999, 430.0], [-1.0, 0.0, 0.0, 0.0],[-1.0, 0.0, 1.0, 0.0], [9E+9, 9E+9, 9E9, 9E9, 9E9, 9E9]];
    CONST robtarget p_DrawCylinder_126 := [[1122.091, 91.815, 430.0], [-1.0, 0.0, 0.0, 0.0],[-1.0, 0.0, 1.0, 0.0], [9E+9, 9E+9, 9E9, 9E9, 9E9, 9E9]];
    CONST robtarget p_DrawCylinder_127 := [[1121.195, 91.97300000000001, 430.0], [-1.0, 0.0, 0.0, 0.0],[-1.0, 0.0, 1.0, 0.0], [9E+9, 9E+9, 9E9, 9E9, 9E9, 9E9]];
    CONST robtarget p_DrawCylinder_128 := [[1120.446, 92.06800000000001, 430.0], [-1.0, 0.0, 0.0, 0.0],[-1.0, 0.0, 1.0, 0.0], [9E+9, 9E+9, 9E9, 9E9, 9E9, 9E9]];
    CONST robtarget p_DrawCylinder_129 := [[1119.561, 92.16399999999999, 430.0], [-1.0, 0.0, 0.0, 0.0],[-1.0, 0.0, 1.0, 0.0], [9E+9, 9E+9, 9E9, 9E9, 9E9, 9E9]];
    CONST robtarget p_DrawCylinder_130 := [[1118.773, 92.21100000000001, 430.0], [-1.0, 0.0, 0.0, 0.0],[-1.0, 0.0, 1.0, 0.0], [9E+9, 9E+9, 9E9, 9E9, 9E9, 9E9]];
    CONST robtarget p_DrawCylinder_131 := [[1118.353, 92.22900000000001, 430.0], [-1.0, 0.0, 0.0, 0.0],[-1.0, 0.0, 1.0, 0.0], [9E+9, 9E+9, 9E9, 9E9, 9E9, 9E9]];
    CONST robtarget p_DrawCylinder_132 := [[1117.919, 92.24700000000001, 430.0], [-1.0, 0.0, 0.0, 0.0],[-1.0, 0.0, 1.0, 0.0], [9E+9, 9E+9, 9E9, 9E9, 9E9, 9E9]];
    CONST robtarget p_DrawCylinder_133 := [[1117.101, 91.74700000000001, 430.0], [-1.0, 0.0, 0.0, 0.0],[-1.0, 0.0, 1.0, 0.0], [9E+9, 9E+9, 9E9, 9E9, 9E9, 9E9]];
    CONST robtarget p_DrawCylinder_134 := [[1117.903, 91.739, 430.0], [-1.0, 0.0, 0.0, 0.0],[-1.0, 0.0, 1.0, 0.0], [9E+9, 9E+9, 9E9, 9E9, 9E9, 9E9]];
    CONST robtarget p_DrawCylinder_135 := [[1118.725, 91.71799999999999, 430.0], [-1.0, 0.0, 0.0, 0.0],[-1.0, 0.0, 1.0, 0.0], [9E+9, 9E+9, 9E9, 9E9, 9E9, 9E9]];
    CONST robtarget p_DrawCylinder_136 := [[1119.512, 91.66, 430.0], [-1.0, 0.0, 0.0, 0.0],[-1.0, 0.0, 1.0, 0.0], [9E+9, 9E+9, 9E9, 9E9, 9E9, 9E9]];
    CONST robtarget p_DrawCylinder_137 := [[1120.372, 91.58099999999999, 430.0], [-1.0, 0.0, 0.0, 0.0],[-1.0, 0.0, 1.0, 0.0], [9E+9, 9E+9, 9E9, 9E9, 9E9, 9E9]];
    CONST robtarget p_DrawCylinder_138 := [[1121.977, 91.334, 430.0], [-1.0, 0.0, 0.0, 0.0],[-1.0, 0.0, 1.0, 0.0], [9E+9, 9E+9, 9E9, 9E9, 9E9, 9E9]];
    CONST robtarget p_DrawCylinder_139 := [[1122.665, 91.18799999999999, 430.0], [-1.0, 0.0, 0.0, 0.0],[-1.0, 0.0, 1.0, 0.0], [9E+9, 9E+9, 9E9, 9E9, 9E9, 9E9]];
    CONST robtarget p_DrawCylinder_140 := [[1123.57, 90.97999999999999, 430.0], [-1.0, 0.0, 0.0, 0.0],[-1.0, 0.0, 1.0, 0.0], [9E+9, 9E+9, 9E9, 9E9, 9E9, 9E9]];
    CONST robtarget p_DrawCylinder_141 := [[1124.234, 90.791, 430.0], [-1.0, 0.0, 0.0, 0.0],[-1.0, 0.0, 1.0, 0.0], [9E+9, 9E+9, 9E9, 9E9, 9E9, 9E9]];
    CONST robtarget p_DrawCylinder_142 := [[1125.159, 90.512, 430.0], [-1.0, 0.0, 0.0, 0.0],[-1.0, 0.0, 1.0, 0.0], [9E+9, 9E+9, 9E9, 9E9, 9E9, 9E9]];
    CONST robtarget p_DrawCylinder_143 := [[1125.766, 90.29400000000001, 430.0], [-1.0, 0.0, 0.0, 0.0],[-1.0, 0.0, 1.0, 0.0], [9E+9, 9E+9, 9E9, 9E9, 9E9, 9E9]];
    CONST robtarget p_DrawCylinder_144 := [[1126.683, 89.94800000000001, 430.0], [-1.0, 0.0, 0.0, 0.0],[-1.0, 0.0, 1.0, 0.0], [9E+9, 9E+9, 9E9, 9E9, 9E9, 9E9]];
    CONST robtarget p_DrawCylinder_145 := [[1127.236, 89.707, 430.0], [-1.0, 0.0, 0.0, 0.0],[-1.0, 0.0, 1.0, 0.0], [9E+9, 9E+9, 9E9, 9E9, 9E9, 9E9]];
    CONST robtarget p_DrawCylinder_146 := [[1128.183, 89.275, 430.0], [-1.0, 0.0, 0.0, 0.0],[-1.0, 0.0, 1.0, 0.0], [9E+9, 9E+9, 9E9, 9E9, 9E9, 9E9]];
    CONST robtarget p_DrawCylinder_147 := [[1129.619, 88.50899999999999, 430.0], [-1.0, 0.0, 0.0, 0.0],[-1.0, 0.0, 1.0, 0.0], [9E+9, 9E+9, 9E9, 9E9, 9E9, 9E9]];
    CONST robtarget p_DrawCylinder_148 := [[1130.096, 88.22, 430.0], [-1.0, 0.0, 0.0, 0.0],[-1.0, 0.0, 1.0, 0.0], [9E+9, 9E+9, 9E9, 9E9, 9E9, 9E9]];
    CONST robtarget p_DrawCylinder_149 := [[1131.0140000000001, 87.63999999999999, 430.0], [-1.0, 0.0, 0.0, 0.0],[-1.0, 0.0, 1.0, 0.0], [9E+9, 9E+9, 9E9, 9E9, 9E9, 9E9]];
    CONST robtarget p_DrawCylinder_150 := [[1131.423, 87.35300000000001, 430.0], [-1.0, 0.0, 0.0, 0.0],[-1.0, 0.0, 1.0, 0.0], [9E+9, 9E+9, 9E9, 9E9, 9E9, 9E9]];
    CONST robtarget p_DrawCylinder_151 := [[1132.344, 86.68199999999999, 430.0], [-1.0, 0.0, 0.0, 0.0],[-1.0, 0.0, 1.0, 0.0], [9E+9, 9E+9, 9E9, 9E9, 9E9, 9E9]];
    CONST robtarget p_DrawCylinder_152 := [[1133.614, 85.62899999999999, 430.0], [-1.0, 0.0, 0.0, 0.0],[-1.0, 0.0, 1.0, 0.0], [9E+9, 9E+9, 9E9, 9E9, 9E9, 9E9]];
    CONST robtarget p_DrawCylinder_153 := [[1134.791, 84.511, 430.0], [-1.0, 0.0, 0.0, 0.0],[-1.0, 0.0, 1.0, 0.0], [9E+9, 9E+9, 9E9, 9E9, 9E9, 9E9]];
    CONST robtarget p_DrawCylinder_154 := [[1135.898, 83.30799999999999, 430.0], [-1.0, 0.0, 0.0, 0.0],[-1.0, 0.0, 1.0, 0.0], [9E+9, 9E+9, 9E9, 9E9, 9E9, 9E9]];
    CONST robtarget p_DrawCylinder_155 := [[1136.924, 82.02799999999999, 430.0], [-1.0, 0.0, 0.0, 0.0],[-1.0, 0.0, 1.0, 0.0], [9E+9, 9E+9, 9E9, 9E9, 9E9, 9E9]];
    CONST robtarget p_DrawCylinder_156 := [[1137.866, 80.678, 430.0], [-1.0, 0.0, 0.0, 0.0],[-1.0, 0.0, 1.0, 0.0], [9E+9, 9E+9, 9E9, 9E9, 9E9, 9E9]];
    CONST robtarget p_DrawCylinder_157 := [[1138.7069999999999, 79.27600000000001, 430.0], [-1.0, 0.0, 0.0, 0.0],[-1.0, 0.0, 1.0, 0.0], [9E+9, 9E+9, 9E9, 9E9, 9E9, 9E9]];
    CONST robtarget p_DrawCylinder_158 := [[1139.458, 77.808, 430.0], [-1.0, 0.0, 0.0, 0.0],[-1.0, 0.0, 1.0, 0.0], [9E+9, 9E+9, 9E9, 9E9, 9E9, 9E9]];
    CONST robtarget p_DrawCylinder_159 := [[1140.109, 76.296, 430.0], [-1.0, 0.0, 0.0, 0.0],[-1.0, 0.0, 1.0, 0.0], [9E+9, 9E+9, 9E9, 9E9, 9E9, 9E9]];
    CONST robtarget p_DrawCylinder_160 := [[1140.643, 74.774, 430.0], [-1.0, 0.0, 0.0, 0.0],[-1.0, 0.0, 1.0, 0.0], [9E+9, 9E+9, 9E9, 9E9, 9E9, 9E9]];
    CONST robtarget p_DrawCylinder_161 := [[1141.086, 73.173, 430.0], [-1.0, 0.0, 0.0, 0.0],[-1.0, 0.0, 1.0, 0.0], [9E+9, 9E+9, 9E9, 9E9, 9E9, 9E9]];
    CONST robtarget p_DrawCylinder_162 := [[1141.413, 71.587, 430.0], [-1.0, 0.0, 0.0, 0.0],[-1.0, 0.0, 1.0, 0.0], [9E+9, 9E+9, 9E9, 9E9, 9E9, 9E9]];
    CONST robtarget p_DrawCylinder_163 := [[1141.634, 69.96, 430.0], [-1.0, 0.0, 0.0, 0.0],[-1.0, 0.0, 1.0, 0.0], [9E+9, 9E+9, 9E9, 9E9, 9E9, 9E9]];
    CONST robtarget p_DrawCylinder_164 := [[1141.745, 68.34, 430.0], [-1.0, 0.0, 0.0, 0.0],[-1.0, 0.0, 1.0, 0.0], [9E+9, 9E+9, 9E9, 9E9, 9E9, 9E9]];
    CONST robtarget p_DrawCylinder_165 := [[1141.747, 66.701, 430.0], [-1.0, 0.0, 0.0, 0.0],[-1.0, 0.0, 1.0, 0.0], [9E+9, 9E+9, 9E9, 9E9, 9E9, 9E9]];
    CONST robtarget p_DrawCylinder_166 := [[1141.635, 65.04, 430.0], [-1.0, 0.0, 0.0, 0.0],[-1.0, 0.0, 1.0, 0.0], [9E+9, 9E+9, 9E9, 9E9, 9E9, 9E9]];
    CONST robtarget p_DrawCylinder_167 := [[1141.416, 63.43000000000001, 430.0], [-1.0, 0.0, 0.0, 0.0],[-1.0, 0.0, 1.0, 0.0], [9E+9, 9E+9, 9E9, 9E9, 9E9, 9E9]];
    CONST robtarget p_DrawCylinder_168 := [[1141.086, 61.827, 430.0], [-1.0, 0.0, 0.0, 0.0],[-1.0, 0.0, 1.0, 0.0], [9E+9, 9E+9, 9E9, 9E9, 9E9, 9E9]];
    CONST robtarget p_DrawCylinder_169 := [[1140.647, 60.238, 430.0], [-1.0, 0.0, 0.0, 0.0],[-1.0, 0.0, 1.0, 0.0], [9E+9, 9E+9, 9E9, 9E9, 9E9, 9E9]];
    CONST robtarget p_DrawCylinder_170 := [[1140.109, 58.70399999999999, 430.0], [-1.0, 0.0, 0.0, 0.0],[-1.0, 0.0, 1.0, 0.0], [9E+9, 9E+9, 9E9, 9E9, 9E9, 9E9]];
    CONST robtarget p_DrawCylinder_171 := [[1139.465, 57.206999999999994, 430.0], [-1.0, 0.0, 0.0, 0.0],[-1.0, 0.0, 1.0, 0.0], [9E+9, 9E+9, 9E9, 9E9, 9E9, 9E9]];
    CONST robtarget p_DrawCylinder_172 := [[1138.716, 55.739000000000004, 430.0], [-1.0, 0.0, 0.0, 0.0],[-1.0, 0.0, 1.0, 0.0], [9E+9, 9E+9, 9E9, 9E9, 9E9, 9E9]];
    CONST robtarget p_DrawCylinder_173 := [[1137.876, 54.337, 430.0], [-1.0, 0.0, 0.0, 0.0],[-1.0, 0.0, 1.0, 0.0], [9E+9, 9E+9, 9E9, 9E9, 9E9, 9E9]];
    CONST robtarget p_DrawCylinder_174 := [[1136.934, 52.985, 430.0], [-1.0, 0.0, 0.0, 0.0],[-1.0, 0.0, 1.0, 0.0], [9E+9, 9E+9, 9E9, 9E9, 9E9, 9E9]];
    CONST robtarget p_DrawCylinder_175 := [[1135.909, 51.705, 430.0], [-1.0, 0.0, 0.0, 0.0],[-1.0, 0.0, 1.0, 0.0], [9E+9, 9E+9, 9E9, 9E9, 9E9, 9E9]];
    CONST robtarget p_DrawCylinder_176 := [[1134.8029999999999, 50.501000000000005, 430.0], [-1.0, 0.0, 0.0, 0.0],[-1.0, 0.0, 1.0, 0.0], [9E+9, 9E+9, 9E9, 9E9, 9E9, 9E9]];
    CONST robtarget p_DrawCylinder_177 := [[1133.627, 49.382000000000005, 430.0], [-1.0, 0.0, 0.0, 0.0],[-1.0, 0.0, 1.0, 0.0], [9E+9, 9E+9, 9E9, 9E9, 9E9, 9E9]];
    CONST robtarget p_DrawCylinder_178 := [[1132.357, 48.328, 430.0], [-1.0, 0.0, 0.0, 0.0],[-1.0, 0.0, 1.0, 0.0], [9E+9, 9E+9, 9E9, 9E9, 9E9, 9E9]];
    CONST robtarget p_DrawCylinder_179 := [[1131.028, 47.369, 430.0], [-1.0, 0.0, 0.0, 0.0],[-1.0, 0.0, 1.0, 0.0], [9E+9, 9E+9, 9E9, 9E9, 9E9, 9E9]];
    CONST robtarget p_DrawCylinder_180 := [[1129.625, 46.492999999999995, 430.0], [-1.0, 0.0, 0.0, 0.0],[-1.0, 0.0, 1.0, 0.0], [9E+9, 9E+9, 9E9, 9E9, 9E9, 9E9]];
    CONST robtarget p_DrawCylinder_181 := [[1128.68, 45.983000000000004, 430.0], [-1.0, 0.0, 0.0, 0.0],[-1.0, 0.0, 1.0, 0.0], [9E+9, 9E+9, 9E9, 9E9, 9E9, 9E9]];
    CONST robtarget p_DrawCylinder_182 := [[1128.1970000000001, 45.733000000000004, 430.0], [-1.0, 0.0, 0.0, 0.0],[-1.0, 0.0, 1.0, 0.0], [9E+9, 9E+9, 9E9, 9E9, 9E9, 9E9]];
    CONST robtarget p_DrawCylinder_183 := [[1127.235, 45.292, 430.0], [-1.0, 0.0, 0.0, 0.0],[-1.0, 0.0, 1.0, 0.0], [9E+9, 9E+9, 9E9, 9E9, 9E9, 9E9]];
    CONST robtarget p_DrawCylinder_184 := [[1126.689, 45.053, 430.0], [-1.0, 0.0, 0.0, 0.0],[-1.0, 0.0, 1.0, 0.0], [9E+9, 9E+9, 9E9, 9E9, 9E9, 9E9]];
    CONST robtarget p_DrawCylinder_185 := [[1125.166, 44.489999999999995, 430.0], [-1.0, 0.0, 0.0, 0.0],[-1.0, 0.0, 1.0, 0.0], [9E+9, 9E+9, 9E9, 9E9, 9E9, 9E9]];
    CONST robtarget p_DrawCylinder_186 := [[1124.233, 44.208, 430.0], [-1.0, 0.0, 0.0, 0.0],[-1.0, 0.0, 1.0, 0.0], [9E+9, 9E+9, 9E9, 9E9, 9E9, 9E9]];
    CONST robtarget p_DrawCylinder_187 := [[1123.586, 44.024, 430.0], [-1.0, 0.0, 0.0, 0.0],[-1.0, 0.0, 1.0, 0.0], [9E+9, 9E+9, 9E9, 9E9, 9E9, 9E9]];
    CONST robtarget p_DrawCylinder_188 := [[1122.665, 43.81100000000001, 430.0], [-1.0, 0.0, 0.0, 0.0],[-1.0, 0.0, 1.0, 0.0], [9E+9, 9E+9, 9E9, 9E9, 9E9, 9E9]];
    CONST robtarget p_DrawCylinder_189 := [[1121.993, 43.669, 430.0], [-1.0, 0.0, 0.0, 0.0],[-1.0, 0.0, 1.0, 0.0], [9E+9, 9E+9, 9E9, 9E9, 9E9, 9E9]];
    CONST robtarget p_DrawCylinder_190 := [[1121.111, 43.525999999999996, 430.0], [-1.0, 0.0, 0.0, 0.0],[-1.0, 0.0, 1.0, 0.0], [9E+9, 9E+9, 9E9, 9E9, 9E9, 9E9]];
    CONST robtarget p_DrawCylinder_191 := [[1120.372, 43.419, 430.0], [-1.0, 0.0, 0.0, 0.0],[-1.0, 0.0, 1.0, 0.0], [9E+9, 9E+9, 9E9, 9E9, 9E9, 9E9]];
    CONST robtarget p_DrawCylinder_192 := [[1119.512, 43.34, 430.0], [-1.0, 0.0, 0.0, 0.0],[-1.0, 0.0, 1.0, 0.0], [9E+9, 9E+9, 9E9, 9E9, 9E9, 9E9]];
    CONST robtarget p_DrawCylinder_193 := [[1118.733, 43.281000000000006, 430.0], [-1.0, 0.0, 0.0, 0.0],[-1.0, 0.0, 1.0, 0.0], [9E+9, 9E+9, 9E9, 9E9, 9E9, 9E9]];
    CONST robtarget p_DrawCylinder_194 := [[1117.903, 43.260000000000005, 430.0], [-1.0, 0.0, 0.0, 0.0],[-1.0, 0.0, 1.0, 0.0], [9E+9, 9E+9, 9E9, 9E9, 9E9, 9E9]];
    CONST robtarget p_DrawCylinder_195 := [[1117.101, 43.253, 430.0], [-1.0, 0.0, 0.0, 0.0],[-1.0, 0.0, 1.0, 0.0], [9E+9, 9E+9, 9E9, 9E9, 9E9, 9E9]];
    CONST robtarget p_DrawCylinder_196 := [[1116.294, 43.287000000000006, 430.0], [-1.0, 0.0, 0.0, 0.0],[-1.0, 0.0, 1.0, 0.0], [9E+9, 9E+9, 9E9, 9E9, 9E9, 9E9]];
    CONST robtarget p_DrawCylinder_197 := [[1115.467, 43.336, 430.0], [-1.0, 0.0, 0.0, 0.0],[-1.0, 0.0, 1.0, 0.0], [9E+9, 9E+9, 9E9, 9E9, 9E9, 9E9]];
    CONST robtarget p_DrawCylinder_198 := [[1114.712, 43.419, 430.0], [-1.0, 0.0, 0.0, 0.0],[-1.0, 0.0, 1.0, 0.0], [9E+9, 9E+9, 9E9, 9E9, 9E9, 9E9]];
    CONST robtarget p_DrawCylinder_199 := [[1113.833, 43.53, 430.0], [-1.0, 0.0, 0.0, 0.0],[-1.0, 0.0, 1.0, 0.0], [9E+9, 9E+9, 9E9, 9E9, 9E9, 9E9]];
    CONST robtarget p_DrawCylinder_200 := [[1113.122, 43.656000000000006, 430.0], [-1.0, 0.0, 0.0, 0.0],[-1.0, 0.0, 1.0, 0.0], [9E+9, 9E+9, 9E9, 9E9, 9E9, 9E9]];
    CONST robtarget p_DrawCylinder_201 := [[1112.232, 43.83, 430.0], [-1.0, 0.0, 0.0, 0.0],[-1.0, 0.0, 1.0, 0.0], [9E+9, 9E+9, 9E9, 9E9, 9E9, 9E9]];
    CONST robtarget p_DrawCylinder_202 := [[1110.642, 44.241, 430.0], [-1.0, 0.0, 0.0, 0.0],[-1.0, 0.0, 1.0, 0.0], [9E+9, 9E+9, 9E9, 9E9, 9E9, 9E9]];
    CONST robtarget p_DrawCylinder_203 := [[1109.09, 44.756, 430.0], [-1.0, 0.0, 0.0, 0.0],[-1.0, 0.0, 1.0, 0.0], [9E+9, 9E+9, 9E9, 9E9, 9E9, 9E9]];
    CONST robtarget p_DrawCylinder_204 := [[1107.575, 45.375, 430.0], [-1.0, 0.0, 0.0, 0.0],[-1.0, 0.0, 1.0, 0.0], [9E+9, 9E+9, 9E9, 9E9, 9E9, 9E9]];
    CONST robtarget p_DrawCylinder_205 := [[1106.108, 46.093, 430.0], [-1.0, 0.0, 0.0, 0.0],[-1.0, 0.0, 1.0, 0.0], [9E+9, 9E+9, 9E9, 9E9, 9E9, 9E9]];
    CONST robtarget p_DrawCylinder_206 := [[1104.68, 46.919, 430.0], [-1.0, 0.0, 0.0, 0.0],[-1.0, 0.0, 1.0, 0.0], [9E+9, 9E+9, 9E9, 9E9, 9E9, 9E9]];
    CONST robtarget p_DrawCylinder_207 := [[1103.325, 47.828, 430.0], [-1.0, 0.0, 0.0, 0.0],[-1.0, 0.0, 1.0, 0.0], [9E+9, 9E+9, 9E9, 9E9, 9E9, 9E9]];
    CONST robtarget p_DrawCylinder_208 := [[1102.931, 48.125, 430.0], [-1.0, 0.0, 0.0, 0.0],[-1.0, 0.0, 1.0, 0.0], [9E+9, 9E+9, 9E9, 9E9, 9E9, 9E9]];
    CONST robtarget p_DrawCylinder_209 := [[1102.032, 48.83, 430.0], [-1.0, 0.0, 0.0, 0.0],[-1.0, 0.0, 1.0, 0.0], [9E+9, 9E+9, 9E9, 9E9, 9E9, 9E9]];
    CONST robtarget p_DrawCylinder_210 := [[1100.783, 49.93600000000001, 430.0], [-1.0, 0.0, 0.0, 0.0],[-1.0, 0.0, 1.0, 0.0], [9E+9, 9E+9, 9E9, 9E9, 9E9, 9E9]];
    CONST robtarget p_DrawCylinder_211 := [[1099.657, 51.081999999999994, 430.0], [-1.0, 0.0, 0.0, 0.0],[-1.0, 0.0, 1.0, 0.0], [9E+9, 9E+9, 9E9, 9E9, 9E9, 9E9]];
    CONST robtarget p_DrawCylinder_212 := [[1098.584, 52.331999999999994, 430.0], [-1.0, 0.0, 0.0, 0.0],[-1.0, 0.0, 1.0, 0.0], [9E+9, 9E+9, 9E9, 9E9, 9E9, 9E9]];
    CONST robtarget p_DrawCylinder_213 := [[1097.613, 53.631, 430.0], [-1.0, 0.0, 0.0, 0.0],[-1.0, 0.0, 1.0, 0.0], [9E+9, 9E+9, 9E9, 9E9, 9E9, 9E9]];
    CONST robtarget p_DrawCylinder_214 := [[1096.722, 55.004000000000005, 430.0], [-1.0, 0.0, 0.0, 0.0],[-1.0, 0.0, 1.0, 0.0], [9E+9, 9E+9, 9E9, 9E9, 9E9, 9E9]];
    CONST robtarget p_DrawCylinder_215 := [[1095.92, 56.449, 430.0], [-1.0, 0.0, 0.0, 0.0],[-1.0, 0.0, 1.0, 0.0], [9E+9, 9E+9, 9E9, 9E9, 9E9, 9E9]];
    CONST robtarget p_DrawCylinder_216 := [[1095.219, 57.938, 430.0], [-1.0, 0.0, 0.0, 0.0],[-1.0, 0.0, 1.0, 0.0], [9E+9, 9E+9, 9E9, 9E9, 9E9, 9E9]];
    CONST robtarget p_DrawCylinder_217 := [[1094.631, 59.443, 430.0], [-1.0, 0.0, 0.0, 0.0],[-1.0, 0.0, 1.0, 0.0], [9E+9, 9E+9, 9E9, 9E9, 9E9, 9E9]];
    CONST robtarget p_DrawCylinder_218 := [[1094.137, 61.018, 430.0], [-1.0, 0.0, 0.0, 0.0],[-1.0, 0.0, 1.0, 0.0], [9E+9, 9E+9, 9E9, 9E9, 9E9, 9E9]];
    CONST robtarget p_DrawCylinder_219 := [[1093.75, 62.620000000000005, 430.0], [-1.0, 0.0, 0.0, 0.0],[-1.0, 0.0, 1.0, 0.0], [9E+9, 9E+9, 9E9, 9E9, 9E9, 9E9]];
    CONST robtarget p_DrawCylinder_220 := [[1093.475, 64.226, 430.0], [-1.0, 0.0, 0.0, 0.0],[-1.0, 0.0, 1.0, 0.0], [9E+9, 9E+9, 9E9, 9E9, 9E9, 9E9]];
    CONST robtarget p_DrawCylinder_221 := [[1093.31, 65.843, 430.0], [-1.0, 0.0, 0.0, 0.0],[-1.0, 0.0, 1.0, 0.0], [9E+9, 9E+9, 9E9, 9E9, 9E9, 9E9]];
    CONST robtarget p_DrawCylinder_222 := [[1093.254, 67.491, 430.0], [-1.0, 0.0, 0.0, 0.0],[-1.0, 0.0, 1.0, 0.0], [9E+9, 9E+9, 9E9, 9E9, 9E9, 9E9]];
    CONST robtarget p_DrawCylinder_223 := [[1093.308, 69.121, 430.0], [-1.0, 0.0, 0.0, 0.0],[-1.0, 0.0, 1.0, 0.0], [9E+9, 9E+9, 9E9, 9E9, 9E9, 9E9]];
    CONST robtarget p_DrawCylinder_224 := [[1093.473, 70.757, 430.0], [-1.0, 0.0, 0.0, 0.0],[-1.0, 0.0, 1.0, 0.0], [9E+9, 9E+9, 9E9, 9E9, 9E9, 9E9]];
    CONST robtarget p_DrawCylinder_225 := [[1093.746, 72.363, 430.0], [-1.0, 0.0, 0.0, 0.0],[-1.0, 0.0, 1.0, 0.0], [9E+9, 9E+9, 9E9, 9E9, 9E9, 9E9]];
    CONST robtarget p_DrawCylinder_226 := [[1094.133, 73.966, 430.0], [-1.0, 0.0, 0.0, 0.0],[-1.0, 0.0, 1.0, 0.0], [9E+9, 9E+9, 9E9, 9E9, 9E9, 9E9]];
    CONST robtarget p_DrawCylinder_227 := [[1094.624, 75.538, 430.0], [-1.0, 0.0, 0.0, 0.0],[-1.0, 0.0, 1.0, 0.0], [9E+9, 9E+9, 9E9, 9E9, 9E9, 9E9]];
    CONST robtarget p_DrawCylinder_228 := [[1095.212, 77.047, 430.0], [-1.0, 0.0, 0.0, 0.0],[-1.0, 0.0, 1.0, 0.0], [9E+9, 9E+9, 9E9, 9E9, 9E9, 9E9]];
    CONST robtarget p_DrawCylinder_229 := [[1095.912, 78.536, 430.0], [-1.0, 0.0, 0.0, 0.0],[-1.0, 0.0, 1.0, 0.0], [9E+9, 9E+9, 9E9, 9E9, 9E9, 9E9]];
    CONST robtarget p_DrawCylinder_230 := [[1096.711, 79.97800000000001, 430.0], [-1.0, 0.0, 0.0, 0.0],[-1.0, 0.0, 1.0, 0.0], [9E+9, 9E+9, 9E9, 9E9, 9E9, 9E9]];
    CONST robtarget p_DrawCylinder_231 := [[1097.601, 81.352, 430.0], [-1.0, 0.0, 0.0, 0.0],[-1.0, 0.0, 1.0, 0.0], [9E+9, 9E+9, 9E9, 9E9, 9E9, 9E9]];
    CONST robtarget p_DrawCylinder_232 := [[1098.573, 82.655, 430.0], [-1.0, 0.0, 0.0, 0.0],[-1.0, 0.0, 1.0, 0.0], [9E+9, 9E+9, 9E9, 9E9, 9E9, 9E9]];
    CONST robtarget p_DrawCylinder_233 := [[1099.657, 83.918, 430.0], [-1.0, 0.0, 0.0, 0.0],[-1.0, 0.0, 1.0, 0.0], [9E+9, 9E+9, 9E9, 9E9, 9E9, 9E9]];
    CONST robtarget p_DrawCylinder_234 := [[1100.783, 85.064, 430.0], [-1.0, 0.0, 0.0, 0.0],[-1.0, 0.0, 1.0, 0.0], [9E+9, 9E+9, 9E9, 9E9, 9E9, 9E9]];
    CONST robtarget p_DrawCylinder_235 := [[1102.02, 86.16, 430.0], [-1.0, 0.0, 0.0, 0.0],[-1.0, 0.0, 1.0, 0.0], [9E+9, 9E+9, 9E9, 9E9, 9E9, 9E9]];
    CONST robtarget p_DrawCylinder_236 := [[1103.32, 87.16999999999999, 430.0], [-1.0, 0.0, 0.0, 0.0],[-1.0, 0.0, 1.0, 0.0], [9E+9, 9E+9, 9E9, 9E9, 9E9, 9E9]];
    CONST robtarget p_DrawCylinder_237 := [[1104.671, 88.07499999999999, 430.0], [-1.0, 0.0, 0.0, 0.0],[-1.0, 0.0, 1.0, 0.0], [9E+9, 9E+9, 9E9, 9E9, 9E9, 9E9]];
    CONST robtarget p_DrawCylinder_238 := [[1105.63, 88.637, 430.0], [-1.0, 0.0, 0.0, 0.0],[-1.0, 0.0, 1.0, 0.0], [9E+9, 9E+9, 9E9, 9E9, 9E9, 9E9]];
    CONST robtarget p_DrawCylinder_239 := [[1106.097, 88.9, 430.0], [-1.0, 0.0, 0.0, 0.0],[-1.0, 0.0, 1.0, 0.0], [9E+9, 9E+9, 9E9, 9E9, 9E9, 9E9]];
    CONST robtarget p_DrawCylinder_240 := [[1107.569, 89.62299999999999, 430.0], [-1.0, 0.0, 0.0, 0.0],[-1.0, 0.0, 1.0, 0.0], [9E+9, 9E+9, 9E9, 9E9, 9E9, 9E9]];
    CONST robtarget p_DrawCylinder_241 := [[1109.074, 90.238, 430.0], [-1.0, 0.0, 0.0, 0.0],[-1.0, 0.0, 1.0, 0.0], [9E+9, 9E+9, 9E9, 9E9, 9E9, 9E9]];
    CONST robtarget p_DrawCylinder_242 := [[1110.006, 90.554, 430.0], [-1.0, 0.0, 0.0, 0.0],[-1.0, 0.0, 1.0, 0.0], [9E+9, 9E+9, 9E9, 9E9, 9E9, 9E9]];
    CONST robtarget p_DrawCylinder_243 := [[1110.633, 90.755, 430.0], [-1.0, 0.0, 0.0, 0.0],[-1.0, 0.0, 1.0, 0.0], [9E+9, 9E+9, 9E9, 9E9, 9E9, 9E9]];
    CONST robtarget p_DrawCylinder_244 := [[1111.568, 91.005, 430.0], [-1.0, 0.0, 0.0, 0.0],[-1.0, 0.0, 1.0, 0.0], [9E+9, 9E+9, 9E9, 9E9, 9E9, 9E9]];
    CONST robtarget p_DrawCylinder_245 := [[1112.225, 91.16900000000001, 430.0], [-1.0, 0.0, 0.0, 0.0],[-1.0, 0.0, 1.0, 0.0], [9E+9, 9E+9, 9E9, 9E9, 9E9, 9E9]];
    CONST robtarget p_DrawCylinder_246 := [[1113.123, 91.344, 430.0], [-1.0, 0.0, 0.0, 0.0],[-1.0, 0.0, 1.0, 0.0], [9E+9, 9E+9, 9E9, 9E9, 9E9, 9E9]];
    CONST robtarget p_DrawCylinder_247 := [[1113.817, 91.46700000000001, 430.0], [-1.0, 0.0, 0.0, 0.0],[-1.0, 0.0, 1.0, 0.0], [9E+9, 9E+9, 9E9, 9E9, 9E9, 9E9]];
    CONST robtarget p_DrawCylinder_248 := [[1114.712, 91.582, 430.0], [-1.0, 0.0, 0.0, 0.0],[-1.0, 0.0, 1.0, 0.0], [9E+9, 9E+9, 9E9, 9E9, 9E9, 9E9]];
    CONST robtarget p_DrawCylinder_249 := [[1115.459, 91.66499999999999, 430.0], [-1.0, 0.0, 0.0, 0.0],[-1.0, 0.0, 1.0, 0.0], [9E+9, 9E+9, 9E9, 9E9, 9E9, 9E9]];
    CONST robtarget p_DrawCylinder_250 := [[1116.295, 91.713, 430.0], [-1.0, 0.0, 0.0, 0.0],[-1.0, 0.0, 1.0, 0.0], [9E+9, 9E+9, 9E9, 9E9, 9E9, 9E9]];
    CONST robtarget p_DrawCylinder_251 := [[1117.101, 91.74700000000001, 430.0], [-1.0, 0.0, 0.0, 0.0],[-1.0, 0.0, 1.0, 0.0], [9E+9, 9E+9, 9E9, 9E9, 9E9, 9E9]];
    CONST robtarget p_DrawCylinder_252 := [[1117.101, 91.74700000000001, 430.2], [-1.0, 0.0, 0.0, 0.0],[-1.0, 0.0, 1.0, 0.0], [9E+9, 9E+9, 9E9, 9E9, 9E9, 9E9]];
    CONST robtarget p_DrawCylinder_253 := [[1117.919, 92.24700000000001, 430.2], [-1.0, 0.0, 0.0, 0.0],[-1.0, 0.0, 1.0, 0.0], [9E+9, 9E+9, 9E9, 9E9, 9E9, 9E9]];
    CONST robtarget p_DrawCylinder_254 := [[1117.111, 92.24000000000001, 430.2], [-1.0, 0.0, 0.0, 0.0],[-1.0, 0.0, 1.0, 0.0], [9E+9, 9E+9, 9E9, 9E9, 9E9, 9E9]];
    CONST robtarget p_DrawCylinder_255 := [[1116.27, 92.22, 430.2], [-1.0, 0.0, 0.0, 0.0],[-1.0, 0.0, 1.0, 0.0], [9E+9, 9E+9, 9E9, 9E9, 9E9, 9E9]];
    CONST robtarget p_DrawCylinder_256 := [[1115.435, 92.15700000000001, 430.2], [-1.0, 0.0, 0.0, 0.0],[-1.0, 0.0, 1.0, 0.0], [9E+9, 9E+9, 9E9, 9E9, 9E9, 9E9]];
    CONST robtarget p_DrawCylinder_257 := [[1114.661, 92.08600000000001, 430.2], [-1.0, 0.0, 0.0, 0.0],[-1.0, 0.0, 1.0, 0.0], [9E+9, 9E+9, 9E9, 9E9, 9E9, 9E9]];
    CONST robtarget p_DrawCylinder_258 := [[1113.767, 91.959, 430.2], [-1.0, 0.0, 0.0, 0.0],[-1.0, 0.0, 1.0, 0.0], [9E+9, 9E+9, 9E9, 9E9, 9E9, 9E9]];
    CONST robtarget p_DrawCylinder_259 := [[1113.038, 91.84299999999999, 430.2], [-1.0, 0.0, 0.0, 0.0],[-1.0, 0.0, 1.0, 0.0], [9E+9, 9E+9, 9E9, 9E9, 9E9, 9E9]];
    CONST robtarget p_DrawCylinder_260 := [[1112.134, 91.65199999999999, 430.2], [-1.0, 0.0, 0.0, 0.0],[-1.0, 0.0, 1.0, 0.0], [9E+9, 9E+9, 9E9, 9E9, 9E9, 9E9]];
    CONST robtarget p_DrawCylinder_261 := [[1111.449, 91.49600000000001, 430.2], [-1.0, 0.0, 0.0, 0.0],[-1.0, 0.0, 1.0, 0.0], [9E+9, 9E+9, 9E9, 9E9, 9E9, 9E9]];
    CONST robtarget p_DrawCylinder_262 := [[1110.506, 91.232, 430.2], [-1.0, 0.0, 0.0, 0.0],[-1.0, 0.0, 1.0, 0.0], [9E+9, 9E+9, 9E9, 9E9, 9E9, 9E9]];
    CONST robtarget p_DrawCylinder_263 := [[1109.856, 91.037, 430.2], [-1.0, 0.0, 0.0, 0.0],[-1.0, 0.0, 1.0, 0.0], [9E+9, 9E+9, 9E9, 9E9, 9E9, 9E9]];
    CONST robtarget p_DrawCylinder_264 := [[1108.915, 90.70599999999999, 430.2], [-1.0, 0.0, 0.0, 0.0],[-1.0, 0.0, 1.0, 0.0], [9E+9, 9E+9, 9E9, 9E9, 9E9, 9E9]];
    CONST robtarget p_DrawCylinder_265 := [[1108.327, 90.48500000000001, 430.2], [-1.0, 0.0, 0.0, 0.0],[-1.0, 0.0, 1.0, 0.0], [9E+9, 9E+9, 9E9, 9E9, 9E9, 9E9]];
    CONST robtarget p_DrawCylinder_266 := [[1107.383, 90.078, 430.2], [-1.0, 0.0, 0.0, 0.0],[-1.0, 0.0, 1.0, 0.0], [9E+9, 9E+9, 9E9, 9E9, 9E9, 9E9]];
    CONST robtarget p_DrawCylinder_267 := [[1106.818, 89.82300000000001, 430.2], [-1.0, 0.0, 0.0, 0.0],[-1.0, 0.0, 1.0, 0.0], [9E+9, 9E+9, 9E9, 9E9, 9E9, 9E9]];
    CONST robtarget p_DrawCylinder_268 := [[1105.89, 89.34800000000001, 430.2], [-1.0, 0.0, 0.0, 0.0],[-1.0, 0.0, 1.0, 0.0], [9E+9, 9E+9, 9E9, 9E9, 9E9, 9E9]];
    CONST robtarget p_DrawCylinder_269 := [[1105.386, 89.07900000000001, 430.2], [-1.0, 0.0, 0.0, 0.0],[-1.0, 0.0, 1.0, 0.0], [9E+9, 9E+9, 9E9, 9E9, 9E9, 9E9]];
    CONST robtarget p_DrawCylinder_270 := [[1103.967, 88.21799999999999, 430.2], [-1.0, 0.0, 0.0, 0.0],[-1.0, 0.0, 1.0, 0.0], [9E+9, 9E+9, 9E9, 9E9, 9E9, 9E9]];
    CONST robtarget p_DrawCylinder_271 := [[1102.625, 87.27699999999999, 430.2], [-1.0, 0.0, 0.0, 0.0],[-1.0, 0.0, 1.0, 0.0], [9E+9, 9E+9, 9E9, 9E9, 9E9, 9E9]];
    CONST robtarget p_DrawCylinder_272 := [[1101.353, 86.251, 430.2], [-1.0, 0.0, 0.0, 0.0],[-1.0, 0.0, 1.0, 0.0], [9E+9, 9E+9, 9E9, 9E9, 9E9, 9E9]];
    CONST robtarget p_DrawCylinder_273 := [[1100.157, 85.15100000000001, 430.2], [-1.0, 0.0, 0.0, 0.0],[-1.0, 0.0, 1.0, 0.0], [9E+9, 9E+9, 9E9, 9E9, 9E9, 9E9]];
    CONST robtarget p_DrawCylinder_274 := [[1099.028, 83.96600000000001, 430.2], [-1.0, 0.0, 0.0, 0.0],[-1.0, 0.0, 1.0, 0.0], [9E+9, 9E+9, 9E9, 9E9, 9E9, 9E9]];
    CONST robtarget p_DrawCylinder_275 := [[1097.973, 82.69999999999999, 430.2], [-1.0, 0.0, 0.0, 0.0],[-1.0, 0.0, 1.0, 0.0], [9E+9, 9E+9, 9E9, 9E9, 9E9, 9E9]];
    CONST robtarget p_DrawCylinder_276 := [[1097.018, 81.38399999999999, 430.2], [-1.0, 0.0, 0.0, 0.0],[-1.0, 0.0, 1.0, 0.0], [9E+9, 9E+9, 9E9, 9E9, 9E9, 9E9]];
    CONST robtarget p_DrawCylinder_277 := [[1096.139, 79.99199999999999, 430.2], [-1.0, 0.0, 0.0, 0.0],[-1.0, 0.0, 1.0, 0.0], [9E+9, 9E+9, 9E9, 9E9, 9E9, 9E9]];
    CONST robtarget p_DrawCylinder_278 := [[1095.37, 78.57, 430.2], [-1.0, 0.0, 0.0, 0.0],[-1.0, 0.0, 1.0, 0.0], [9E+9, 9E+9, 9E9, 9E9, 9E9, 9E9]];
    CONST robtarget p_DrawCylinder_279 := [[1094.676, 77.063, 430.2], [-1.0, 0.0, 0.0, 0.0],[-1.0, 0.0, 1.0, 0.0], [9E+9, 9E+9, 9E9, 9E9, 9E9, 9E9]];
    CONST robtarget p_DrawCylinder_280 := [[1094.1, 75.55, 430.2], [-1.0, 0.0, 0.0, 0.0],[-1.0, 0.0, 1.0, 0.0], [9E+9, 9E+9, 9E9, 9E9, 9E9, 9E9]];
    CONST robtarget p_DrawCylinder_281 := [[1093.621, 73.988, 430.2], [-1.0, 0.0, 0.0, 0.0],[-1.0, 0.0, 1.0, 0.0], [9E+9, 9E+9, 9E9, 9E9, 9E9, 9E9]];
    CONST robtarget p_DrawCylinder_282 := [[1093.239, 72.376, 430.2], [-1.0, 0.0, 0.0, 0.0],[-1.0, 0.0, 1.0, 0.0], [9E+9, 9E+9, 9E9, 9E9, 9E9, 9E9]];
    CONST robtarget p_DrawCylinder_283 := [[1092.97, 70.762, 430.2], [-1.0, 0.0, 0.0, 0.0],[-1.0, 0.0, 1.0, 0.0], [9E+9, 9E+9, 9E9, 9E9, 9E9, 9E9]];
    CONST robtarget p_DrawCylinder_284 := [[1092.809, 69.153, 430.2], [-1.0, 0.0, 0.0, 0.0],[-1.0, 0.0, 1.0, 0.0], [9E+9, 9E+9, 9E9, 9E9, 9E9, 9E9]];
    CONST robtarget p_DrawCylinder_285 := [[1092.754, 67.525, 430.2], [-1.0, 0.0, 0.0, 0.0],[-1.0, 0.0, 1.0, 0.0], [9E+9, 9E+9, 9E9, 9E9, 9E9, 9E9]];
    CONST robtarget p_DrawCylinder_286 := [[1092.808, 65.862, 430.2], [-1.0, 0.0, 0.0, 0.0],[-1.0, 0.0, 1.0, 0.0], [9E+9, 9E+9, 9E9, 9E9, 9E9, 9E9]];
    CONST robtarget p_DrawCylinder_287 := [[1092.969, 64.245, 430.2], [-1.0, 0.0, 0.0, 0.0],[-1.0, 0.0, 1.0, 0.0], [9E+9, 9E+9, 9E9, 9E9, 9E9, 9E9]];
    CONST robtarget p_DrawCylinder_288 := [[1093.237, 62.64, 430.2], [-1.0, 0.0, 0.0, 0.0],[-1.0, 0.0, 1.0, 0.0], [9E+9, 9E+9, 9E9, 9E9, 9E9, 9E9]];
    CONST robtarget p_DrawCylinder_289 := [[1093.617, 61.025000000000006, 430.2], [-1.0, 0.0, 0.0, 0.0],[-1.0, 0.0, 1.0, 0.0], [9E+9, 9E+9, 9E9, 9E9, 9E9, 9E9]];
    CONST robtarget p_DrawCylinder_290 := [[1094.098, 59.459, 430.2], [-1.0, 0.0, 0.0, 0.0],[-1.0, 0.0, 1.0, 0.0], [9E+9, 9E+9, 9E9, 9E9, 9E9, 9E9]];
    CONST robtarget p_DrawCylinder_291 := [[1094.67, 57.95099999999999, 430.2], [-1.0, 0.0, 0.0, 0.0],[-1.0, 0.0, 1.0, 0.0], [9E+9, 9E+9, 9E9, 9E9, 9E9, 9E9]];
    CONST robtarget p_DrawCylinder_292 := [[1095.363, 56.444, 430.2], [-1.0, 0.0, 0.0, 0.0],[-1.0, 0.0, 1.0, 0.0], [9E+9, 9E+9, 9E9, 9E9, 9E9, 9E9]];
    CONST robtarget p_DrawCylinder_293 := [[1096.131, 55.022000000000006, 430.2], [-1.0, 0.0, 0.0, 0.0],[-1.0, 0.0, 1.0, 0.0], [9E+9, 9E+9, 9E9, 9E9, 9E9, 9E9]];
    CONST robtarget p_DrawCylinder_294 := [[1097.01, 53.628, 430.2], [-1.0, 0.0, 0.0, 0.0],[-1.0, 0.0, 1.0, 0.0], [9E+9, 9E+9, 9E9, 9E9, 9E9, 9E9]];
    CONST robtarget p_DrawCylinder_295 := [[1097.964, 52.313, 430.2], [-1.0, 0.0, 0.0, 0.0],[-1.0, 0.0, 1.0, 0.0], [9E+9, 9E+9, 9E9, 9E9, 9E9, 9E9]];
    CONST robtarget p_DrawCylinder_296 := [[1099.018, 51.04600000000001, 430.2], [-1.0, 0.0, 0.0, 0.0],[-1.0, 0.0, 1.0, 0.0], [9E+9, 9E+9, 9E9, 9E9, 9E9, 9E9]];
    CONST robtarget p_DrawCylinder_297 := [[1100.146, 49.86, 430.2], [-1.0, 0.0, 0.0, 0.0],[-1.0, 0.0, 1.0, 0.0], [9E+9, 9E+9, 9E9, 9E9, 9E9, 9E9]];
    CONST robtarget p_DrawCylinder_298 := [[1101.342, 48.759, 430.2], [-1.0, 0.0, 0.0, 0.0],[-1.0, 0.0, 1.0, 0.0], [9E+9, 9E+9, 9E9, 9E9, 9E9, 9E9]];
    CONST robtarget p_DrawCylinder_299 := [[1102.619, 47.727999999999994, 430.2], [-1.0, 0.0, 0.0, 0.0],[-1.0, 0.0, 1.0, 0.0], [9E+9, 9E+9, 9E9, 9E9, 9E9, 9E9]];
    CONST robtarget p_DrawCylinder_300 := [[1103.954, 46.791, 430.2], [-1.0, 0.0, 0.0, 0.0],[-1.0, 0.0, 1.0, 0.0], [9E+9, 9E+9, 9E9, 9E9, 9E9, 9E9]];
    CONST robtarget p_DrawCylinder_301 := [[1104.406, 46.509, 430.2], [-1.0, 0.0, 0.0, 0.0],[-1.0, 0.0, 1.0, 0.0], [9E+9, 9E+9, 9E9, 9E9, 9E9, 9E9]];
    CONST robtarget p_DrawCylinder_302 := [[1105.373, 45.929, 430.2], [-1.0, 0.0, 0.0, 0.0],[-1.0, 0.0, 1.0, 0.0], [9E+9, 9E+9, 9E9, 9E9, 9E9, 9E9]];
    CONST robtarget p_DrawCylinder_303 := [[1105.881, 45.656000000000006, 430.2], [-1.0, 0.0, 0.0, 0.0],[-1.0, 0.0, 1.0, 0.0], [9E+9, 9E+9, 9E9, 9E9, 9E9, 9E9]];
    CONST robtarget p_DrawCylinder_304 := [[1106.804, 45.18300000000001, 430.2], [-1.0, 0.0, 0.0, 0.0],[-1.0, 0.0, 1.0, 0.0], [9E+9, 9E+9, 9E9, 9E9, 9E9, 9E9]];
    CONST robtarget p_DrawCylinder_305 := [[1107.371, 44.926, 430.2], [-1.0, 0.0, 0.0, 0.0],[-1.0, 0.0, 1.0, 0.0], [9E+9, 9E+9, 9E9, 9E9, 9E9, 9E9]];
    CONST robtarget p_DrawCylinder_306 := [[1108.312, 44.521, 430.2], [-1.0, 0.0, 0.0, 0.0],[-1.0, 0.0, 1.0, 0.0], [9E+9, 9E+9, 9E9, 9E9, 9E9, 9E9]];
    CONST robtarget p_DrawCylinder_307 := [[1108.898, 44.30200000000001, 430.2], [-1.0, 0.0, 0.0, 0.0],[-1.0, 0.0, 1.0, 0.0], [9E+9, 9E+9, 9E9, 9E9, 9E9, 9E9]];
    CONST robtarget p_DrawCylinder_308 := [[1109.841, 43.968, 430.2], [-1.0, 0.0, 0.0, 0.0],[-1.0, 0.0, 1.0, 0.0], [9E+9, 9E+9, 9E9, 9E9, 9E9, 9E9]];
    CONST robtarget p_DrawCylinder_309 := [[1110.488, 43.774, 430.2], [-1.0, 0.0, 0.0, 0.0],[-1.0, 0.0, 1.0, 0.0], [9E+9, 9E+9, 9E9, 9E9, 9E9, 9E9]];
    CONST robtarget p_DrawCylinder_310 := [[1111.435, 43.507999999999996, 430.2], [-1.0, 0.0, 0.0, 0.0],[-1.0, 0.0, 1.0, 0.0], [9E+9, 9E+9, 9E9, 9E9, 9E9, 9E9]];
    CONST robtarget p_DrawCylinder_311 := [[1112.102, 43.354, 430.2], [-1.0, 0.0, 0.0, 0.0],[-1.0, 0.0, 1.0, 0.0], [9E+9, 9E+9, 9E9, 9E9, 9E9, 9E9]];
    CONST robtarget p_DrawCylinder_312 := [[1113.022, 43.159000000000006, 430.2], [-1.0, 0.0, 0.0, 0.0],[-1.0, 0.0, 1.0, 0.0], [9E+9, 9E+9, 9E9, 9E9, 9E9, 9E9]];
    CONST robtarget p_DrawCylinder_313 := [[1113.736, 43.045, 430.2], [-1.0, 0.0, 0.0, 0.0],[-1.0, 0.0, 1.0, 0.0], [9E+9, 9E+9, 9E9, 9E9, 9E9, 9E9]];
    CONST robtarget p_DrawCylinder_314 := [[1114.645, 42.916, 430.2], [-1.0, 0.0, 0.0, 0.0],[-1.0, 0.0, 1.0, 0.0], [9E+9, 9E+9, 9E9, 9E9, 9E9, 9E9]];
    CONST robtarget p_DrawCylinder_315 := [[1115.401, 42.845, 430.2], [-1.0, 0.0, 0.0, 0.0],[-1.0, 0.0, 1.0, 0.0], [9E+9, 9E+9, 9E9, 9E9, 9E9, 9E9]];
    CONST robtarget p_DrawCylinder_316 := [[1116.262, 42.781000000000006, 430.2], [-1.0, 0.0, 0.0, 0.0],[-1.0, 0.0, 1.0, 0.0], [9E+9, 9E+9, 9E9, 9E9, 9E9, 9E9]];
    CONST robtarget p_DrawCylinder_317 := [[1117.077, 42.760000000000005, 430.2], [-1.0, 0.0, 0.0, 0.0],[-1.0, 0.0, 1.0, 0.0], [9E+9, 9E+9, 9E9, 9E9, 9E9, 9E9]];
    CONST robtarget p_DrawCylinder_318 := [[1117.903, 42.754000000000005, 430.2], [-1.0, 0.0, 0.0, 0.0],[-1.0, 0.0, 1.0, 0.0], [9E+9, 9E+9, 9E9, 9E9, 9E9, 9E9]];
    CONST robtarget p_DrawCylinder_319 := [[1118.741, 42.788, 430.2], [-1.0, 0.0, 0.0, 0.0],[-1.0, 0.0, 1.0, 0.0], [9E+9, 9E+9, 9E9, 9E9, 9E9, 9E9]];
    CONST robtarget p_DrawCylinder_320 := [[1119.546, 42.836, 430.2], [-1.0, 0.0, 0.0, 0.0],[-1.0, 0.0, 1.0, 0.0], [9E+9, 9E+9, 9E9, 9E9, 9E9, 9E9]];
    CONST robtarget p_DrawCylinder_321 := [[1120.413, 42.929, 430.2], [-1.0, 0.0, 0.0, 0.0],[-1.0, 0.0, 1.0, 0.0], [9E+9, 9E+9, 9E9, 9E9, 9E9, 9E9]];
    CONST robtarget p_DrawCylinder_322 := [[1121.187, 43.025000000000006, 430.2], [-1.0, 0.0, 0.0, 0.0],[-1.0, 0.0, 1.0, 0.0], [9E+9, 9E+9, 9E9, 9E9, 9E9, 9E9]];
    CONST robtarget p_DrawCylinder_323 := [[1122.058, 43.179, 430.2], [-1.0, 0.0, 0.0, 0.0],[-1.0, 0.0, 1.0, 0.0], [9E+9, 9E+9, 9E9, 9E9, 9E9, 9E9]];
    CONST robtarget p_DrawCylinder_324 := [[1122.766, 43.316, 430.2], [-1.0, 0.0, 0.0, 0.0],[-1.0, 0.0, 1.0, 0.0], [9E+9, 9E+9, 9E9, 9E9, 9E9, 9E9]];
    CONST robtarget p_DrawCylinder_325 := [[1123.684, 43.541, 430.2], [-1.0, 0.0, 0.0, 0.0],[-1.0, 0.0, 1.0, 0.0], [9E+9, 9E+9, 9E9, 9E9, 9E9, 9E9]];
    CONST robtarget p_DrawCylinder_326 := [[1124.367, 43.721000000000004, 430.2], [-1.0, 0.0, 0.0, 0.0],[-1.0, 0.0, 1.0, 0.0], [9E+9, 9E+9, 9E9, 9E9, 9E9, 9E9]];
    CONST robtarget p_DrawCylinder_327 := [[1125.305, 44.018, 430.2], [-1.0, 0.0, 0.0, 0.0],[-1.0, 0.0, 1.0, 0.0], [9E+9, 9E+9, 9E9, 9E9, 9E9, 9E9]];
    CONST robtarget p_DrawCylinder_328 := [[1125.939, 44.230999999999995, 430.2], [-1.0, 0.0, 0.0, 0.0],[-1.0, 0.0, 1.0, 0.0], [9E+9, 9E+9, 9E9, 9E9, 9E9, 9E9]];
    CONST robtarget p_DrawCylinder_329 := [[1127.433, 44.828, 430.2], [-1.0, 0.0, 0.0, 0.0],[-1.0, 0.0, 1.0, 0.0], [9E+9, 9E+9, 9E9, 9E9, 9E9, 9E9]];
    CONST robtarget p_DrawCylinder_330 := [[1128.908, 45.533, 430.2], [-1.0, 0.0, 0.0, 0.0],[-1.0, 0.0, 1.0, 0.0], [9E+9, 9E+9, 9E9, 9E9, 9E9, 9E9]];
    CONST robtarget p_DrawCylinder_331 := [[1129.867, 46.063, 430.2], [-1.0, 0.0, 0.0, 0.0],[-1.0, 0.0, 1.0, 0.0], [9E+9, 9E+9, 9E9, 9E9, 9E9, 9E9]];
    CONST robtarget p_DrawCylinder_332 := [[1130.354, 46.346000000000004, 430.2], [-1.0, 0.0, 0.0, 0.0],[-1.0, 0.0, 1.0, 0.0], [9E+9, 9E+9, 9E9, 9E9, 9E9, 9E9]];
    CONST robtarget p_DrawCylinder_333 := [[1131.28, 46.943, 430.2], [-1.0, 0.0, 0.0, 0.0],[-1.0, 0.0, 1.0, 0.0], [9E+9, 9E+9, 9E9, 9E9, 9E9, 9E9]];
    CONST robtarget p_DrawCylinder_334 := [[1131.706, 47.229, 430.2], [-1.0, 0.0, 0.0, 0.0],[-1.0, 0.0, 1.0, 0.0], [9E+9, 9E+9, 9E9, 9E9, 9E9, 9E9]];
    CONST robtarget p_DrawCylinder_335 := [[1133.0140000000001, 48.211, 430.2], [-1.0, 0.0, 0.0, 0.0],[-1.0, 0.0, 1.0, 0.0], [9E+9, 9E+9, 9E9, 9E9, 9E9, 9E9]];
    CONST robtarget p_DrawCylinder_336 := [[1134.256, 49.278000000000006, 430.2], [-1.0, 0.0, 0.0, 0.0],[-1.0, 0.0, 1.0, 0.0], [9E+9, 9E+9, 9E9, 9E9, 9E9, 9E9]];
    CONST robtarget p_DrawCylinder_337 := [[1135.444, 50.446, 430.2], [-1.0, 0.0, 0.0, 0.0],[-1.0, 0.0, 1.0, 0.0], [9E+9, 9E+9, 9E9, 9E9, 9E9, 9E9]];
    CONST robtarget p_DrawCylinder_338 := [[1136.528, 51.664, 430.2], [-1.0, 0.0, 0.0, 0.0],[-1.0, 0.0, 1.0, 0.0], [9E+9, 9E+9, 9E9, 9E9, 9E9, 9E9]];
    CONST robtarget p_DrawCylinder_339 := [[1137.507, 52.92, 430.2], [-1.0, 0.0, 0.0, 0.0],[-1.0, 0.0, 1.0, 0.0], [9E+9, 9E+9, 9E9, 9E9, 9E9, 9E9]];
    CONST robtarget p_DrawCylinder_340 := [[1138.466, 54.334999999999994, 430.2], [-1.0, 0.0, 0.0, 0.0],[-1.0, 0.0, 1.0, 0.0], [9E+9, 9E+9, 9E9, 9E9, 9E9, 9E9]];
    CONST robtarget p_DrawCylinder_341 := [[1139.252, 55.68000000000001, 430.2], [-1.0, 0.0, 0.0, 0.0],[-1.0, 0.0, 1.0, 0.0], [9E+9, 9E+9, 9E9, 9E9, 9E9, 9E9]];
    CONST robtarget p_DrawCylinder_342 := [[1140.007, 57.187, 430.2], [-1.0, 0.0, 0.0, 0.0],[-1.0, 0.0, 1.0, 0.0], [9E+9, 9E+9, 9E9, 9E9, 9E9, 9E9]];
    CONST robtarget p_DrawCylinder_343 := [[1140.633, 58.67700000000001, 430.2], [-1.0, 0.0, 0.0, 0.0],[-1.0, 0.0, 1.0, 0.0], [9E+9, 9E+9, 9E9, 9E9, 9E9, 9E9]];
    CONST robtarget p_DrawCylinder_344 := [[1141.172, 60.245000000000005, 430.2], [-1.0, 0.0, 0.0, 0.0],[-1.0, 0.0, 1.0, 0.0], [9E+9, 9E+9, 9E9, 9E9, 9E9, 9E9]];
    CONST robtarget p_DrawCylinder_345 := [[1141.593, 61.804, 430.2], [-1.0, 0.0, 0.0, 0.0],[-1.0, 0.0, 1.0, 0.0], [9E+9, 9E+9, 9E9, 9E9, 9E9, 9E9]];
    CONST robtarget p_DrawCylinder_346 := [[1141.9180000000001, 63.409000000000006, 430.2], [-1.0, 0.0, 0.0, 0.0],[-1.0, 0.0, 1.0, 0.0], [9E+9, 9E+9, 9E9, 9E9, 9E9, 9E9]];
    CONST robtarget p_DrawCylinder_347 := [[1142.136, 65.031, 430.2], [-1.0, 0.0, 0.0, 0.0],[-1.0, 0.0, 1.0, 0.0], [9E+9, 9E+9, 9E9, 9E9, 9E9, 9E9]];
    CONST robtarget p_DrawCylinder_348 := [[1142.245, 66.661, 430.2], [-1.0, 0.0, 0.0, 0.0],[-1.0, 0.0, 1.0, 0.0], [9E+9, 9E+9, 9E9, 9E9, 9E9, 9E9]];
    CONST robtarget p_DrawCylinder_349 := [[1142.247, 68.299, 430.2], [-1.0, 0.0, 0.0, 0.0],[-1.0, 0.0, 1.0, 0.0], [9E+9, 9E+9, 9E9, 9E9, 9E9, 9E9]];
    CONST robtarget p_DrawCylinder_350 := [[1142.1390000000001, 69.94, 430.2], [-1.0, 0.0, 0.0, 0.0],[-1.0, 0.0, 1.0, 0.0], [9E+9, 9E+9, 9E9, 9E9, 9E9, 9E9]];
    CONST robtarget p_DrawCylinder_351 := [[1141.921, 71.571, 430.2], [-1.0, 0.0, 0.0, 0.0],[-1.0, 0.0, 1.0, 0.0], [9E+9, 9E+9, 9E9, 9E9, 9E9, 9E9]];
    CONST robtarget p_DrawCylinder_352 := [[1141.597, 73.181, 430.2], [-1.0, 0.0, 0.0, 0.0],[-1.0, 0.0, 1.0, 0.0], [9E+9, 9E+9, 9E9, 9E9, 9E9, 9E9]];
    CONST robtarget p_DrawCylinder_353 := [[1141.176, 74.74, 430.2], [-1.0, 0.0, 0.0, 0.0],[-1.0, 0.0, 1.0, 0.0], [9E+9, 9E+9, 9E9, 9E9, 9E9, 9E9]];
    CONST robtarget p_DrawCylinder_354 := [[1140.641, 76.302, 430.2], [-1.0, 0.0, 0.0, 0.0],[-1.0, 0.0, 1.0, 0.0], [9E+9, 9E+9, 9E9, 9E9, 9E9, 9E9]];
    CONST robtarget p_DrawCylinder_355 := [[1140.013, 77.799, 430.2], [-1.0, 0.0, 0.0, 0.0],[-1.0, 0.0, 1.0, 0.0], [9E+9, 9E+9, 9E9, 9E9, 9E9, 9E9]];
    CONST robtarget p_DrawCylinder_356 := [[1139.26, 79.30699999999999, 430.2], [-1.0, 0.0, 0.0, 0.0],[-1.0, 0.0, 1.0, 0.0], [9E+9, 9E+9, 9E9, 9E9, 9E9, 9E9]];
    CONST robtarget p_DrawCylinder_357 := [[1138.474, 80.65199999999999, 430.2], [-1.0, 0.0, 0.0, 0.0],[-1.0, 0.0, 1.0, 0.0], [9E+9, 9E+9, 9E9, 9E9, 9E9, 9E9]];
    CONST robtarget p_DrawCylinder_358 := [[1137.512, 82.07400000000001, 430.2], [-1.0, 0.0, 0.0, 0.0],[-1.0, 0.0, 1.0, 0.0], [9E+9, 9E+9, 9E9, 9E9, 9E9, 9E9]];
    CONST robtarget p_DrawCylinder_359 := [[1136.537, 83.32400000000001, 430.2], [-1.0, 0.0, 0.0, 0.0],[-1.0, 0.0, 1.0, 0.0], [9E+9, 9E+9, 9E9, 9E9, 9E9, 9E9]];
    CONST robtarget p_DrawCylinder_360 := [[1135.449, 84.548, 430.2], [-1.0, 0.0, 0.0, 0.0],[-1.0, 0.0, 1.0, 0.0], [9E+9, 9E+9, 9E9, 9E9, 9E9, 9E9]];
    CONST robtarget p_DrawCylinder_361 := [[1134.27, 85.709, 430.2], [-1.0, 0.0, 0.0, 0.0],[-1.0, 0.0, 1.0, 0.0], [9E+9, 9E+9, 9E9, 9E9, 9E9, 9E9]];
    CONST robtarget p_DrawCylinder_362 := [[1133.03, 86.77600000000001, 430.2], [-1.0, 0.0, 0.0, 0.0],[-1.0, 0.0, 1.0, 0.0], [9E+9, 9E+9, 9E9, 9E9, 9E9, 9E9]];
    CONST robtarget p_DrawCylinder_363 := [[1132.663, 87.06, 430.2], [-1.0, 0.0, 0.0, 0.0],[-1.0, 0.0, 1.0, 0.0], [9E+9, 9E+9, 9E9, 9E9, 9E9, 9E9]];
    CONST robtarget p_DrawCylinder_364 := [[1131.721, 87.75999999999999, 430.2], [-1.0, 0.0, 0.0, 0.0],[-1.0, 0.0, 1.0, 0.0], [9E+9, 9E+9, 9E9, 9E9, 9E9, 9E9]];
    CONST robtarget p_DrawCylinder_365 := [[1131.28, 88.05699999999999, 430.2], [-1.0, 0.0, 0.0, 0.0],[-1.0, 0.0, 1.0, 0.0], [9E+9, 9E+9, 9E9, 9E9, 9E9, 9E9]];
    CONST robtarget p_DrawCylinder_366 := [[1130.367, 88.64599999999999, 430.2], [-1.0, 0.0, 0.0, 0.0],[-1.0, 0.0, 1.0, 0.0], [9E+9, 9E+9, 9E9, 9E9, 9E9, 9E9]];
    CONST robtarget p_DrawCylinder_367 := [[1129.868, 88.936, 430.2], [-1.0, 0.0, 0.0, 0.0],[-1.0, 0.0, 1.0, 0.0], [9E+9, 9E+9, 9E9, 9E9, 9E9, 9E9]];
    CONST robtarget p_DrawCylinder_368 := [[1128.9279999999999, 89.458, 430.2], [-1.0, 0.0, 0.0, 0.0],[-1.0, 0.0, 1.0, 0.0], [9E+9, 9E+9, 9E9, 9E9, 9E9, 9E9]];
    CONST robtarget p_DrawCylinder_369 := [[1128.419, 89.708, 430.2], [-1.0, 0.0, 0.0, 0.0],[-1.0, 0.0, 1.0, 0.0], [9E+9, 9E+9, 9E9, 9E9, 9E9, 9E9]];
    CONST robtarget p_DrawCylinder_370 := [[1127.4470000000001, 90.166, 430.2], [-1.0, 0.0, 0.0, 0.0],[-1.0, 0.0, 1.0, 0.0], [9E+9, 9E+9, 9E9, 9E9, 9E9, 9E9]];
    CONST robtarget p_DrawCylinder_371 := [[1126.859, 90.40799999999999, 430.2], [-1.0, 0.0, 0.0, 0.0],[-1.0, 0.0, 1.0, 0.0], [9E+9, 9E+9, 9E9, 9E9, 9E9, 9E9]];
    CONST robtarget p_DrawCylinder_372 := [[1125.946, 90.76599999999999, 430.2], [-1.0, 0.0, 0.0, 0.0],[-1.0, 0.0, 1.0, 0.0], [9E+9, 9E+9, 9E9, 9E9, 9E9, 9E9]];
    CONST robtarget p_DrawCylinder_373 := [[1125.336, 90.97200000000001, 430.2], [-1.0, 0.0, 0.0, 0.0],[-1.0, 0.0, 1.0, 0.0], [9E+9, 9E+9, 9E9, 9E9, 9E9, 9E9]];
    CONST robtarget p_DrawCylinder_374 := [[1124.383, 91.275, 430.2], [-1.0, 0.0, 0.0, 0.0],[-1.0, 0.0, 1.0, 0.0], [9E+9, 9E+9, 9E9, 9E9, 9E9, 9E9]];
    CONST robtarget p_DrawCylinder_375 := [[1123.716, 91.451, 430.2], [-1.0, 0.0, 0.0, 0.0],[-1.0, 0.0, 1.0, 0.0], [9E+9, 9E+9, 9E9, 9E9, 9E9, 9E9]];
    CONST robtarget p_DrawCylinder_376 := [[1122.781, 91.68199999999999, 430.2], [-1.0, 0.0, 0.0, 0.0],[-1.0, 0.0, 1.0, 0.0], [9E+9, 9E+9, 9E9, 9E9, 9E9, 9E9]];
    CONST robtarget p_DrawCylinder_377 := [[1122.091, 91.815, 430.2], [-1.0, 0.0, 0.0, 0.0],[-1.0, 0.0, 1.0, 0.0], [9E+9, 9E+9, 9E9, 9E9, 9E9, 9E9]];
    CONST robtarget p_DrawCylinder_378 := [[1121.195, 91.97300000000001, 430.2], [-1.0, 0.0, 0.0, 0.0],[-1.0, 0.0, 1.0, 0.0], [9E+9, 9E+9, 9E9, 9E9, 9E9, 9E9]];
    CONST robtarget p_DrawCylinder_379 := [[1120.446, 92.06800000000001, 430.2], [-1.0, 0.0, 0.0, 0.0],[-1.0, 0.0, 1.0, 0.0], [9E+9, 9E+9, 9E9, 9E9, 9E9, 9E9]];
    CONST robtarget p_DrawCylinder_380 := [[1119.561, 92.16399999999999, 430.2], [-1.0, 0.0, 0.0, 0.0],[-1.0, 0.0, 1.0, 0.0], [9E+9, 9E+9, 9E9, 9E9, 9E9, 9E9]];
    CONST robtarget p_DrawCylinder_381 := [[1118.773, 92.21100000000001, 430.2], [-1.0, 0.0, 0.0, 0.0],[-1.0, 0.0, 1.0, 0.0], [9E+9, 9E+9, 9E9, 9E9, 9E9, 9E9]];
    CONST robtarget p_DrawCylinder_382 := [[1118.353, 92.22900000000001, 430.2], [-1.0, 0.0, 0.0, 0.0],[-1.0, 0.0, 1.0, 0.0], [9E+9, 9E+9, 9E9, 9E9, 9E9, 9E9]];
    CONST robtarget p_DrawCylinder_383 := [[1117.919, 92.24700000000001, 430.2], [-1.0, 0.0, 0.0, 0.0],[-1.0, 0.0, 1.0, 0.0], [9E+9, 9E+9, 9E9, 9E9, 9E9, 9E9]];
    CONST robtarget p_DrawCylinder_384 := [[1117.101, 91.74700000000001, 430.2], [-1.0, 0.0, 0.0, 0.0],[-1.0, 0.0, 1.0, 0.0], [9E+9, 9E+9, 9E9, 9E9, 9E9, 9E9]];
    CONST robtarget p_DrawCylinder_385 := [[1117.903, 91.739, 430.2], [-1.0, 0.0, 0.0, 0.0],[-1.0, 0.0, 1.0, 0.0], [9E+9, 9E+9, 9E9, 9E9, 9E9, 9E9]];
    CONST robtarget p_DrawCylinder_386 := [[1118.725, 91.71799999999999, 430.2], [-1.0, 0.0, 0.0, 0.0],[-1.0, 0.0, 1.0, 0.0], [9E+9, 9E+9, 9E9, 9E9, 9E9, 9E9]];
    CONST robtarget p_DrawCylinder_387 := [[1119.512, 91.66, 430.2], [-1.0, 0.0, 0.0, 0.0],[-1.0, 0.0, 1.0, 0.0], [9E+9, 9E+9, 9E9, 9E9, 9E9, 9E9]];
    CONST robtarget p_DrawCylinder_388 := [[1120.372, 91.58099999999999, 430.2], [-1.0, 0.0, 0.0, 0.0],[-1.0, 0.0, 1.0, 0.0], [9E+9, 9E+9, 9E9, 9E9, 9E9, 9E9]];
    CONST robtarget p_DrawCylinder_389 := [[1121.977, 91.334, 430.2], [-1.0, 0.0, 0.0, 0.0],[-1.0, 0.0, 1.0, 0.0], [9E+9, 9E+9, 9E9, 9E9, 9E9, 9E9]];
    CONST robtarget p_DrawCylinder_390 := [[1122.665, 91.18799999999999, 430.2], [-1.0, 0.0, 0.0, 0.0],[-1.0, 0.0, 1.0, 0.0], [9E+9, 9E+9, 9E9, 9E9, 9E9, 9E9]];
    CONST robtarget p_DrawCylinder_391 := [[1123.57, 90.97999999999999, 430.2], [-1.0, 0.0, 0.0, 0.0],[-1.0, 0.0, 1.0, 0.0], [9E+9, 9E+9, 9E9, 9E9, 9E9, 9E9]];
    CONST robtarget p_DrawCylinder_392 := [[1124.234, 90.791, 430.2], [-1.0, 0.0, 0.0, 0.0],[-1.0, 0.0, 1.0, 0.0], [9E+9, 9E+9, 9E9, 9E9, 9E9, 9E9]];
    CONST robtarget p_DrawCylinder_393 := [[1125.159, 90.512, 430.2], [-1.0, 0.0, 0.0, 0.0],[-1.0, 0.0, 1.0, 0.0], [9E+9, 9E+9, 9E9, 9E9, 9E9, 9E9]];
    CONST robtarget p_DrawCylinder_394 := [[1125.766, 90.29400000000001, 430.2], [-1.0, 0.0, 0.0, 0.0],[-1.0, 0.0, 1.0, 0.0], [9E+9, 9E+9, 9E9, 9E9, 9E9, 9E9]];
    CONST robtarget p_DrawCylinder_395 := [[1126.683, 89.94800000000001, 430.2], [-1.0, 0.0, 0.0, 0.0],[-1.0, 0.0, 1.0, 0.0], [9E+9, 9E+9, 9E9, 9E9, 9E9, 9E9]];
    CONST robtarget p_DrawCylinder_396 := [[1127.236, 89.707, 430.2], [-1.0, 0.0, 0.0, 0.0],[-1.0, 0.0, 1.0, 0.0], [9E+9, 9E+9, 9E9, 9E9, 9E9, 9E9]];
    CONST robtarget p_DrawCylinder_397 := [[1128.183, 89.275, 430.2], [-1.0, 0.0, 0.0, 0.0],[-1.0, 0.0, 1.0, 0.0], [9E+9, 9E+9, 9E9, 9E9, 9E9, 9E9]];
    CONST robtarget p_DrawCylinder_398 := [[1129.619, 88.50899999999999, 430.2], [-1.0, 0.0, 0.0, 0.0],[-1.0, 0.0, 1.0, 0.0], [9E+9, 9E+9, 9E9, 9E9, 9E9, 9E9]];
    CONST robtarget p_DrawCylinder_399 := [[1130.096, 88.22, 430.2], [-1.0, 0.0, 0.0, 0.0],[-1.0, 0.0, 1.0, 0.0], [9E+9, 9E+9, 9E9, 9E9, 9E9, 9E9]];
    CONST robtarget p_DrawCylinder_400 := [[1131.0140000000001, 87.63999999999999, 430.2], [-1.0, 0.0, 0.0, 0.0],[-1.0, 0.0, 1.0, 0.0], [9E+9, 9E+9, 9E9, 9E9, 9E9, 9E9]];
    CONST robtarget p_DrawCylinder_401 := [[1131.423, 87.35300000000001, 430.2], [-1.0, 0.0, 0.0, 0.0],[-1.0, 0.0, 1.0, 0.0], [9E+9, 9E+9, 9E9, 9E9, 9E9, 9E9]];
    CONST robtarget p_DrawCylinder_402 := [[1132.344, 86.68199999999999, 430.2], [-1.0, 0.0, 0.0, 0.0],[-1.0, 0.0, 1.0, 0.0], [9E+9, 9E+9, 9E9, 9E9, 9E9, 9E9]];
    CONST robtarget p_DrawCylinder_403 := [[1133.614, 85.62899999999999, 430.2], [-1.0, 0.0, 0.0, 0.0],[-1.0, 0.0, 1.0, 0.0], [9E+9, 9E+9, 9E9, 9E9, 9E9, 9E9]];
    CONST robtarget p_DrawCylinder_404 := [[1134.791, 84.511, 430.2], [-1.0, 0.0, 0.0, 0.0],[-1.0, 0.0, 1.0, 0.0], [9E+9, 9E+9, 9E9, 9E9, 9E9, 9E9]];
    CONST robtarget p_DrawCylinder_405 := [[1135.898, 83.30799999999999, 430.2], [-1.0, 0.0, 0.0, 0.0],[-1.0, 0.0, 1.0, 0.0], [9E+9, 9E+9, 9E9, 9E9, 9E9, 9E9]];
    CONST robtarget p_DrawCylinder_406 := [[1136.924, 82.02799999999999, 430.2], [-1.0, 0.0, 0.0, 0.0],[-1.0, 0.0, 1.0, 0.0], [9E+9, 9E+9, 9E9, 9E9, 9E9, 9E9]];
    CONST robtarget p_DrawCylinder_407 := [[1137.866, 80.678, 430.2], [-1.0, 0.0, 0.0, 0.0],[-1.0, 0.0, 1.0, 0.0], [9E+9, 9E+9, 9E9, 9E9, 9E9, 9E9]];
    CONST robtarget p_DrawCylinder_408 := [[1138.7069999999999, 79.27600000000001, 430.2], [-1.0, 0.0, 0.0, 0.0],[-1.0, 0.0, 1.0, 0.0], [9E+9, 9E+9, 9E9, 9E9, 9E9, 9E9]];
    CONST robtarget p_DrawCylinder_409 := [[1139.458, 77.808, 430.2], [-1.0, 0.0, 0.0, 0.0],[-1.0, 0.0, 1.0, 0.0], [9E+9, 9E+9, 9E9, 9E9, 9E9, 9E9]];
    CONST robtarget p_DrawCylinder_410 := [[1140.109, 76.296, 430.2], [-1.0, 0.0, 0.0, 0.0],[-1.0, 0.0, 1.0, 0.0], [9E+9, 9E+9, 9E9, 9E9, 9E9, 9E9]];
    CONST robtarget p_DrawCylinder_411 := [[1140.643, 74.774, 430.2], [-1.0, 0.0, 0.0, 0.0],[-1.0, 0.0, 1.0, 0.0], [9E+9, 9E+9, 9E9, 9E9, 9E9, 9E9]];
    CONST robtarget p_DrawCylinder_412 := [[1141.086, 73.173, 430.2], [-1.0, 0.0, 0.0, 0.0],[-1.0, 0.0, 1.0, 0.0], [9E+9, 9E+9, 9E9, 9E9, 9E9, 9E9]];
    CONST robtarget p_DrawCylinder_413 := [[1141.413, 71.587, 430.2], [-1.0, 0.0, 0.0, 0.0],[-1.0, 0.0, 1.0, 0.0], [9E+9, 9E+9, 9E9, 9E9, 9E9, 9E9]];
    CONST robtarget p_DrawCylinder_414 := [[1141.634, 69.96, 430.2], [-1.0, 0.0, 0.0, 0.0],[-1.0, 0.0, 1.0, 0.0], [9E+9, 9E+9, 9E9, 9E9, 9E9, 9E9]];
    CONST robtarget p_DrawCylinder_415 := [[1141.745, 68.34, 430.2], [-1.0, 0.0, 0.0, 0.0],[-1.0, 0.0, 1.0, 0.0], [9E+9, 9E+9, 9E9, 9E9, 9E9, 9E9]];
    CONST robtarget p_DrawCylinder_416 := [[1141.747, 66.701, 430.2], [-1.0, 0.0, 0.0, 0.0],[-1.0, 0.0, 1.0, 0.0], [9E+9, 9E+9, 9E9, 9E9, 9E9, 9E9]];
    CONST robtarget p_DrawCylinder_417 := [[1141.635, 65.04, 430.2], [-1.0, 0.0, 0.0, 0.0],[-1.0, 0.0, 1.0, 0.0], [9E+9, 9E+9, 9E9, 9E9, 9E9, 9E9]];
    CONST robtarget p_DrawCylinder_418 := [[1141.416, 63.43000000000001, 430.2], [-1.0, 0.0, 0.0, 0.0],[-1.0, 0.0, 1.0, 0.0], [9E+9, 9E+9, 9E9, 9E9, 9E9, 9E9]];
    CONST robtarget p_DrawCylinder_419 := [[1141.086, 61.827, 430.2], [-1.0, 0.0, 0.0, 0.0],[-1.0, 0.0, 1.0, 0.0], [9E+9, 9E+9, 9E9, 9E9, 9E9, 9E9]];
    CONST robtarget p_DrawCylinder_420 := [[1140.647, 60.238, 430.2], [-1.0, 0.0, 0.0, 0.0],[-1.0, 0.0, 1.0, 0.0], [9E+9, 9E+9, 9E9, 9E9, 9E9, 9E9]];
    CONST robtarget p_DrawCylinder_421 := [[1140.109, 58.70399999999999, 430.2], [-1.0, 0.0, 0.0, 0.0],[-1.0, 0.0, 1.0, 0.0], [9E+9, 9E+9, 9E9, 9E9, 9E9, 9E9]];
    CONST robtarget p_DrawCylinder_422 := [[1139.465, 57.206999999999994, 430.2], [-1.0, 0.0, 0.0, 0.0],[-1.0, 0.0, 1.0, 0.0], [9E+9, 9E+9, 9E9, 9E9, 9E9, 9E9]];
    CONST robtarget p_DrawCylinder_423 := [[1138.716, 55.739000000000004, 430.2], [-1.0, 0.0, 0.0, 0.0],[-1.0, 0.0, 1.0, 0.0], [9E+9, 9E+9, 9E9, 9E9, 9E9, 9E9]];
    CONST robtarget p_DrawCylinder_424 := [[1137.876, 54.337, 430.2], [-1.0, 0.0, 0.0, 0.0],[-1.0, 0.0, 1.0, 0.0], [9E+9, 9E+9, 9E9, 9E9, 9E9, 9E9]];
    CONST robtarget p_DrawCylinder_425 := [[1136.934, 52.985, 430.2], [-1.0, 0.0, 0.0, 0.0],[-1.0, 0.0, 1.0, 0.0], [9E+9, 9E+9, 9E9, 9E9, 9E9, 9E9]];
    CONST robtarget p_DrawCylinder_426 := [[1135.909, 51.705, 430.2], [-1.0, 0.0, 0.0, 0.0],[-1.0, 0.0, 1.0, 0.0], [9E+9, 9E+9, 9E9, 9E9, 9E9, 9E9]];
    CONST robtarget p_DrawCylinder_427 := [[1134.8029999999999, 50.501000000000005, 430.2], [-1.0, 0.0, 0.0, 0.0],[-1.0, 0.0, 1.0, 0.0], [9E+9, 9E+9, 9E9, 9E9, 9E9, 9E9]];
    CONST robtarget p_DrawCylinder_428 := [[1133.627, 49.382000000000005, 430.2], [-1.0, 0.0, 0.0, 0.0],[-1.0, 0.0, 1.0, 0.0], [9E+9, 9E+9, 9E9, 9E9, 9E9, 9E9]];
    CONST robtarget p_DrawCylinder_429 := [[1132.357, 48.328, 430.2], [-1.0, 0.0, 0.0, 0.0],[-1.0, 0.0, 1.0, 0.0], [9E+9, 9E+9, 9E9, 9E9, 9E9, 9E9]];
    CONST robtarget p_DrawCylinder_430 := [[1131.028, 47.369, 430.2], [-1.0, 0.0, 0.0, 0.0],[-1.0, 0.0, 1.0, 0.0], [9E+9, 9E+9, 9E9, 9E9, 9E9, 9E9]];
    CONST robtarget p_DrawCylinder_431 := [[1129.625, 46.492999999999995, 430.2], [-1.0, 0.0, 0.0, 0.0],[-1.0, 0.0, 1.0, 0.0], [9E+9, 9E+9, 9E9, 9E9, 9E9, 9E9]];
    CONST robtarget p_DrawCylinder_432 := [[1128.68, 45.983000000000004, 430.2], [-1.0, 0.0, 0.0, 0.0],[-1.0, 0.0, 1.0, 0.0], [9E+9, 9E+9, 9E9, 9E9, 9E9, 9E9]];
    CONST robtarget p_DrawCylinder_433 := [[1128.1970000000001, 45.733000000000004, 430.2], [-1.0, 0.0, 0.0, 0.0],[-1.0, 0.0, 1.0, 0.0], [9E+9, 9E+9, 9E9, 9E9, 9E9, 9E9]];
    CONST robtarget p_DrawCylinder_434 := [[1127.235, 45.292, 430.2], [-1.0, 0.0, 0.0, 0.0],[-1.0, 0.0, 1.0, 0.0], [9E+9, 9E+9, 9E9, 9E9, 9E9, 9E9]];
    CONST robtarget p_DrawCylinder_435 := [[1126.689, 45.053, 430.2], [-1.0, 0.0, 0.0, 0.0],[-1.0, 0.0, 1.0, 0.0], [9E+9, 9E+9, 9E9, 9E9, 9E9, 9E9]];
    CONST robtarget p_DrawCylinder_436 := [[1125.166, 44.489999999999995, 430.2], [-1.0, 0.0, 0.0, 0.0],[-1.0, 0.0, 1.0, 0.0], [9E+9, 9E+9, 9E9, 9E9, 9E9, 9E9]];
    CONST robtarget p_DrawCylinder_437 := [[1124.233, 44.208, 430.2], [-1.0, 0.0, 0.0, 0.0],[-1.0, 0.0, 1.0, 0.0], [9E+9, 9E+9, 9E9, 9E9, 9E9, 9E9]];
    CONST robtarget p_DrawCylinder_438 := [[1123.586, 44.024, 430.2], [-1.0, 0.0, 0.0, 0.0],[-1.0, 0.0, 1.0, 0.0], [9E+9, 9E+9, 9E9, 9E9, 9E9, 9E9]];
    CONST robtarget p_DrawCylinder_439 := [[1122.665, 43.81100000000001, 430.2], [-1.0, 0.0, 0.0, 0.0],[-1.0, 0.0, 1.0, 0.0], [9E+9, 9E+9, 9E9, 9E9, 9E9, 9E9]];
    CONST robtarget p_DrawCylinder_440 := [[1121.993, 43.669, 430.2], [-1.0, 0.0, 0.0, 0.0],[-1.0, 0.0, 1.0, 0.0], [9E+9, 9E+9, 9E9, 9E9, 9E9, 9E9]];
    CONST robtarget p_DrawCylinder_441 := [[1121.111, 43.525999999999996, 430.2], [-1.0, 0.0, 0.0, 0.0],[-1.0, 0.0, 1.0, 0.0], [9E+9, 9E+9, 9E9, 9E9, 9E9, 9E9]];
    CONST robtarget p_DrawCylinder_442 := [[1120.372, 43.419, 430.2], [-1.0, 0.0, 0.0, 0.0],[-1.0, 0.0, 1.0, 0.0], [9E+9, 9E+9, 9E9, 9E9, 9E9, 9E9]];
    CONST robtarget p_DrawCylinder_443 := [[1119.512, 43.34, 430.2], [-1.0, 0.0, 0.0, 0.0],[-1.0, 0.0, 1.0, 0.0], [9E+9, 9E+9, 9E9, 9E9, 9E9, 9E9]];
    CONST robtarget p_DrawCylinder_444 := [[1118.733, 43.281000000000006, 430.2], [-1.0, 0.0, 0.0, 0.0],[-1.0, 0.0, 1.0, 0.0], [9E+9, 9E+9, 9E9, 9E9, 9E9, 9E9]];
    CONST robtarget p_DrawCylinder_445 := [[1117.903, 43.260000000000005, 430.2], [-1.0, 0.0, 0.0, 0.0],[-1.0, 0.0, 1.0, 0.0], [9E+9, 9E+9, 9E9, 9E9, 9E9, 9E9]];
    CONST robtarget p_DrawCylinder_446 := [[1117.101, 43.253, 430.2], [-1.0, 0.0, 0.0, 0.0],[-1.0, 0.0, 1.0, 0.0], [9E+9, 9E+9, 9E9, 9E9, 9E9, 9E9]];
    CONST robtarget p_DrawCylinder_447 := [[1116.294, 43.287000000000006, 430.2], [-1.0, 0.0, 0.0, 0.0],[-1.0, 0.0, 1.0, 0.0], [9E+9, 9E+9, 9E9, 9E9, 9E9, 9E9]];
    CONST robtarget p_DrawCylinder_448 := [[1115.467, 43.336, 430.2], [-1.0, 0.0, 0.0, 0.0],[-1.0, 0.0, 1.0, 0.0], [9E+9, 9E+9, 9E9, 9E9, 9E9, 9E9]];
    CONST robtarget p_DrawCylinder_449 := [[1114.712, 43.419, 430.2], [-1.0, 0.0, 0.0, 0.0],[-1.0, 0.0, 1.0, 0.0], [9E+9, 9E+9, 9E9, 9E9, 9E9, 9E9]];
    CONST robtarget p_DrawCylinder_450 := [[1113.833, 43.53, 430.2], [-1.0, 0.0, 0.0, 0.0],[-1.0, 0.0, 1.0, 0.0], [9E+9, 9E+9, 9E9, 9E9, 9E9, 9E9]];
    CONST robtarget p_DrawCylinder_451 := [[1113.122, 43.656000000000006, 430.2], [-1.0, 0.0, 0.0, 0.0],[-1.0, 0.0, 1.0, 0.0], [9E+9, 9E+9, 9E9, 9E9, 9E9, 9E9]];
    CONST robtarget p_DrawCylinder_452 := [[1112.232, 43.83, 430.2], [-1.0, 0.0, 0.0, 0.0],[-1.0, 0.0, 1.0, 0.0], [9E+9, 9E+9, 9E9, 9E9, 9E9, 9E9]];
    CONST robtarget p_DrawCylinder_453 := [[1110.642, 44.241, 430.2], [-1.0, 0.0, 0.0, 0.0],[-1.0, 0.0, 1.0, 0.0], [9E+9, 9E+9, 9E9, 9E9, 9E9, 9E9]];
    CONST robtarget p_DrawCylinder_454 := [[1109.09, 44.756, 430.2], [-1.0, 0.0, 0.0, 0.0],[-1.0, 0.0, 1.0, 0.0], [9E+9, 9E+9, 9E9, 9E9, 9E9, 9E9]];
    CONST robtarget p_DrawCylinder_455 := [[1107.575, 45.375, 430.2], [-1.0, 0.0, 0.0, 0.0],[-1.0, 0.0, 1.0, 0.0], [9E+9, 9E+9, 9E9, 9E9, 9E9, 9E9]];
    CONST robtarget p_DrawCylinder_456 := [[1106.108, 46.093, 430.2], [-1.0, 0.0, 0.0, 0.0],[-1.0, 0.0, 1.0, 0.0], [9E+9, 9E+9, 9E9, 9E9, 9E9, 9E9]];
    CONST robtarget p_DrawCylinder_457 := [[1104.68, 46.919, 430.2], [-1.0, 0.0, 0.0, 0.0],[-1.0, 0.0, 1.0, 0.0], [9E+9, 9E+9, 9E9, 9E9, 9E9, 9E9]];
    CONST robtarget p_DrawCylinder_458 := [[1103.325, 47.828, 430.2], [-1.0, 0.0, 0.0, 0.0],[-1.0, 0.0, 1.0, 0.0], [9E+9, 9E+9, 9E9, 9E9, 9E9, 9E9]];
    CONST robtarget p_DrawCylinder_459 := [[1102.931, 48.125, 430.2], [-1.0, 0.0, 0.0, 0.0],[-1.0, 0.0, 1.0, 0.0], [9E+9, 9E+9, 9E9, 9E9, 9E9, 9E9]];
    CONST robtarget p_DrawCylinder_460 := [[1102.032, 48.83, 430.2], [-1.0, 0.0, 0.0, 0.0],[-1.0, 0.0, 1.0, 0.0], [9E+9, 9E+9, 9E9, 9E9, 9E9, 9E9]];
    CONST robtarget p_DrawCylinder_461 := [[1100.783, 49.93600000000001, 430.2], [-1.0, 0.0, 0.0, 0.0],[-1.0, 0.0, 1.0, 0.0], [9E+9, 9E+9, 9E9, 9E9, 9E9, 9E9]];
    CONST robtarget p_DrawCylinder_462 := [[1099.657, 51.081999999999994, 430.2], [-1.0, 0.0, 0.0, 0.0],[-1.0, 0.0, 1.0, 0.0], [9E+9, 9E+9, 9E9, 9E9, 9E9, 9E9]];
    CONST robtarget p_DrawCylinder_463 := [[1098.584, 52.331999999999994, 430.2], [-1.0, 0.0, 0.0, 0.0],[-1.0, 0.0, 1.0, 0.0], [9E+9, 9E+9, 9E9, 9E9, 9E9, 9E9]];
    CONST robtarget p_DrawCylinder_464 := [[1097.613, 53.631, 430.2], [-1.0, 0.0, 0.0, 0.0],[-1.0, 0.0, 1.0, 0.0], [9E+9, 9E+9, 9E9, 9E9, 9E9, 9E9]];
    CONST robtarget p_DrawCylinder_465 := [[1096.722, 55.004000000000005, 430.2], [-1.0, 0.0, 0.0, 0.0],[-1.0, 0.0, 1.0, 0.0], [9E+9, 9E+9, 9E9, 9E9, 9E9, 9E9]];
    CONST robtarget p_DrawCylinder_466 := [[1095.92, 56.449, 430.2], [-1.0, 0.0, 0.0, 0.0],[-1.0, 0.0, 1.0, 0.0], [9E+9, 9E+9, 9E9, 9E9, 9E9, 9E9]];
    CONST robtarget p_DrawCylinder_467 := [[1095.219, 57.938, 430.2], [-1.0, 0.0, 0.0, 0.0],[-1.0, 0.0, 1.0, 0.0], [9E+9, 9E+9, 9E9, 9E9, 9E9, 9E9]];
    CONST robtarget p_DrawCylinder_468 := [[1094.631, 59.443, 430.2], [-1.0, 0.0, 0.0, 0.0],[-1.0, 0.0, 1.0, 0.0], [9E+9, 9E+9, 9E9, 9E9, 9E9, 9E9]];
    CONST robtarget p_DrawCylinder_469 := [[1094.137, 61.018, 430.2], [-1.0, 0.0, 0.0, 0.0],[-1.0, 0.0, 1.0, 0.0], [9E+9, 9E+9, 9E9, 9E9, 9E9, 9E9]];
    CONST robtarget p_DrawCylinder_470 := [[1093.75, 62.620000000000005, 430.2], [-1.0, 0.0, 0.0, 0.0],[-1.0, 0.0, 1.0, 0.0], [9E+9, 9E+9, 9E9, 9E9, 9E9, 9E9]];
    CONST robtarget p_DrawCylinder_471 := [[1093.475, 64.226, 430.2], [-1.0, 0.0, 0.0, 0.0],[-1.0, 0.0, 1.0, 0.0], [9E+9, 9E+9, 9E9, 9E9, 9E9, 9E9]];
    CONST robtarget p_DrawCylinder_472 := [[1093.31, 65.843, 430.2], [-1.0, 0.0, 0.0, 0.0],[-1.0, 0.0, 1.0, 0.0], [9E+9, 9E+9, 9E9, 9E9, 9E9, 9E9]];
    CONST robtarget p_DrawCylinder_473 := [[1093.254, 67.491, 430.2], [-1.0, 0.0, 0.0, 0.0],[-1.0, 0.0, 1.0, 0.0], [9E+9, 9E+9, 9E9, 9E9, 9E9, 9E9]];
    CONST robtarget p_DrawCylinder_474 := [[1093.308, 69.121, 430.2], [-1.0, 0.0, 0.0, 0.0],[-1.0, 0.0, 1.0, 0.0], [9E+9, 9E+9, 9E9, 9E9, 9E9, 9E9]];
    CONST robtarget p_DrawCylinder_475 := [[1093.473, 70.757, 430.2], [-1.0, 0.0, 0.0, 0.0],[-1.0, 0.0, 1.0, 0.0], [9E+9, 9E+9, 9E9, 9E9, 9E9, 9E9]];
    CONST robtarget p_DrawCylinder_476 := [[1093.746, 72.363, 430.2], [-1.0, 0.0, 0.0, 0.0],[-1.0, 0.0, 1.0, 0.0], [9E+9, 9E+9, 9E9, 9E9, 9E9, 9E9]];
    CONST robtarget p_DrawCylinder_477 := [[1094.133, 73.966, 430.2], [-1.0, 0.0, 0.0, 0.0],[-1.0, 0.0, 1.0, 0.0], [9E+9, 9E+9, 9E9, 9E9, 9E9, 9E9]];
    CONST robtarget p_DrawCylinder_478 := [[1094.624, 75.538, 430.2], [-1.0, 0.0, 0.0, 0.0],[-1.0, 0.0, 1.0, 0.0], [9E+9, 9E+9, 9E9, 9E9, 9E9, 9E9]];
    CONST robtarget p_DrawCylinder_479 := [[1095.212, 77.047, 430.2], [-1.0, 0.0, 0.0, 0.0],[-1.0, 0.0, 1.0, 0.0], [9E+9, 9E+9, 9E9, 9E9, 9E9, 9E9]];
    CONST robtarget p_DrawCylinder_480 := [[1095.912, 78.536, 430.2], [-1.0, 0.0, 0.0, 0.0],[-1.0, 0.0, 1.0, 0.0], [9E+9, 9E+9, 9E9, 9E9, 9E9, 9E9]];
    CONST robtarget p_DrawCylinder_481 := [[1096.711, 79.97800000000001, 430.2], [-1.0, 0.0, 0.0, 0.0],[-1.0, 0.0, 1.0, 0.0], [9E+9, 9E+9, 9E9, 9E9, 9E9, 9E9]];
    CONST robtarget p_DrawCylinder_482 := [[1097.601, 81.352, 430.2], [-1.0, 0.0, 0.0, 0.0],[-1.0, 0.0, 1.0, 0.0], [9E+9, 9E+9, 9E9, 9E9, 9E9, 9E9]];
    CONST robtarget p_DrawCylinder_483 := [[1098.573, 82.655, 430.2], [-1.0, 0.0, 0.0, 0.0],[-1.0, 0.0, 1.0, 0.0], [9E+9, 9E+9, 9E9, 9E9, 9E9, 9E9]];
    CONST robtarget p_DrawCylinder_484 := [[1099.657, 83.918, 430.2], [-1.0, 0.0, 0.0, 0.0],[-1.0, 0.0, 1.0, 0.0], [9E+9, 9E+9, 9E9, 9E9, 9E9, 9E9]];
    CONST robtarget p_DrawCylinder_485 := [[1100.783, 85.064, 430.2], [-1.0, 0.0, 0.0, 0.0],[-1.0, 0.0, 1.0, 0.0], [9E+9, 9E+9, 9E9, 9E9, 9E9, 9E9]];
    CONST robtarget p_DrawCylinder_486 := [[1102.02, 86.16, 430.2], [-1.0, 0.0, 0.0, 0.0],[-1.0, 0.0, 1.0, 0.0], [9E+9, 9E+9, 9E9, 9E9, 9E9, 9E9]];
    CONST robtarget p_DrawCylinder_487 := [[1103.32, 87.16999999999999, 430.2], [-1.0, 0.0, 0.0, 0.0],[-1.0, 0.0, 1.0, 0.0], [9E+9, 9E+9, 9E9, 9E9, 9E9, 9E9]];
    CONST robtarget p_DrawCylinder_488 := [[1104.671, 88.07499999999999, 430.2], [-1.0, 0.0, 0.0, 0.0],[-1.0, 0.0, 1.0, 0.0], [9E+9, 9E+9, 9E9, 9E9, 9E9, 9E9]];
    CONST robtarget p_DrawCylinder_489 := [[1105.63, 88.637, 430.2], [-1.0, 0.0, 0.0, 0.0],[-1.0, 0.0, 1.0, 0.0], [9E+9, 9E+9, 9E9, 9E9, 9E9, 9E9]];
    CONST robtarget p_DrawCylinder_490 := [[1106.097, 88.9, 430.2], [-1.0, 0.0, 0.0, 0.0],[-1.0, 0.0, 1.0, 0.0], [9E+9, 9E+9, 9E9, 9E9, 9E9, 9E9]];
    CONST robtarget p_DrawCylinder_491 := [[1107.569, 89.62299999999999, 430.2], [-1.0, 0.0, 0.0, 0.0],[-1.0, 0.0, 1.0, 0.0], [9E+9, 9E+9, 9E9, 9E9, 9E9, 9E9]];
    CONST robtarget p_DrawCylinder_492 := [[1109.074, 90.238, 430.2], [-1.0, 0.0, 0.0, 0.0],[-1.0, 0.0, 1.0, 0.0], [9E+9, 9E+9, 9E9, 9E9, 9E9, 9E9]];
    CONST robtarget p_DrawCylinder_493 := [[1110.006, 90.554, 430.2], [-1.0, 0.0, 0.0, 0.0],[-1.0, 0.0, 1.0, 0.0], [9E+9, 9E+9, 9E9, 9E9, 9E9, 9E9]];
    CONST robtarget p_DrawCylinder_494 := [[1110.633, 90.755, 430.2], [-1.0, 0.0, 0.0, 0.0],[-1.0, 0.0, 1.0, 0.0], [9E+9, 9E+9, 9E9, 9E9, 9E9, 9E9]];
    CONST robtarget p_DrawCylinder_495 := [[1111.568, 91.005, 430.2], [-1.0, 0.0, 0.0, 0.0],[-1.0, 0.0, 1.0, 0.0], [9E+9, 9E+9, 9E9, 9E9, 9E9, 9E9]];
    CONST robtarget p_DrawCylinder_496 := [[1112.225, 91.16900000000001, 430.2], [-1.0, 0.0, 0.0, 0.0],[-1.0, 0.0, 1.0, 0.0], [9E+9, 9E+9, 9E9, 9E9, 9E9, 9E9]];
    CONST robtarget p_DrawCylinder_497 := [[1113.123, 91.344, 430.2], [-1.0, 0.0, 0.0, 0.0],[-1.0, 0.0, 1.0, 0.0], [9E+9, 9E+9, 9E9, 9E9, 9E9, 9E9]];
    CONST robtarget p_DrawCylinder_498 := [[1113.817, 91.46700000000001, 430.2], [-1.0, 0.0, 0.0, 0.0],[-1.0, 0.0, 1.0, 0.0], [9E+9, 9E+9, 9E9, 9E9, 9E9, 9E9]];
    CONST robtarget p_DrawCylinder_499 := [[1114.712, 91.582, 430.2], [-1.0, 0.0, 0.0, 0.0],[-1.0, 0.0, 1.0, 0.0], [9E+9, 9E+9, 9E9, 9E9, 9E9, 9E9]];
    CONST robtarget p_DrawCylinder_500 := [[1115.459, 91.66499999999999, 430.2], [-1.0, 0.0, 0.0, 0.0],[-1.0, 0.0, 1.0, 0.0], [9E+9, 9E+9, 9E9, 9E9, 9E9, 9E9]];
    CONST robtarget p_DrawCylinder_501 := [[1116.295, 91.713, 430.2], [-1.0, 0.0, 0.0, 0.0],[-1.0, 0.0, 1.0, 0.0], [9E+9, 9E+9, 9E9, 9E9, 9E9, 9E9]];
    CONST robtarget p_DrawCylinder_502 := [[1117.101, 91.74700000000001, 430.2], [-1.0, 0.0, 0.0, 0.0],[-1.0, 0.0, 1.0, 0.0], [9E+9, 9E+9, 9E9, 9E9, 9E9, 9E9]];
    CONST robtarget p_DrawCylinder_503 := [[1117.101, 91.74700000000001, 430.4], [-1.0, 0.0, 0.0, 0.0],[-1.0, 0.0, 1.0, 0.0], [9E+9, 9E+9, 9E9, 9E9, 9E9, 9E9]];
    CONST robtarget p_DrawCylinder_504 := [[1117.919, 92.24700000000001, 430.4], [-1.0, 0.0, 0.0, 0.0],[-1.0, 0.0, 1.0, 0.0], [9E+9, 9E+9, 9E9, 9E9, 9E9, 9E9]];
    CONST robtarget p_DrawCylinder_505 := [[1117.111, 92.24000000000001, 430.4], [-1.0, 0.0, 0.0, 0.0],[-1.0, 0.0, 1.0, 0.0], [9E+9, 9E+9, 9E9, 9E9, 9E9, 9E9]];
    CONST robtarget p_DrawCylinder_506 := [[1116.27, 92.22, 430.4], [-1.0, 0.0, 0.0, 0.0],[-1.0, 0.0, 1.0, 0.0], [9E+9, 9E+9, 9E9, 9E9, 9E9, 9E9]];
    CONST robtarget p_DrawCylinder_507 := [[1115.435, 92.15700000000001, 430.4], [-1.0, 0.0, 0.0, 0.0],[-1.0, 0.0, 1.0, 0.0], [9E+9, 9E+9, 9E9, 9E9, 9E9, 9E9]];
    CONST robtarget p_DrawCylinder_508 := [[1114.661, 92.08600000000001, 430.4], [-1.0, 0.0, 0.0, 0.0],[-1.0, 0.0, 1.0, 0.0], [9E+9, 9E+9, 9E9, 9E9, 9E9, 9E9]];
    CONST robtarget p_DrawCylinder_509 := [[1113.767, 91.959, 430.4], [-1.0, 0.0, 0.0, 0.0],[-1.0, 0.0, 1.0, 0.0], [9E+9, 9E+9, 9E9, 9E9, 9E9, 9E9]];
    CONST robtarget p_DrawCylinder_510 := [[1113.038, 91.84299999999999, 430.4], [-1.0, 0.0, 0.0, 0.0],[-1.0, 0.0, 1.0, 0.0], [9E+9, 9E+9, 9E9, 9E9, 9E9, 9E9]];
    CONST robtarget p_DrawCylinder_511 := [[1112.134, 91.65199999999999, 430.4], [-1.0, 0.0, 0.0, 0.0],[-1.0, 0.0, 1.0, 0.0], [9E+9, 9E+9, 9E9, 9E9, 9E9, 9E9]];
    CONST robtarget p_DrawCylinder_512 := [[1111.449, 91.49600000000001, 430.4], [-1.0, 0.0, 0.0, 0.0],[-1.0, 0.0, 1.0, 0.0], [9E+9, 9E+9, 9E9, 9E9, 9E9, 9E9]];
    CONST robtarget p_DrawCylinder_513 := [[1110.506, 91.232, 430.4], [-1.0, 0.0, 0.0, 0.0],[-1.0, 0.0, 1.0, 0.0], [9E+9, 9E+9, 9E9, 9E9, 9E9, 9E9]];
    CONST robtarget p_DrawCylinder_514 := [[1109.856, 91.037, 430.4], [-1.0, 0.0, 0.0, 0.0],[-1.0, 0.0, 1.0, 0.0], [9E+9, 9E+9, 9E9, 9E9, 9E9, 9E9]];
    CONST robtarget p_DrawCylinder_515 := [[1108.915, 90.70599999999999, 430.4], [-1.0, 0.0, 0.0, 0.0],[-1.0, 0.0, 1.0, 0.0], [9E+9, 9E+9, 9E9, 9E9, 9E9, 9E9]];
    CONST robtarget p_DrawCylinder_516 := [[1108.327, 90.48500000000001, 430.4], [-1.0, 0.0, 0.0, 0.0],[-1.0, 0.0, 1.0, 0.0], [9E+9, 9E+9, 9E9, 9E9, 9E9, 9E9]];
    CONST robtarget p_DrawCylinder_517 := [[1107.383, 90.078, 430.4], [-1.0, 0.0, 0.0, 0.0],[-1.0, 0.0, 1.0, 0.0], [9E+9, 9E+9, 9E9, 9E9, 9E9, 9E9]];
    CONST robtarget p_DrawCylinder_518 := [[1106.818, 89.82300000000001, 430.4], [-1.0, 0.0, 0.0, 0.0],[-1.0, 0.0, 1.0, 0.0], [9E+9, 9E+9, 9E9, 9E9, 9E9, 9E9]];
    CONST robtarget p_DrawCylinder_519 := [[1105.89, 89.34800000000001, 430.4], [-1.0, 0.0, 0.0, 0.0],[-1.0, 0.0, 1.0, 0.0], [9E+9, 9E+9, 9E9, 9E9, 9E9, 9E9]];
    CONST robtarget p_DrawCylinder_520 := [[1105.386, 89.07900000000001, 430.4], [-1.0, 0.0, 0.0, 0.0],[-1.0, 0.0, 1.0, 0.0], [9E+9, 9E+9, 9E9, 9E9, 9E9, 9E9]];
    CONST robtarget p_DrawCylinder_521 := [[1103.967, 88.21799999999999, 430.4], [-1.0, 0.0, 0.0, 0.0],[-1.0, 0.0, 1.0, 0.0], [9E+9, 9E+9, 9E9, 9E9, 9E9, 9E9]];
    CONST robtarget p_DrawCylinder_522 := [[1102.625, 87.27699999999999, 430.4], [-1.0, 0.0, 0.0, 0.0],[-1.0, 0.0, 1.0, 0.0], [9E+9, 9E+9, 9E9, 9E9, 9E9, 9E9]];
    CONST robtarget p_DrawCylinder_523 := [[1101.353, 86.251, 430.4], [-1.0, 0.0, 0.0, 0.0],[-1.0, 0.0, 1.0, 0.0], [9E+9, 9E+9, 9E9, 9E9, 9E9, 9E9]];
    CONST robtarget p_DrawCylinder_524 := [[1100.157, 85.15100000000001, 430.4], [-1.0, 0.0, 0.0, 0.0],[-1.0, 0.0, 1.0, 0.0], [9E+9, 9E+9, 9E9, 9E9, 9E9, 9E9]];
    CONST robtarget p_DrawCylinder_525 := [[1099.028, 83.96600000000001, 430.4], [-1.0, 0.0, 0.0, 0.0],[-1.0, 0.0, 1.0, 0.0], [9E+9, 9E+9, 9E9, 9E9, 9E9, 9E9]];
    CONST robtarget p_DrawCylinder_526 := [[1097.973, 82.69999999999999, 430.4], [-1.0, 0.0, 0.0, 0.0],[-1.0, 0.0, 1.0, 0.0], [9E+9, 9E+9, 9E9, 9E9, 9E9, 9E9]];
    CONST robtarget p_DrawCylinder_527 := [[1097.018, 81.38399999999999, 430.4], [-1.0, 0.0, 0.0, 0.0],[-1.0, 0.0, 1.0, 0.0], [9E+9, 9E+9, 9E9, 9E9, 9E9, 9E9]];
    CONST robtarget p_DrawCylinder_528 := [[1096.139, 79.99199999999999, 430.4], [-1.0, 0.0, 0.0, 0.0],[-1.0, 0.0, 1.0, 0.0], [9E+9, 9E+9, 9E9, 9E9, 9E9, 9E9]];
    CONST robtarget p_DrawCylinder_529 := [[1095.37, 78.57, 430.4], [-1.0, 0.0, 0.0, 0.0],[-1.0, 0.0, 1.0, 0.0], [9E+9, 9E+9, 9E9, 9E9, 9E9, 9E9]];
    CONST robtarget p_DrawCylinder_530 := [[1094.676, 77.063, 430.4], [-1.0, 0.0, 0.0, 0.0],[-1.0, 0.0, 1.0, 0.0], [9E+9, 9E+9, 9E9, 9E9, 9E9, 9E9]];
    CONST robtarget p_DrawCylinder_531 := [[1094.1, 75.55, 430.4], [-1.0, 0.0, 0.0, 0.0],[-1.0, 0.0, 1.0, 0.0], [9E+9, 9E+9, 9E9, 9E9, 9E9, 9E9]];
    CONST robtarget p_DrawCylinder_532 := [[1093.621, 73.988, 430.4], [-1.0, 0.0, 0.0, 0.0],[-1.0, 0.0, 1.0, 0.0], [9E+9, 9E+9, 9E9, 9E9, 9E9, 9E9]];
    CONST robtarget p_DrawCylinder_533 := [[1093.239, 72.376, 430.4], [-1.0, 0.0, 0.0, 0.0],[-1.0, 0.0, 1.0, 0.0], [9E+9, 9E+9, 9E9, 9E9, 9E9, 9E9]];
    CONST robtarget p_DrawCylinder_534 := [[1092.97, 70.762, 430.4], [-1.0, 0.0, 0.0, 0.0],[-1.0, 0.0, 1.0, 0.0], [9E+9, 9E+9, 9E9, 9E9, 9E9, 9E9]];
    CONST robtarget p_DrawCylinder_535 := [[1092.809, 69.153, 430.4], [-1.0, 0.0, 0.0, 0.0],[-1.0, 0.0, 1.0, 0.0], [9E+9, 9E+9, 9E9, 9E9, 9E9, 9E9]];
    CONST robtarget p_DrawCylinder_536 := [[1092.754, 67.525, 430.4], [-1.0, 0.0, 0.0, 0.0],[-1.0, 0.0, 1.0, 0.0], [9E+9, 9E+9, 9E9, 9E9, 9E9, 9E9]];
    CONST robtarget p_DrawCylinder_537 := [[1092.808, 65.862, 430.4], [-1.0, 0.0, 0.0, 0.0],[-1.0, 0.0, 1.0, 0.0], [9E+9, 9E+9, 9E9, 9E9, 9E9, 9E9]];
    CONST robtarget p_DrawCylinder_538 := [[1092.969, 64.245, 430.4], [-1.0, 0.0, 0.0, 0.0],[-1.0, 0.0, 1.0, 0.0], [9E+9, 9E+9, 9E9, 9E9, 9E9, 9E9]];
    CONST robtarget p_DrawCylinder_539 := [[1093.237, 62.64, 430.4], [-1.0, 0.0, 0.0, 0.0],[-1.0, 0.0, 1.0, 0.0], [9E+9, 9E+9, 9E9, 9E9, 9E9, 9E9]];
    CONST robtarget p_DrawCylinder_540 := [[1093.617, 61.025000000000006, 430.4], [-1.0, 0.0, 0.0, 0.0],[-1.0, 0.0, 1.0, 0.0], [9E+9, 9E+9, 9E9, 9E9, 9E9, 9E9]];
    CONST robtarget p_DrawCylinder_541 := [[1094.098, 59.459, 430.4], [-1.0, 0.0, 0.0, 0.0],[-1.0, 0.0, 1.0, 0.0], [9E+9, 9E+9, 9E9, 9E9, 9E9, 9E9]];
    CONST robtarget p_DrawCylinder_542 := [[1094.67, 57.95099999999999, 430.4], [-1.0, 0.0, 0.0, 0.0],[-1.0, 0.0, 1.0, 0.0], [9E+9, 9E+9, 9E9, 9E9, 9E9, 9E9]];
    CONST robtarget p_DrawCylinder_543 := [[1095.363, 56.444, 430.4], [-1.0, 0.0, 0.0, 0.0],[-1.0, 0.0, 1.0, 0.0], [9E+9, 9E+9, 9E9, 9E9, 9E9, 9E9]];
    CONST robtarget p_DrawCylinder_544 := [[1096.131, 55.022000000000006, 430.4], [-1.0, 0.0, 0.0, 0.0],[-1.0, 0.0, 1.0, 0.0], [9E+9, 9E+9, 9E9, 9E9, 9E9, 9E9]];
    CONST robtarget p_DrawCylinder_545 := [[1097.01, 53.628, 430.4], [-1.0, 0.0, 0.0, 0.0],[-1.0, 0.0, 1.0, 0.0], [9E+9, 9E+9, 9E9, 9E9, 9E9, 9E9]];
    CONST robtarget p_DrawCylinder_546 := [[1097.964, 52.313, 430.4], [-1.0, 0.0, 0.0, 0.0],[-1.0, 0.0, 1.0, 0.0], [9E+9, 9E+9, 9E9, 9E9, 9E9, 9E9]];
    CONST robtarget p_DrawCylinder_547 := [[1099.018, 51.04600000000001, 430.4], [-1.0, 0.0, 0.0, 0.0],[-1.0, 0.0, 1.0, 0.0], [9E+9, 9E+9, 9E9, 9E9, 9E9, 9E9]];
    CONST robtarget p_DrawCylinder_548 := [[1100.146, 49.86, 430.4], [-1.0, 0.0, 0.0, 0.0],[-1.0, 0.0, 1.0, 0.0], [9E+9, 9E+9, 9E9, 9E9, 9E9, 9E9]];
    CONST robtarget p_DrawCylinder_549 := [[1101.342, 48.759, 430.4], [-1.0, 0.0, 0.0, 0.0],[-1.0, 0.0, 1.0, 0.0], [9E+9, 9E+9, 9E9, 9E9, 9E9, 9E9]];
    CONST robtarget p_DrawCylinder_550 := [[1102.619, 47.727999999999994, 430.4], [-1.0, 0.0, 0.0, 0.0],[-1.0, 0.0, 1.0, 0.0], [9E+9, 9E+9, 9E9, 9E9, 9E9, 9E9]];
    CONST robtarget p_DrawCylinder_551 := [[1103.954, 46.791, 430.4], [-1.0, 0.0, 0.0, 0.0],[-1.0, 0.0, 1.0, 0.0], [9E+9, 9E+9, 9E9, 9E9, 9E9, 9E9]];
    CONST robtarget p_DrawCylinder_552 := [[1104.406, 46.509, 430.4], [-1.0, 0.0, 0.0, 0.0],[-1.0, 0.0, 1.0, 0.0], [9E+9, 9E+9, 9E9, 9E9, 9E9, 9E9]];
    CONST robtarget p_DrawCylinder_553 := [[1105.373, 45.929, 430.4], [-1.0, 0.0, 0.0, 0.0],[-1.0, 0.0, 1.0, 0.0], [9E+9, 9E+9, 9E9, 9E9, 9E9, 9E9]];
    CONST robtarget p_DrawCylinder_554 := [[1105.881, 45.656000000000006, 430.4], [-1.0, 0.0, 0.0, 0.0],[-1.0, 0.0, 1.0, 0.0], [9E+9, 9E+9, 9E9, 9E9, 9E9, 9E9]];
    CONST robtarget p_DrawCylinder_555 := [[1106.804, 45.18300000000001, 430.4], [-1.0, 0.0, 0.0, 0.0],[-1.0, 0.0, 1.0, 0.0], [9E+9, 9E+9, 9E9, 9E9, 9E9, 9E9]];
    CONST robtarget p_DrawCylinder_556 := [[1107.371, 44.926, 430.4], [-1.0, 0.0, 0.0, 0.0],[-1.0, 0.0, 1.0, 0.0], [9E+9, 9E+9, 9E9, 9E9, 9E9, 9E9]];
    CONST robtarget p_DrawCylinder_557 := [[1108.312, 44.521, 430.4], [-1.0, 0.0, 0.0, 0.0],[-1.0, 0.0, 1.0, 0.0], [9E+9, 9E+9, 9E9, 9E9, 9E9, 9E9]];
    CONST robtarget p_DrawCylinder_558 := [[1108.898, 44.30200000000001, 430.4], [-1.0, 0.0, 0.0, 0.0],[-1.0, 0.0, 1.0, 0.0], [9E+9, 9E+9, 9E9, 9E9, 9E9, 9E9]];
    CONST robtarget p_DrawCylinder_559 := [[1109.841, 43.968, 430.4], [-1.0, 0.0, 0.0, 0.0],[-1.0, 0.0, 1.0, 0.0], [9E+9, 9E+9, 9E9, 9E9, 9E9, 9E9]];
    CONST robtarget p_DrawCylinder_560 := [[1110.488, 43.774, 430.4], [-1.0, 0.0, 0.0, 0.0],[-1.0, 0.0, 1.0, 0.0], [9E+9, 9E+9, 9E9, 9E9, 9E9, 9E9]];
    CONST robtarget p_DrawCylinder_561 := [[1111.435, 43.507999999999996, 430.4], [-1.0, 0.0, 0.0, 0.0],[-1.0, 0.0, 1.0, 0.0], [9E+9, 9E+9, 9E9, 9E9, 9E9, 9E9]];
    CONST robtarget p_DrawCylinder_562 := [[1112.102, 43.354, 430.4], [-1.0, 0.0, 0.0, 0.0],[-1.0, 0.0, 1.0, 0.0], [9E+9, 9E+9, 9E9, 9E9, 9E9, 9E9]];
    CONST robtarget p_DrawCylinder_563 := [[1113.022, 43.159000000000006, 430.4], [-1.0, 0.0, 0.0, 0.0],[-1.0, 0.0, 1.0, 0.0], [9E+9, 9E+9, 9E9, 9E9, 9E9, 9E9]];
    CONST robtarget p_DrawCylinder_564 := [[1113.736, 43.045, 430.4], [-1.0, 0.0, 0.0, 0.0],[-1.0, 0.0, 1.0, 0.0], [9E+9, 9E+9, 9E9, 9E9, 9E9, 9E9]];
    CONST robtarget p_DrawCylinder_565 := [[1114.645, 42.916, 430.4], [-1.0, 0.0, 0.0, 0.0],[-1.0, 0.0, 1.0, 0.0], [9E+9, 9E+9, 9E9, 9E9, 9E9, 9E9]];
    CONST robtarget p_DrawCylinder_566 := [[1115.401, 42.845, 430.4], [-1.0, 0.0, 0.0, 0.0],[-1.0, 0.0, 1.0, 0.0], [9E+9, 9E+9, 9E9, 9E9, 9E9, 9E9]];
    CONST robtarget p_DrawCylinder_567 := [[1116.262, 42.781000000000006, 430.4], [-1.0, 0.0, 0.0, 0.0],[-1.0, 0.0, 1.0, 0.0], [9E+9, 9E+9, 9E9, 9E9, 9E9, 9E9]];
    CONST robtarget p_DrawCylinder_568 := [[1117.077, 42.760000000000005, 430.4], [-1.0, 0.0, 0.0, 0.0],[-1.0, 0.0, 1.0, 0.0], [9E+9, 9E+9, 9E9, 9E9, 9E9, 9E9]];
    CONST robtarget p_DrawCylinder_569 := [[1117.903, 42.754000000000005, 430.4], [-1.0, 0.0, 0.0, 0.0],[-1.0, 0.0, 1.0, 0.0], [9E+9, 9E+9, 9E9, 9E9, 9E9, 9E9]];
    CONST robtarget p_DrawCylinder_570 := [[1118.741, 42.788, 430.4], [-1.0, 0.0, 0.0, 0.0],[-1.0, 0.0, 1.0, 0.0], [9E+9, 9E+9, 9E9, 9E9, 9E9, 9E9]];
    CONST robtarget p_DrawCylinder_571 := [[1119.546, 42.836, 430.4], [-1.0, 0.0, 0.0, 0.0],[-1.0, 0.0, 1.0, 0.0], [9E+9, 9E+9, 9E9, 9E9, 9E9, 9E9]];
    CONST robtarget p_DrawCylinder_572 := [[1120.413, 42.929, 430.4], [-1.0, 0.0, 0.0, 0.0],[-1.0, 0.0, 1.0, 0.0], [9E+9, 9E+9, 9E9, 9E9, 9E9, 9E9]];
    CONST robtarget p_DrawCylinder_573 := [[1121.187, 43.025000000000006, 430.4], [-1.0, 0.0, 0.0, 0.0],[-1.0, 0.0, 1.0, 0.0], [9E+9, 9E+9, 9E9, 9E9, 9E9, 9E9]];
    CONST robtarget p_DrawCylinder_574 := [[1122.058, 43.179, 430.4], [-1.0, 0.0, 0.0, 0.0],[-1.0, 0.0, 1.0, 0.0], [9E+9, 9E+9, 9E9, 9E9, 9E9, 9E9]];
    CONST robtarget p_DrawCylinder_575 := [[1122.766, 43.316, 430.4], [-1.0, 0.0, 0.0, 0.0],[-1.0, 0.0, 1.0, 0.0], [9E+9, 9E+9, 9E9, 9E9, 9E9, 9E9]];
    CONST robtarget p_DrawCylinder_576 := [[1123.684, 43.541, 430.4], [-1.0, 0.0, 0.0, 0.0],[-1.0, 0.0, 1.0, 0.0], [9E+9, 9E+9, 9E9, 9E9, 9E9, 9E9]];
    CONST robtarget p_DrawCylinder_577 := [[1124.367, 43.721000000000004, 430.4], [-1.0, 0.0, 0.0, 0.0],[-1.0, 0.0, 1.0, 0.0], [9E+9, 9E+9, 9E9, 9E9, 9E9, 9E9]];
    CONST robtarget p_DrawCylinder_578 := [[1125.305, 44.018, 430.4], [-1.0, 0.0, 0.0, 0.0],[-1.0, 0.0, 1.0, 0.0], [9E+9, 9E+9, 9E9, 9E9, 9E9, 9E9]];
    CONST robtarget p_DrawCylinder_579 := [[1125.939, 44.230999999999995, 430.4], [-1.0, 0.0, 0.0, 0.0],[-1.0, 0.0, 1.0, 0.0], [9E+9, 9E+9, 9E9, 9E9, 9E9, 9E9]];
    CONST robtarget p_DrawCylinder_580 := [[1126.872, 44.596000000000004, 430.4], [-1.0, 0.0, 0.0, 0.0],[-1.0, 0.0, 1.0, 0.0], [9E+9, 9E+9, 9E9, 9E9, 9E9, 9E9]];
    CONST robtarget p_DrawCylinder_581 := [[1127.433, 44.828, 430.4], [-1.0, 0.0, 0.0, 0.0],[-1.0, 0.0, 1.0, 0.0], [9E+9, 9E+9, 9E9, 9E9, 9E9, 9E9]];
    CONST robtarget p_DrawCylinder_582 := [[1128.908, 45.533, 430.4], [-1.0, 0.0, 0.0, 0.0],[-1.0, 0.0, 1.0, 0.0], [9E+9, 9E+9, 9E9, 9E9, 9E9, 9E9]];
    CONST robtarget p_DrawCylinder_583 := [[1129.867, 46.063, 430.4], [-1.0, 0.0, 0.0, 0.0],[-1.0, 0.0, 1.0, 0.0], [9E+9, 9E+9, 9E9, 9E9, 9E9, 9E9]];
    CONST robtarget p_DrawCylinder_584 := [[1130.354, 46.346000000000004, 430.4], [-1.0, 0.0, 0.0, 0.0],[-1.0, 0.0, 1.0, 0.0], [9E+9, 9E+9, 9E9, 9E9, 9E9, 9E9]];
    CONST robtarget p_DrawCylinder_585 := [[1131.28, 46.943, 430.4], [-1.0, 0.0, 0.0, 0.0],[-1.0, 0.0, 1.0, 0.0], [9E+9, 9E+9, 9E9, 9E9, 9E9, 9E9]];
    CONST robtarget p_DrawCylinder_586 := [[1131.706, 47.229, 430.4], [-1.0, 0.0, 0.0, 0.0],[-1.0, 0.0, 1.0, 0.0], [9E+9, 9E+9, 9E9, 9E9, 9E9, 9E9]];
    CONST robtarget p_DrawCylinder_587 := [[1133.0140000000001, 48.211, 430.4], [-1.0, 0.0, 0.0, 0.0],[-1.0, 0.0, 1.0, 0.0], [9E+9, 9E+9, 9E9, 9E9, 9E9, 9E9]];
    CONST robtarget p_DrawCylinder_588 := [[1134.256, 49.278000000000006, 430.4], [-1.0, 0.0, 0.0, 0.0],[-1.0, 0.0, 1.0, 0.0], [9E+9, 9E+9, 9E9, 9E9, 9E9, 9E9]];
    CONST robtarget p_DrawCylinder_589 := [[1135.444, 50.446, 430.4], [-1.0, 0.0, 0.0, 0.0],[-1.0, 0.0, 1.0, 0.0], [9E+9, 9E+9, 9E9, 9E9, 9E9, 9E9]];
    CONST robtarget p_DrawCylinder_590 := [[1136.528, 51.664, 430.4], [-1.0, 0.0, 0.0, 0.0],[-1.0, 0.0, 1.0, 0.0], [9E+9, 9E+9, 9E9, 9E9, 9E9, 9E9]];
    CONST robtarget p_DrawCylinder_591 := [[1137.507, 52.92, 430.4], [-1.0, 0.0, 0.0, 0.0],[-1.0, 0.0, 1.0, 0.0], [9E+9, 9E+9, 9E9, 9E9, 9E9, 9E9]];
    CONST robtarget p_DrawCylinder_592 := [[1138.466, 54.334999999999994, 430.4], [-1.0, 0.0, 0.0, 0.0],[-1.0, 0.0, 1.0, 0.0], [9E+9, 9E+9, 9E9, 9E9, 9E9, 9E9]];
    CONST robtarget p_DrawCylinder_593 := [[1139.252, 55.68000000000001, 430.4], [-1.0, 0.0, 0.0, 0.0],[-1.0, 0.0, 1.0, 0.0], [9E+9, 9E+9, 9E9, 9E9, 9E9, 9E9]];
    CONST robtarget p_DrawCylinder_594 := [[1140.007, 57.187, 430.4], [-1.0, 0.0, 0.0, 0.0],[-1.0, 0.0, 1.0, 0.0], [9E+9, 9E+9, 9E9, 9E9, 9E9, 9E9]];
    CONST robtarget p_DrawCylinder_595 := [[1140.633, 58.67700000000001, 430.4], [-1.0, 0.0, 0.0, 0.0],[-1.0, 0.0, 1.0, 0.0], [9E+9, 9E+9, 9E9, 9E9, 9E9, 9E9]];
    CONST robtarget p_DrawCylinder_596 := [[1141.172, 60.245000000000005, 430.4], [-1.0, 0.0, 0.0, 0.0],[-1.0, 0.0, 1.0, 0.0], [9E+9, 9E+9, 9E9, 9E9, 9E9, 9E9]];
    CONST robtarget p_DrawCylinder_597 := [[1141.593, 61.804, 430.4], [-1.0, 0.0, 0.0, 0.0],[-1.0, 0.0, 1.0, 0.0], [9E+9, 9E+9, 9E9, 9E9, 9E9, 9E9]];
    CONST robtarget p_DrawCylinder_598 := [[1141.9180000000001, 63.409000000000006, 430.4], [-1.0, 0.0, 0.0, 0.0],[-1.0, 0.0, 1.0, 0.0], [9E+9, 9E+9, 9E9, 9E9, 9E9, 9E9]];
    CONST robtarget p_DrawCylinder_599 := [[1142.136, 65.031, 430.4], [-1.0, 0.0, 0.0, 0.0],[-1.0, 0.0, 1.0, 0.0], [9E+9, 9E+9, 9E9, 9E9, 9E9, 9E9]];
    CONST robtarget p_DrawCylinder_600 := [[1142.247, 66.701, 430.4], [-1.0, 0.0, 0.0, 0.0],[-1.0, 0.0, 1.0, 0.0], [9E+9, 9E+9, 9E9, 9E9, 9E9, 9E9]];
    CONST robtarget p_DrawCylinder_601 := [[1142.247, 68.299, 430.4], [-1.0, 0.0, 0.0, 0.0],[-1.0, 0.0, 1.0, 0.0], [9E+9, 9E+9, 9E9, 9E9, 9E9, 9E9]];
    CONST robtarget p_DrawCylinder_602 := [[1142.1390000000001, 69.94, 430.4], [-1.0, 0.0, 0.0, 0.0],[-1.0, 0.0, 1.0, 0.0], [9E+9, 9E+9, 9E9, 9E9, 9E9, 9E9]];
    CONST robtarget p_DrawCylinder_603 := [[1141.921, 71.571, 430.4], [-1.0, 0.0, 0.0, 0.0],[-1.0, 0.0, 1.0, 0.0], [9E+9, 9E+9, 9E9, 9E9, 9E9, 9E9]];
    CONST robtarget p_DrawCylinder_604 := [[1141.597, 73.181, 430.4], [-1.0, 0.0, 0.0, 0.0],[-1.0, 0.0, 1.0, 0.0], [9E+9, 9E+9, 9E9, 9E9, 9E9, 9E9]];
    CONST robtarget p_DrawCylinder_605 := [[1141.176, 74.74, 430.4], [-1.0, 0.0, 0.0, 0.0],[-1.0, 0.0, 1.0, 0.0], [9E+9, 9E+9, 9E9, 9E9, 9E9, 9E9]];
    CONST robtarget p_DrawCylinder_606 := [[1140.641, 76.302, 430.4], [-1.0, 0.0, 0.0, 0.0],[-1.0, 0.0, 1.0, 0.0], [9E+9, 9E+9, 9E9, 9E9, 9E9, 9E9]];
    CONST robtarget p_DrawCylinder_607 := [[1140.013, 77.799, 430.4], [-1.0, 0.0, 0.0, 0.0],[-1.0, 0.0, 1.0, 0.0], [9E+9, 9E+9, 9E9, 9E9, 9E9, 9E9]];
    CONST robtarget p_DrawCylinder_608 := [[1139.26, 79.30699999999999, 430.4], [-1.0, 0.0, 0.0, 0.0],[-1.0, 0.0, 1.0, 0.0], [9E+9, 9E+9, 9E9, 9E9, 9E9, 9E9]];
    CONST robtarget p_DrawCylinder_609 := [[1138.474, 80.65199999999999, 430.4], [-1.0, 0.0, 0.0, 0.0],[-1.0, 0.0, 1.0, 0.0], [9E+9, 9E+9, 9E9, 9E9, 9E9, 9E9]];
    CONST robtarget p_DrawCylinder_610 := [[1137.512, 82.07400000000001, 430.4], [-1.0, 0.0, 0.0, 0.0],[-1.0, 0.0, 1.0, 0.0], [9E+9, 9E+9, 9E9, 9E9, 9E9, 9E9]];
    CONST robtarget p_DrawCylinder_611 := [[1136.537, 83.32400000000001, 430.4], [-1.0, 0.0, 0.0, 0.0],[-1.0, 0.0, 1.0, 0.0], [9E+9, 9E+9, 9E9, 9E9, 9E9, 9E9]];
    CONST robtarget p_DrawCylinder_612 := [[1135.449, 84.548, 430.4], [-1.0, 0.0, 0.0, 0.0],[-1.0, 0.0, 1.0, 0.0], [9E+9, 9E+9, 9E9, 9E9, 9E9, 9E9]];
    CONST robtarget p_DrawCylinder_613 := [[1134.27, 85.709, 430.4], [-1.0, 0.0, 0.0, 0.0],[-1.0, 0.0, 1.0, 0.0], [9E+9, 9E+9, 9E9, 9E9, 9E9, 9E9]];
    CONST robtarget p_DrawCylinder_614 := [[1133.03, 86.77600000000001, 430.4], [-1.0, 0.0, 0.0, 0.0],[-1.0, 0.0, 1.0, 0.0], [9E+9, 9E+9, 9E9, 9E9, 9E9, 9E9]];
    CONST robtarget p_DrawCylinder_615 := [[1132.663, 87.06, 430.4], [-1.0, 0.0, 0.0, 0.0],[-1.0, 0.0, 1.0, 0.0], [9E+9, 9E+9, 9E9, 9E9, 9E9, 9E9]];
    CONST robtarget p_DrawCylinder_616 := [[1131.721, 87.75999999999999, 430.4], [-1.0, 0.0, 0.0, 0.0],[-1.0, 0.0, 1.0, 0.0], [9E+9, 9E+9, 9E9, 9E9, 9E9, 9E9]];
    CONST robtarget p_DrawCylinder_617 := [[1131.28, 88.05699999999999, 430.4], [-1.0, 0.0, 0.0, 0.0],[-1.0, 0.0, 1.0, 0.0], [9E+9, 9E+9, 9E9, 9E9, 9E9, 9E9]];
    CONST robtarget p_DrawCylinder_618 := [[1130.367, 88.64599999999999, 430.4], [-1.0, 0.0, 0.0, 0.0],[-1.0, 0.0, 1.0, 0.0], [9E+9, 9E+9, 9E9, 9E9, 9E9, 9E9]];
    CONST robtarget p_DrawCylinder_619 := [[1129.868, 88.936, 430.4], [-1.0, 0.0, 0.0, 0.0],[-1.0, 0.0, 1.0, 0.0], [9E+9, 9E+9, 9E9, 9E9, 9E9, 9E9]];
    CONST robtarget p_DrawCylinder_620 := [[1128.9279999999999, 89.458, 430.4], [-1.0, 0.0, 0.0, 0.0],[-1.0, 0.0, 1.0, 0.0], [9E+9, 9E+9, 9E9, 9E9, 9E9, 9E9]];
    CONST robtarget p_DrawCylinder_621 := [[1128.419, 89.708, 430.4], [-1.0, 0.0, 0.0, 0.0],[-1.0, 0.0, 1.0, 0.0], [9E+9, 9E+9, 9E9, 9E9, 9E9, 9E9]];
    CONST robtarget p_DrawCylinder_622 := [[1127.4470000000001, 90.166, 430.4], [-1.0, 0.0, 0.0, 0.0],[-1.0, 0.0, 1.0, 0.0], [9E+9, 9E+9, 9E9, 9E9, 9E9, 9E9]];
    CONST robtarget p_DrawCylinder_623 := [[1126.859, 90.40799999999999, 430.4], [-1.0, 0.0, 0.0, 0.0],[-1.0, 0.0, 1.0, 0.0], [9E+9, 9E+9, 9E9, 9E9, 9E9, 9E9]];
    CONST robtarget p_DrawCylinder_624 := [[1125.946, 90.76599999999999, 430.4], [-1.0, 0.0, 0.0, 0.0],[-1.0, 0.0, 1.0, 0.0], [9E+9, 9E+9, 9E9, 9E9, 9E9, 9E9]];
    CONST robtarget p_DrawCylinder_625 := [[1125.336, 90.97200000000001, 430.4], [-1.0, 0.0, 0.0, 0.0],[-1.0, 0.0, 1.0, 0.0], [9E+9, 9E+9, 9E9, 9E9, 9E9, 9E9]];
    CONST robtarget p_DrawCylinder_626 := [[1124.383, 91.275, 430.4], [-1.0, 0.0, 0.0, 0.0],[-1.0, 0.0, 1.0, 0.0], [9E+9, 9E+9, 9E9, 9E9, 9E9, 9E9]];
    CONST robtarget p_DrawCylinder_627 := [[1123.716, 91.451, 430.4], [-1.0, 0.0, 0.0, 0.0],[-1.0, 0.0, 1.0, 0.0], [9E+9, 9E+9, 9E9, 9E9, 9E9, 9E9]];
    CONST robtarget p_DrawCylinder_628 := [[1122.781, 91.68199999999999, 430.4], [-1.0, 0.0, 0.0, 0.0],[-1.0, 0.0, 1.0, 0.0], [9E+9, 9E+9, 9E9, 9E9, 9E9, 9E9]];
    CONST robtarget p_DrawCylinder_629 := [[1122.091, 91.815, 430.4], [-1.0, 0.0, 0.0, 0.0],[-1.0, 0.0, 1.0, 0.0], [9E+9, 9E+9, 9E9, 9E9, 9E9, 9E9]];
    CONST robtarget p_DrawCylinder_630 := [[1121.195, 91.97300000000001, 430.4], [-1.0, 0.0, 0.0, 0.0],[-1.0, 0.0, 1.0, 0.0], [9E+9, 9E+9, 9E9, 9E9, 9E9, 9E9]];
    CONST robtarget p_DrawCylinder_631 := [[1120.446, 92.06800000000001, 430.4], [-1.0, 0.0, 0.0, 0.0],[-1.0, 0.0, 1.0, 0.0], [9E+9, 9E+9, 9E9, 9E9, 9E9, 9E9]];
    CONST robtarget p_DrawCylinder_632 := [[1119.561, 92.16399999999999, 430.4], [-1.0, 0.0, 0.0, 0.0],[-1.0, 0.0, 1.0, 0.0], [9E+9, 9E+9, 9E9, 9E9, 9E9, 9E9]];
    CONST robtarget p_DrawCylinder_633 := [[1118.773, 92.21100000000001, 430.4], [-1.0, 0.0, 0.0, 0.0],[-1.0, 0.0, 1.0, 0.0], [9E+9, 9E+9, 9E9, 9E9, 9E9, 9E9]];
    CONST robtarget p_DrawCylinder_634 := [[1118.353, 92.22900000000001, 430.4], [-1.0, 0.0, 0.0, 0.0],[-1.0, 0.0, 1.0, 0.0], [9E+9, 9E+9, 9E9, 9E9, 9E9, 9E9]];
    CONST robtarget p_DrawCylinder_635 := [[1117.919, 92.24700000000001, 430.4], [-1.0, 0.0, 0.0, 0.0],[-1.0, 0.0, 1.0, 0.0], [9E+9, 9E+9, 9E9, 9E9, 9E9, 9E9]];
    CONST robtarget p_DrawCylinder_636 := [[1117.101, 91.74700000000001, 430.4], [-1.0, 0.0, 0.0, 0.0],[-1.0, 0.0, 1.0, 0.0], [9E+9, 9E+9, 9E9, 9E9, 9E9, 9E9]];
    CONST robtarget p_DrawCylinder_637 := [[1117.903, 91.739, 430.4], [-1.0, 0.0, 0.0, 0.0],[-1.0, 0.0, 1.0, 0.0], [9E+9, 9E+9, 9E9, 9E9, 9E9, 9E9]];
    CONST robtarget p_DrawCylinder_638 := [[1118.725, 91.71799999999999, 430.4], [-1.0, 0.0, 0.0, 0.0],[-1.0, 0.0, 1.0, 0.0], [9E+9, 9E+9, 9E9, 9E9, 9E9, 9E9]];
    CONST robtarget p_DrawCylinder_639 := [[1119.512, 91.66, 430.4], [-1.0, 0.0, 0.0, 0.0],[-1.0, 0.0, 1.0, 0.0], [9E+9, 9E+9, 9E9, 9E9, 9E9, 9E9]];
    CONST robtarget p_DrawCylinder_640 := [[1120.372, 91.58099999999999, 430.4], [-1.0, 0.0, 0.0, 0.0],[-1.0, 0.0, 1.0, 0.0], [9E+9, 9E+9, 9E9, 9E9, 9E9, 9E9]];
    CONST robtarget p_DrawCylinder_641 := [[1121.977, 91.334, 430.4], [-1.0, 0.0, 0.0, 0.0],[-1.0, 0.0, 1.0, 0.0], [9E+9, 9E+9, 9E9, 9E9, 9E9, 9E9]];
    CONST robtarget p_DrawCylinder_642 := [[1122.665, 91.18799999999999, 430.4], [-1.0, 0.0, 0.0, 0.0],[-1.0, 0.0, 1.0, 0.0], [9E+9, 9E+9, 9E9, 9E9, 9E9, 9E9]];
    CONST robtarget p_DrawCylinder_643 := [[1123.57, 90.97999999999999, 430.4], [-1.0, 0.0, 0.0, 0.0],[-1.0, 0.0, 1.0, 0.0], [9E+9, 9E+9, 9E9, 9E9, 9E9, 9E9]];
