MODULE Ellipse
    PERS tooldata tool1:=[True,[[0, 0, 0],[0, 0, 1, 0]],[1,[0, 0, 1],[1, 0, 0, 0],0,0,0]];

    CONST robtarget zcHome := [[650.0, 0.0, 1000.0], [-1.0, 0.0, 0.0, 0.0],[-1.0, 0.0, 1.0, 0.0], [9E+9, 9E+9, 9E9, 9E9, 9E9, 9E9]];
    CONST robtarget p_DrawEllipse_0 := [[1117.196, -30.415, 430.2], [-1.0, 0.0, 0.0, 0.0],[-1.0, 0.0, 1.0, 0.0], [9E+9, 9E+9, 9E9, 9E9, 9E9, 9E9]];
    CONST robtarget p_DrawEllipse_1 := [[1117.196, -30.415, 430.0], [-1.0, 0.0, 0.0, 0.0],[-1.0, 0.0, 1.0, 0.0], [9E+9, 9E+9, 9E9, 9E9, 9E9, 9E9]];
    CONST robtarget p_DrawEllipse_2 := [[1117.196, -30.415, 430.0], [-1.0, 0.0, 0.0, 0.0],[-1.0, 0.0, 1.0, 0.0], [9E+9, 9E+9, 9E9, 9E9, 9E9, 9E9]];
    CONST robtarget p_DrawEllipse_3 := [[1117.62, -30.421, 430.0], [-1.0, 0.0, 0.0, 0.0],[-1.0, 0.0, 1.0, 0.0], [9E+9, 9E+9, 9E9, 9E9, 9E9, 9E9]];
    CONST robtarget p_DrawEllipse_4 := [[1117.852, -30.363, 430.0], [-1.0, 0.0, 0.0, 0.0],[-1.0, 0.0, 1.0, 0.0], [9E+9, 9E+9, 9E9, 9E9, 9E9, 9E9]];
    CONST robtarget p_DrawEllipse_5 := [[1117.608, -31.216, 430.0], [-1.0, 0.0, 0.0, 0.0],[-1.0, 0.0, 1.0, 0.0], [9E+9, 9E+9, 9E9, 9E9, 9E9, 9E9]];
    CONST robtarget p_DrawEllipse_6 := [[1117.5, -31.482, 430.0], [-1.0, 0.0, 0.0, 0.0],[-1.0, 0.0, 1.0, 0.0], [9E+9, 9E+9, 9E9, 9E9, 9E9, 9E9]];
    CONST robtarget p_DrawEllipse_7 := [[1117.388, -31.205, 430.0], [-1.0, 0.0, 0.0, 0.0],[-1.0, 0.0, 1.0, 0.0], [9E+9, 9E+9, 9E9, 9E9, 9E9, 9E9]];
    CONST robtarget p_DrawEllipse_8 := [[1117.184, -30.485, 430.0], [-1.0, 0.0, 0.0, 0.0],[-1.0, 0.0, 1.0, 0.0], [9E+9, 9E+9, 9E9, 9E9, 9E9, 9E9]];
    CONST robtarget p_DrawEllipse_9 := [[1117.15, -30.363, 430.0], [-1.0, 0.0, 0.0, 0.0],[-1.0, 0.0, 1.0, 0.0], [9E+9, 9E+9, 9E9, 9E9, 9E9, 9E9]];
    CONST robtarget p_DrawEllipse_10 := [[1117.196, -30.415, 430.0], [-1.0, 0.0, 0.0, 0.0],[-1.0, 0.0, 1.0, 0.0], [9E+9, 9E+9, 9E9, 9E9, 9E9, 9E9]];
    CONST robtarget p_DrawEllipse_11 := [[1117.196, -30.415, 430.0], [-1.0, 0.0, 0.0, 0.0],[-1.0, 0.0, 1.0, 0.0], [9E+9, 9E+9, 9E9, 9E9, 9E9, 9E9]];
    CONST robtarget p_DrawEllipse_12 := [[1117.196, -30.415, 430.2], [-1.0, 0.0, 0.0, 0.0],[-1.0, 0.0, 1.0, 0.0], [9E+9, 9E+9, 9E9, 9E9, 9E9, 9E9]];
    CONST robtarget p_DrawEllipse_13 := [[1117.796, 165.414, 430.2], [-1.0, 0.0, 0.0, 0.0],[-1.0, 0.0, 1.0, 0.0], [9E+9, 9E+9, 9E9, 9E9, 9E9, 9E9]];
    CONST robtarget p_DrawEllipse_14 := [[1117.796, 165.414, 430.0], [-1.0, 0.0, 0.0, 0.0],[-1.0, 0.0, 1.0, 0.0], [9E+9, 9E+9, 9E9, 9E9, 9E9, 9E9]];
    CONST robtarget p_DrawEllipse_15 := [[1117.796, 165.414, 430.0], [-1.0, 0.0, 0.0, 0.0],[-1.0, 0.0, 1.0, 0.0], [9E+9, 9E+9, 9E9, 9E9, 9E9, 9E9]];
    CONST robtarget p_DrawEllipse_16 := [[1117.38, 165.42, 430.0], [-1.0, 0.0, 0.0, 0.0],[-1.0, 0.0, 1.0, 0.0], [9E+9, 9E+9, 9E9, 9E9, 9E9, 9E9]];
    CONST robtarget p_DrawEllipse_17 := [[1117.149, 165.368, 430.0], [-1.0, 0.0, 0.0, 0.0],[-1.0, 0.0, 1.0, 0.0], [9E+9, 9E+9, 9E9, 9E9, 9E9, 9E9]];
    CONST robtarget p_DrawEllipse_18 := [[1117.392, 166.217, 430.0], [-1.0, 0.0, 0.0, 0.0],[-1.0, 0.0, 1.0, 0.0], [9E+9, 9E+9, 9E9, 9E9, 9E9, 9E9]];
    CONST robtarget p_DrawEllipse_19 := [[1117.5, 166.484, 430.0], [-1.0, 0.0, 0.0, 0.0],[-1.0, 0.0, 1.0, 0.0], [9E+9, 9E+9, 9E9, 9E9, 9E9, 9E9]];
    CONST robtarget p_DrawEllipse_20 := [[1117.612, 166.205, 430.0], [-1.0, 0.0, 0.0, 0.0],[-1.0, 0.0, 1.0, 0.0], [9E+9, 9E+9, 9E9, 9E9, 9E9, 9E9]];
    CONST robtarget p_DrawEllipse_21 := [[1117.819, 165.48, 430.0], [-1.0, 0.0, 0.0, 0.0],[-1.0, 0.0, 1.0, 0.0], [9E+9, 9E+9, 9E9, 9E9, 9E9, 9E9]];
    CONST robtarget p_DrawEllipse_22 := [[1117.852, 165.364, 430.0], [-1.0, 0.0, 0.0, 0.0],[-1.0, 0.0, 1.0, 0.0], [9E+9, 9E+9, 9E9, 9E9, 9E9, 9E9]];
    CONST robtarget p_DrawEllipse_23 := [[1117.796, 165.414, 430.0], [-1.0, 0.0, 0.0, 0.0],[-1.0, 0.0, 1.0, 0.0], [9E+9, 9E+9, 9E9, 9E9, 9E9, 9E9]];
    CONST robtarget p_DrawEllipse_24 := [[1117.87, 164.858, 430.0], [-1.0, 0.0, 0.0, 0.0],[-1.0, 0.0, 1.0, 0.0], [9E+9, 9E+9, 9E9, 9E9, 9E9, 9E9]];
    CONST robtarget p_DrawEllipse_25 := [[1117.695, 164.954, 430.0], [-1.0, 0.0, 0.0, 0.0],[-1.0, 0.0, 1.0, 0.0], [9E+9, 9E+9, 9E9, 9E9, 9E9, 9E9]];
    CONST robtarget p_DrawEllipse_26 := [[1117.328, 164.968, 430.0], [-1.0, 0.0, 0.0, 0.0],[-1.0, 0.0, 1.0, 0.0], [9E+9, 9E+9, 9E9, 9E9, 9E9, 9E9]];
    CONST robtarget p_DrawEllipse_27 := [[1117.136, 164.863, 430.0], [-1.0, 0.0, 0.0, 0.0],[-1.0, 0.0, 1.0, 0.0], [9E+9, 9E+9, 9E9, 9E9, 9E9, 9E9]];
    CONST robtarget p_DrawEllipse_28 := [[1117.059, 164.534, 430.0], [-1.0, 0.0, 0.0, 0.0],[-1.0, 0.0, 1.0, 0.0], [9E+9, 9E+9, 9E9, 9E9, 9E9, 9E9]];
    CONST robtarget p_DrawEllipse_29 := [[1116.891, 163.664, 430.0], [-1.0, 0.0, 0.0, 0.0],[-1.0, 0.0, 1.0, 0.0], [9E+9, 9E+9, 9E9, 9E9, 9E9, 9E9]];
    CONST robtarget p_DrawEllipse_30 := [[1116.711, 162.582, 430.0], [-1.0, 0.0, 0.0, 0.0],[-1.0, 0.0, 1.0, 0.0], [9E+9, 9E+9, 9E9, 9E9, 9E9, 9E9]];
    CONST robtarget p_DrawEllipse_31 := [[1116.554, 161.499, 430.0], [-1.0, 0.0, 0.0, 0.0],[-1.0, 0.0, 1.0, 0.0], [9E+9, 9E+9, 9E9, 9E9, 9E9, 9E9]];
    CONST robtarget p_DrawEllipse_32 := [[1116.358, 159.992, 430.0], [-1.0, 0.0, 0.0, 0.0],[-1.0, 0.0, 1.0, 0.0], [9E+9, 9E+9, 9E9, 9E9, 9E9, 9E9]];
    CONST robtarget p_DrawEllipse_33 := [[1116.185, 158.485, 430.0], [-1.0, 0.0, 0.0, 0.0],[-1.0, 0.0, 1.0, 0.0], [9E+9, 9E+9, 9E9, 9E9, 9E9, 9E9]];
    CONST robtarget p_DrawEllipse_34 := [[1115.995, 156.666, 430.0], [-1.0, 0.0, 0.0, 0.0],[-1.0, 0.0, 1.0, 0.0], [9E+9, 9E+9, 9E9, 9E9, 9E9, 9E9]];
    CONST robtarget p_DrawEllipse_35 := [[1115.716, 153.587, 430.0], [-1.0, 0.0, 0.0, 0.0],[-1.0, 0.0, 1.0, 0.0], [9E+9, 9E+9, 9E9, 9E9, 9E9, 9E9]];
    CONST robtarget p_DrawEllipse_36 := [[1115.589, 152.025, 430.0], [-1.0, 0.0, 0.0, 0.0],[-1.0, 0.0, 1.0, 0.0], [9E+9, 9E+9, 9E9, 9E9, 9E9, 9E9]];
    CONST robtarget p_DrawEllipse_37 := [[1115.338, 148.674, 430.0], [-1.0, 0.0, 0.0, 0.0],[-1.0, 0.0, 1.0, 0.0], [9E+9, 9E+9, 9E9, 9E9, 9E9, 9E9]];
    CONST robtarget p_DrawEllipse_38 := [[1115.099, 145.032, 430.0], [-1.0, 0.0, 0.0, 0.0],[-1.0, 0.0, 1.0, 0.0], [9E+9, 9E+9, 9E9, 9E9, 9E9, 9E9]];
    CONST robtarget p_DrawEllipse_39 := [[1114.862, 140.942, 430.0], [-1.0, 0.0, 0.0, 0.0],[-1.0, 0.0, 1.0, 0.0], [9E+9, 9E+9, 9E9, 9E9, 9E9, 9E9]];
    CONST robtarget p_DrawEllipse_40 := [[1114.554, 134.744, 430.0], [-1.0, 0.0, 0.0, 0.0],[-1.0, 0.0, 1.0, 0.0], [9E+9, 9E+9, 9E9, 9E9, 9E9, 9E9]];
    CONST robtarget p_DrawEllipse_41 := [[1114.175, 125.411, 430.0], [-1.0, 0.0, 0.0, 0.0],[-1.0, 0.0, 1.0, 0.0], [9E+9, 9E+9, 9E9, 9E9, 9E9, 9E9]];
    CONST robtarget p_DrawEllipse_42 := [[1113.972, 119.21100000000001, 430.0], [-1.0, 0.0, 0.0, 0.0],[-1.0, 0.0, 1.0, 0.0], [9E+9, 9E+9, 9E9, 9E9, 9E9, 9E9]];
    CONST robtarget p_DrawEllipse_43 := [[1113.718, 109.459, 430.0], [-1.0, 0.0, 0.0, 0.0],[-1.0, 0.0, 1.0, 0.0], [9E+9, 9E+9, 9E9, 9E9, 9E9, 9E9]];
    CONST robtarget p_DrawEllipse_44 := [[1113.557, 101.174, 430.0], [-1.0, 0.0, 0.0, 0.0],[-1.0, 0.0, 1.0, 0.0], [9E+9, 9E+9, 9E9, 9E9, 9E9, 9E9]];
    CONST robtarget p_DrawEllipse_45 := [[1113.474, 96.388, 430.0], [-1.0, 0.0, 0.0, 0.0],[-1.0, 0.0, 1.0, 0.0], [9E+9, 9E+9, 9E9, 9E9, 9E9, 9E9]];
    CONST robtarget p_DrawEllipse_46 := [[1113.371, 86.99799999999999, 430.0], [-1.0, 0.0, 0.0, 0.0],[-1.0, 0.0, 1.0, 0.0], [9E+9, 9E+9, 9E9, 9E9, 9E9, 9E9]];
    CONST robtarget p_DrawEllipse_47 := [[1113.301, 79.11500000000001, 430.0], [-1.0, 0.0, 0.0, 0.0],[-1.0, 0.0, 1.0, 0.0], [9E+9, 9E+9, 9E9, 9E9, 9E9, 9E9]];
    CONST robtarget p_DrawEllipse_48 := [[1113.264, 65.692, 430.0], [-1.0, 0.0, 0.0, 0.0],[-1.0, 0.0, 1.0, 0.0], [9E+9, 9E+9, 9E9, 9E9, 9E9, 9E9]];
    CONST robtarget p_DrawEllipse_49 := [[1113.343, 49.117000000000004, 430.0], [-1.0, 0.0, 0.0, 0.0],[-1.0, 0.0, 1.0, 0.0], [9E+9, 9E+9, 9E9, 9E9, 9E9, 9E9]];
    CONST robtarget p_DrawEllipse_50 := [[1113.4569999999999, 39.498000000000005, 430.0], [-1.0, 0.0, 0.0, 0.0],[-1.0, 0.0, 1.0, 0.0], [9E+9, 9E+9, 9E9, 9E9, 9E9, 9E9]];
    CONST robtarget p_DrawEllipse_51 := [[1113.617, 30.147999999999996, 430.0], [-1.0, 0.0, 0.0, 0.0],[-1.0, 0.0, 1.0, 0.0], [9E+9, 9E+9, 9E9, 9E9, 9E9, 9E9]];
    CONST robtarget p_DrawEllipse_52 := [[1113.9, 18.271, 430.0], [-1.0, 0.0, 0.0, 0.0],[-1.0, 0.0, 1.0, 0.0], [9E+9, 9E+9, 9E9, 9E9, 9E9, 9E9]];
    CONST robtarget p_DrawEllipse_53 := [[1114.261, 7.264000000000003, 430.0], [-1.0, 0.0, 0.0, 0.0],[-1.0, 0.0, 1.0, 0.0], [9E+9, 9E+9, 9E9, 9E9, 9E9, 9E9]];
    CONST robtarget p_DrawEllipse_54 := [[1114.539, 0.5429999999999993, 430.0], [-1.0, 0.0, 0.0, 0.0],[-1.0, 0.0, 1.0, 0.0], [9E+9, 9E+9, 9E9, 9E9, 9E9, 9E9]];
    CONST robtarget p_DrawEllipse_55 := [[1114.715, -3.171999999999997, 430.0], [-1.0, 0.0, 0.0, 0.0],[-1.0, 0.0, 1.0, 0.0], [9E+9, 9E+9, 9E9, 9E9, 9E9, 9E9]];
    CONST robtarget p_DrawEllipse_56 := [[1115.006, -8.569000000000003, 430.0], [-1.0, 0.0, 0.0, 0.0],[-1.0, 0.0, 1.0, 0.0], [9E+9, 9E+9, 9E9, 9E9, 9E9, 9E9]];
    CONST robtarget p_DrawEllipse_57 := [[1115.175, -11.325000000000003, 430.0], [-1.0, 0.0, 0.0, 0.0],[-1.0, 0.0, 1.0, 0.0], [9E+9, 9E+9, 9E9, 9E9, 9E9, 9E9]];
    CONST robtarget p_DrawEllipse_58 := [[1115.348, -13.93, 430.0], [-1.0, 0.0, 0.0, 0.0],[-1.0, 0.0, 1.0, 0.0], [9E+9, 9E+9, 9E9, 9E9, 9E9, 9E9]];
    CONST robtarget p_DrawEllipse_59 := [[1115.528, -16.377000000000002, 430.0], [-1.0, 0.0, 0.0, 0.0],[-1.0, 0.0, 1.0, 0.0], [9E+9, 9E+9, 9E9, 9E9, 9E9, 9E9]];
    CONST robtarget p_DrawEllipse_60 := [[1115.713, -18.635, 430.0], [-1.0, 0.0, 0.0, 0.0],[-1.0, 0.0, 1.0, 0.0], [9E+9, 9E+9, 9E9, 9E9, 9E9, 9E9]];
    CONST robtarget p_DrawEllipse_61 := [[1115.89, -20.619, 430.0], [-1.0, 0.0, 0.0, 0.0],[-1.0, 0.0, 1.0, 0.0], [9E+9, 9E+9, 9E9, 9E9, 9E9, 9E9]];
    CONST robtarget p_DrawEllipse_62 := [[1116.107, -22.816, 430.0], [-1.0, 0.0, 0.0, 0.0],[-1.0, 0.0, 1.0, 0.0], [9E+9, 9E+9, 9E9, 9E9, 9E9, 9E9]];
    CONST robtarget p_DrawEllipse_63 := [[1116.287, -24.429, 430.0], [-1.0, 0.0, 0.0, 0.0],[-1.0, 0.0, 1.0, 0.0], [9E+9, 9E+9, 9E9, 9E9, 9E9, 9E9]];
    CONST robtarget p_DrawEllipse_64 := [[1116.556, -26.544, 430.0], [-1.0, 0.0, 0.0, 0.0],[-1.0, 0.0, 1.0, 0.0], [9E+9, 9E+9, 9E9, 9E9, 9E9, 9E9]];
    CONST robtarget p_DrawEllipse_65 := [[1116.896, -28.691, 430.0], [-1.0, 0.0, 0.0, 0.0],[-1.0, 0.0, 1.0, 0.0], [9E+9, 9E+9, 9E9, 9E9, 9E9, 9E9]];
    CONST robtarget p_DrawEllipse_66 := [[1117.122, -29.816, 430.0], [-1.0, 0.0, 0.0, 0.0],[-1.0, 0.0, 1.0, 0.0], [9E+9, 9E+9, 9E9, 9E9, 9E9, 9E9]];
    CONST robtarget p_DrawEllipse_67 := [[1117.305, -29.954, 430.0], [-1.0, 0.0, 0.0, 0.0],[-1.0, 0.0, 1.0, 0.0], [9E+9, 9E+9, 9E9, 9E9, 9E9, 9E9]];
    CONST robtarget p_DrawEllipse_68 := [[1117.675, -29.968, 430.0], [-1.0, 0.0, 0.0, 0.0],[-1.0, 0.0, 1.0, 0.0], [9E+9, 9E+9, 9E9, 9E9, 9E9, 9E9]];
    CONST robtarget p_DrawEllipse_69 := [[1117.874, -29.823, 430.0], [-1.0, 0.0, 0.0, 0.0],[-1.0, 0.0, 1.0, 0.0], [9E+9, 9E+9, 9E9, 9E9, 9E9, 9E9]];
    CONST robtarget p_DrawEllipse_70 := [[1117.941, -29.534, 430.0], [-1.0, 0.0, 0.0, 0.0],[-1.0, 0.0, 1.0, 0.0], [9E+9, 9E+9, 9E9, 9E9, 9E9, 9E9]];
    CONST robtarget p_DrawEllipse_71 := [[1118.107, -28.675, 430.0], [-1.0, 0.0, 0.0, 0.0],[-1.0, 0.0, 1.0, 0.0], [9E+9, 9E+9, 9E9, 9E9, 9E9, 9E9]];
    CONST robtarget p_DrawEllipse_72 := [[1118.288, -27.589, 430.0], [-1.0, 0.0, 0.0, 0.0],[-1.0, 0.0, 1.0, 0.0], [9E+9, 9E+9, 9E9, 9E9, 9E9, 9E9]];
    CONST robtarget p_DrawEllipse_73 := [[1118.446, -26.499, 430.0], [-1.0, 0.0, 0.0, 0.0],[-1.0, 0.0, 1.0, 0.0], [9E+9, 9E+9, 9E9, 9E9, 9E9, 9E9]];
    CONST robtarget p_DrawEllipse_74 := [[1118.642, -24.992, 430.0], [-1.0, 0.0, 0.0, 0.0],[-1.0, 0.0, 1.0, 0.0], [9E+9, 9E+9, 9E9, 9E9, 9E9, 9E9]];
    CONST robtarget p_DrawEllipse_75 := [[1118.816, -23.486, 430.0], [-1.0, 0.0, 0.0, 0.0],[-1.0, 0.0, 1.0, 0.0], [9E+9, 9E+9, 9E9, 9E9, 9E9, 9E9]];
    CONST robtarget p_DrawEllipse_76 := [[1119.005, -21.663, 430.0], [-1.0, 0.0, 0.0, 0.0],[-1.0, 0.0, 1.0, 0.0], [9E+9, 9E+9, 9E9, 9E9, 9E9, 9E9]];
    CONST robtarget p_DrawEllipse_77 := [[1119.284, -18.588, 430.0], [-1.0, 0.0, 0.0, 0.0],[-1.0, 0.0, 1.0, 0.0], [9E+9, 9E+9, 9E9, 9E9, 9E9, 9E9]];
    CONST robtarget p_DrawEllipse_78 := [[1119.411, -17.025, 430.0], [-1.0, 0.0, 0.0, 0.0],[-1.0, 0.0, 1.0, 0.0], [9E+9, 9E+9, 9E9, 9E9, 9E9, 9E9]];
    CONST robtarget p_DrawEllipse_79 := [[1119.662, -13.674999999999997, 430.0], [-1.0, 0.0, 0.0, 0.0],[-1.0, 0.0, 1.0, 0.0], [9E+9, 9E+9, 9E9, 9E9, 9E9, 9E9]];
    CONST robtarget p_DrawEllipse_80 := [[1119.901, -10.033000000000001, 430.0], [-1.0, 0.0, 0.0, 0.0],[-1.0, 0.0, 1.0, 0.0], [9E+9, 9E+9, 9E9, 9E9, 9E9, 9E9]];
    CONST robtarget p_DrawEllipse_81 := [[1120.138, -5.939999999999998, 430.0], [-1.0, 0.0, 0.0, 0.0],[-1.0, 0.0, 1.0, 0.0], [9E+9, 9E+9, 9E9, 9E9, 9E9, 9E9]];
    CONST robtarget p_DrawEllipse_82 := [[1120.446, 0.2539999999999978, 430.0], [-1.0, 0.0, 0.0, 0.0],[-1.0, 0.0, 1.0, 0.0], [9E+9, 9E+9, 9E9, 9E9, 9E9, 9E9]];
    CONST robtarget p_DrawEllipse_83 := [[1120.825, 9.588999999999999, 430.0], [-1.0, 0.0, 0.0, 0.0],[-1.0, 0.0, 1.0, 0.0], [9E+9, 9E+9, 9E9, 9E9, 9E9, 9E9]];
    CONST robtarget p_DrawEllipse_84 := [[1121.028, 15.787999999999997, 430.0], [-1.0, 0.0, 0.0, 0.0],[-1.0, 0.0, 1.0, 0.0], [9E+9, 9E+9, 9E9, 9E9, 9E9, 9E9]];
    CONST robtarget p_DrawEllipse_85 := [[1121.282, 25.542, 430.0], [-1.0, 0.0, 0.0, 0.0],[-1.0, 0.0, 1.0, 0.0], [9E+9, 9E+9, 9E9, 9E9, 9E9, 9E9]];
    CONST robtarget p_DrawEllipse_86 := [[1121.443, 33.824, 430.0], [-1.0, 0.0, 0.0, 0.0],[-1.0, 0.0, 1.0, 0.0], [9E+9, 9E+9, 9E9, 9E9, 9E9, 9E9]];
    CONST robtarget p_DrawEllipse_87 := [[1121.526, 38.613, 430.0], [-1.0, 0.0, 0.0, 0.0],[-1.0, 0.0, 1.0, 0.0], [9E+9, 9E+9, 9E9, 9E9, 9E9, 9E9]];
    CONST robtarget p_DrawEllipse_88 := [[1121.629, 47.998000000000005, 430.0], [-1.0, 0.0, 0.0, 0.0],[-1.0, 0.0, 1.0, 0.0], [9E+9, 9E+9, 9E9, 9E9, 9E9, 9E9]];
    CONST robtarget p_DrawEllipse_89 := [[1121.699, 55.885000000000005, 430.0], [-1.0, 0.0, 0.0, 0.0],[-1.0, 0.0, 1.0, 0.0], [9E+9, 9E+9, 9E9, 9E9, 9E9, 9E9]];
    CONST robtarget p_DrawEllipse_90 := [[1121.736, 69.31, 430.0], [-1.0, 0.0, 0.0, 0.0],[-1.0, 0.0, 1.0, 0.0], [9E+9, 9E+9, 9E9, 9E9, 9E9, 9E9]];
    CONST robtarget p_DrawEllipse_91 := [[1121.657, 85.88499999999999, 430.0], [-1.0, 0.0, 0.0, 0.0],[-1.0, 0.0, 1.0, 0.0], [9E+9, 9E+9, 9E9, 9E9, 9E9, 9E9]];
    CONST robtarget p_DrawEllipse_92 := [[1121.5430000000001, 95.50299999999999, 430.0], [-1.0, 0.0, 0.0, 0.0],[-1.0, 0.0, 1.0, 0.0], [9E+9, 9E+9, 9E9, 9E9, 9E9, 9E9]];
    CONST robtarget p_DrawEllipse_93 := [[1121.383, 104.85400000000001, 430.0], [-1.0, 0.0, 0.0, 0.0],[-1.0, 0.0, 1.0, 0.0], [9E+9, 9E+9, 9E9, 9E9, 9E9, 9E9]];
    CONST robtarget p_DrawEllipse_94 := [[1121.1, 116.731, 430.0], [-1.0, 0.0, 0.0, 0.0],[-1.0, 0.0, 1.0, 0.0], [9E+9, 9E+9, 9E9, 9E9, 9E9, 9E9]];
    CONST robtarget p_DrawEllipse_95 := [[1120.739, 127.739, 430.0], [-1.0, 0.0, 0.0, 0.0],[-1.0, 0.0, 1.0, 0.0], [9E+9, 9E+9, 9E9, 9E9, 9E9, 9E9]];
    CONST robtarget p_DrawEllipse_96 := [[1120.461, 134.458, 430.0], [-1.0, 0.0, 0.0, 0.0],[-1.0, 0.0, 1.0, 0.0], [9E+9, 9E+9, 9E9, 9E9, 9E9, 9E9]];
    CONST robtarget p_DrawEllipse_97 := [[1120.313, 137.63, 430.0], [-1.0, 0.0, 0.0, 0.0],[-1.0, 0.0, 1.0, 0.0], [9E+9, 9E+9, 9E9, 9E9, 9E9, 9E9]];
    CONST robtarget p_DrawEllipse_98 := [[1119.995, 143.57, 430.0], [-1.0, 0.0, 0.0, 0.0],[-1.0, 0.0, 1.0, 0.0], [9E+9, 9E+9, 9E9, 9E9, 9E9, 9E9]];
    CONST robtarget p_DrawEllipse_99 := [[1119.825, 146.327, 430.0], [-1.0, 0.0, 0.0, 0.0],[-1.0, 0.0, 1.0, 0.0], [9E+9, 9E+9, 9E9, 9E9, 9E9, 9E9]];
    CONST robtarget p_DrawEllipse_100 := [[1119.651, 148.932, 430.0], [-1.0, 0.0, 0.0, 0.0],[-1.0, 0.0, 1.0, 0.0], [9E+9, 9E+9, 9E9, 9E9, 9E9, 9E9]];
    CONST robtarget p_DrawEllipse_101 := [[1119.471, 151.379, 430.0], [-1.0, 0.0, 0.0, 0.0],[-1.0, 0.0, 1.0, 0.0], [9E+9, 9E+9, 9E9, 9E9, 9E9, 9E9]];
    CONST robtarget p_DrawEllipse_102 := [[1119.287, 153.636, 430.0], [-1.0, 0.0, 0.0, 0.0],[-1.0, 0.0, 1.0, 0.0], [9E+9, 9E+9, 9E9, 9E9, 9E9, 9E9]];
    CONST robtarget p_DrawEllipse_103 := [[1119.11, 155.619, 430.0], [-1.0, 0.0, 0.0, 0.0],[-1.0, 0.0, 1.0, 0.0], [9E+9, 9E+9, 9E9, 9E9, 9E9, 9E9]];
    CONST robtarget p_DrawEllipse_104 := [[1118.893, 157.816, 430.0], [-1.0, 0.0, 0.0, 0.0],[-1.0, 0.0, 1.0, 0.0], [9E+9, 9E+9, 9E9, 9E9, 9E9, 9E9]];
    CONST robtarget p_DrawEllipse_105 := [[1118.713, 159.429, 430.0], [-1.0, 0.0, 0.0, 0.0],[-1.0, 0.0, 1.0, 0.0], [9E+9, 9E+9, 9E9, 9E9, 9E9, 9E9]];
    CONST robtarget p_DrawEllipse_106 := [[1118.444, 161.544, 430.0], [-1.0, 0.0, 0.0, 0.0],[-1.0, 0.0, 1.0, 0.0], [9E+9, 9E+9, 9E9, 9E9, 9E9, 9E9]];
    CONST robtarget p_DrawEllipse_107 := [[1118.107, 163.675, 430.0], [-1.0, 0.0, 0.0, 0.0],[-1.0, 0.0, 1.0, 0.0], [9E+9, 9E+9, 9E9, 9E9, 9E9, 9E9]];
    CONST robtarget p_DrawEllipse_108 := [[1117.949, 164.459, 430.0], [-1.0, 0.0, 0.0, 0.0],[-1.0, 0.0, 1.0, 0.0], [9E+9, 9E+9, 9E9, 9E9, 9E9, 9E9]];
    CONST robtarget p_DrawEllipse_109 := [[1117.87, 164.858, 430.0], [-1.0, 0.0, 0.0, 0.0],[-1.0, 0.0, 1.0, 0.0], [9E+9, 9E+9, 9E9, 9E9, 9E9, 9E9]];
    CONST robtarget p_DrawEllipse_110 := [[1118.346, 165.009, 430.0], [-1.0, 0.0, 0.0, 0.0],[-1.0, 0.0, 1.0, 0.0], [9E+9, 9E+9, 9E9, 9E9, 9E9, 9E9]];
    CONST robtarget p_DrawEllipse_111 := [[1118.47, 164.446, 430.0], [-1.0, 0.0, 0.0, 0.0],[-1.0, 0.0, 1.0, 0.0], [9E+9, 9E+9, 9E9, 9E9, 9E9, 9E9]];
    CONST robtarget p_DrawEllipse_112 := [[1118.705, 163.146, 430.0], [-1.0, 0.0, 0.0, 0.0],[-1.0, 0.0, 1.0, 0.0], [9E+9, 9E+9, 9E9, 9E9, 9E9, 9E9]];
    CONST robtarget p_DrawEllipse_113 := [[1118.95, 161.522, 430.0], [-1.0, 0.0, 0.0, 0.0],[-1.0, 0.0, 1.0, 0.0], [9E+9, 9E+9, 9E9, 9E9, 9E9, 9E9]];
    CONST robtarget p_DrawEllipse_114 := [[1119.164, 159.855, 430.0], [-1.0, 0.0, 0.0, 0.0],[-1.0, 0.0, 1.0, 0.0], [9E+9, 9E+9, 9E9, 9E9, 9E9, 9E9]];
    CONST robtarget p_DrawEllipse_115 := [[1119.389, 157.868, 430.0], [-1.0, 0.0, 0.0, 0.0],[-1.0, 0.0, 1.0, 0.0], [9E+9, 9E+9, 9E9, 9E9, 9E9, 9E9]];
    CONST robtarget p_DrawEllipse_116 := [[1119.615, 155.599, 430.0], [-1.0, 0.0, 0.0, 0.0],[-1.0, 0.0, 1.0, 0.0], [9E+9, 9E+9, 9E9, 9E9, 9E9, 9E9]];
    CONST robtarget p_DrawEllipse_117 := [[1119.8220000000001, 153.249, 430.0], [-1.0, 0.0, 0.0, 0.0],[-1.0, 0.0, 1.0, 0.0], [9E+9, 9E+9, 9E9, 9E9, 9E9, 9E9]];
    CONST robtarget p_DrawEllipse_118 := [[1120.0430000000001, 150.451, 430.0], [-1.0, 0.0, 0.0, 0.0],[-1.0, 0.0, 1.0, 0.0], [9E+9, 9E+9, 9E9, 9E9, 9E9, 9E9]];
    CONST robtarget p_DrawEllipse_119 := [[1120.228, 147.802, 430.0], [-1.0, 0.0, 0.0, 0.0],[-1.0, 0.0, 1.0, 0.0], [9E+9, 9E+9, 9E9, 9E9, 9E9, 9E9]];
    CONST robtarget p_DrawEllipse_120 := [[1120.422, 144.784, 430.0], [-1.0, 0.0, 0.0, 0.0],[-1.0, 0.0, 1.0, 0.0], [9E+9, 9E+9, 9E9, 9E9, 9E9, 9E9]];
    CONST robtarget p_DrawEllipse_121 := [[1120.606, 141.581, 430.0], [-1.0, 0.0, 0.0, 0.0],[-1.0, 0.0, 1.0, 0.0], [9E+9, 9E+9, 9E9, 9E9, 9E9, 9E9]];
    CONST robtarget p_DrawEllipse_122 := [[1120.786, 138.197, 430.0], [-1.0, 0.0, 0.0, 0.0],[-1.0, 0.0, 1.0, 0.0], [9E+9, 9E+9, 9E9, 9E9, 9E9, 9E9]];
    CONST robtarget p_DrawEllipse_123 := [[1121.114, 130.928, 430.0], [-1.0, 0.0, 0.0, 0.0],[-1.0, 0.0, 1.0, 0.0], [9E+9, 9E+9, 9E9, 9E9, 9E9, 9E9]];
    CONST robtarget p_DrawEllipse_124 := [[1121.404, 123.047, 430.0], [-1.0, 0.0, 0.0, 0.0],[-1.0, 0.0, 1.0, 0.0], [9E+9, 9E+9, 9E9, 9E9, 9E9, 9E9]];
    CONST robtarget p_DrawEllipse_125 := [[1121.658, 114.632, 430.0], [-1.0, 0.0, 0.0, 0.0],[-1.0, 0.0, 1.0, 0.0], [9E+9, 9E+9, 9E9, 9E9, 9E9, 9E9]];
    CONST robtarget p_DrawEllipse_126 := [[1121.956, 101.184, 430.0], [-1.0, 0.0, 0.0, 0.0],[-1.0, 0.0, 1.0, 0.0], [9E+9, 9E+9, 9E9, 9E9, 9E9, 9E9]];
    CONST robtarget p_DrawEllipse_127 := [[1122.152, 87.00399999999999, 430.0], [-1.0, 0.0, 0.0, 0.0],[-1.0, 0.0, 1.0, 0.0], [9E+9, 9E+9, 9E9, 9E9, 9E9, 9E9]];
    CONST robtarget p_DrawEllipse_128 := [[1122.245, 67.499, 430.0], [-1.0, 0.0, 0.0, 0.0],[-1.0, 0.0, 1.0, 0.0], [9E+9, 9E+9, 9E9, 9E9, 9E9, 9E9]];
    CONST robtarget p_DrawEllipse_129 := [[1122.195, 55.882000000000005, 430.0], [-1.0, 0.0, 0.0, 0.0],[-1.0, 0.0, 1.0, 0.0], [9E+9, 9E+9, 9E9, 9E9, 9E9, 9E9]];
    CONST robtarget p_DrawEllipse_130 := [[1122.146, 47.992000000000004, 430.0], [-1.0, 0.0, 0.0, 0.0],[-1.0, 0.0, 1.0, 0.0], [9E+9, 9E+9, 9E9, 9E9, 9E9, 9E9]];
    CONST robtarget p_DrawEllipse_131 := [[1122.026, 38.605999999999995, 430.0], [-1.0, 0.0, 0.0, 0.0],[-1.0, 0.0, 1.0, 0.0], [9E+9, 9E+9, 9E9, 9E9, 9E9, 9E9]];
    CONST robtarget p_DrawEllipse_132 := [[1121.953, 33.815, 430.0], [-1.0, 0.0, 0.0, 0.0],[-1.0, 0.0, 1.0, 0.0], [9E+9, 9E+9, 9E9, 9E9, 9E9, 9E9]];
    CONST robtarget p_DrawEllipse_133 := [[1121.778, 25.531000000000006, 430.0], [-1.0, 0.0, 0.0, 0.0],[-1.0, 0.0, 1.0, 0.0], [9E+9, 9E+9, 9E9, 9E9, 9E9, 9E9]];
    CONST robtarget p_DrawEllipse_134 := [[1121.657, 20.364999999999995, 430.0], [-1.0, 0.0, 0.0, 0.0],[-1.0, 0.0, 1.0, 0.0], [9E+9, 9E+9, 9E9, 9E9, 9E9, 9E9]];
    CONST robtarget p_DrawEllipse_135 := [[1121.406, 11.951, 430.0], [-1.0, 0.0, 0.0, 0.0],[-1.0, 0.0, 1.0, 0.0], [9E+9, 9E+9, 9E9, 9E9, 9E9, 9E9]];
    CONST robtarget p_DrawEllipse_136 := [[1121.112, 4.07, 430.0], [-1.0, 0.0, 0.0, 0.0],[-1.0, 0.0, 1.0, 0.0], [9E+9, 9E+9, 9E9, 9E9, 9E9, 9E9]];
    CONST robtarget p_DrawEllipse_137 := [[1120.783, -3.198999999999998, 430.0], [-1.0, 0.0, 0.0, 0.0],[-1.0, 0.0, 1.0, 0.0], [9E+9, 9E+9, 9E9, 9E9, 9E9, 9E9]];
    CONST robtarget p_DrawEllipse_138 := [[1120.606, -6.579000000000001, 430.0], [-1.0, 0.0, 0.0, 0.0],[-1.0, 0.0, 1.0, 0.0], [9E+9, 9E+9, 9E9, 9E9, 9E9, 9E9]];
    CONST robtarget p_DrawEllipse_139 := [[1120.42, -9.784999999999997, 430.0], [-1.0, 0.0, 0.0, 0.0],[-1.0, 0.0, 1.0, 0.0], [9E+9, 9E+9, 9E9, 9E9, 9E9, 9E9]];
    CONST robtarget p_DrawEllipse_140 := [[1120.225, -12.804000000000002, 430.0], [-1.0, 0.0, 0.0, 0.0],[-1.0, 0.0, 1.0, 0.0], [9E+9, 9E+9, 9E9, 9E9, 9E9, 9E9]];
    CONST robtarget p_DrawEllipse_141 := [[1120.037, -15.451999999999998, 430.0], [-1.0, 0.0, 0.0, 0.0],[-1.0, 0.0, 1.0, 0.0], [9E+9, 9E+9, 9E9, 9E9, 9E9, 9E9]];
    CONST robtarget p_DrawEllipse_142 := [[1119.819, -18.254, 430.0], [-1.0, 0.0, 0.0, 0.0],[-1.0, 0.0, 1.0, 0.0], [9E+9, 9E+9, 9E9, 9E9, 9E9, 9E9]];
    CONST robtarget p_DrawEllipse_143 := [[1119.605, -20.67, 430.0], [-1.0, 0.0, 0.0, 0.0],[-1.0, 0.0, 1.0, 0.0], [9E+9, 9E+9, 9E9, 9E9, 9E9, 9E9]];
    CONST robtarget p_DrawEllipse_144 := [[1119.387, -22.876, 430.0], [-1.0, 0.0, 0.0, 0.0],[-1.0, 0.0, 1.0, 0.0], [9E+9, 9E+9, 9E9, 9E9, 9E9, 9E9]];
    CONST robtarget p_DrawEllipse_145 := [[1119.163, -24.86, 430.0], [-1.0, 0.0, 0.0, 0.0],[-1.0, 0.0, 1.0, 0.0], [9E+9, 9E+9, 9E9, 9E9, 9E9, 9E9]];
    CONST robtarget p_DrawEllipse_146 := [[1118.934, -26.624, 430.0], [-1.0, 0.0, 0.0, 0.0],[-1.0, 0.0, 1.0, 0.0], [9E+9, 9E+9, 9E9, 9E9, 9E9, 9E9]];
    CONST robtarget p_DrawEllipse_147 := [[1118.703, -28.16, 430.0], [-1.0, 0.0, 0.0, 0.0],[-1.0, 0.0, 1.0, 0.0], [9E+9, 9E+9, 9E9, 9E9, 9E9, 9E9]];
    CONST robtarget p_DrawEllipse_148 := [[1118.469, -29.451, 430.0], [-1.0, 0.0, 0.0, 0.0],[-1.0, 0.0, 1.0, 0.0], [9E+9, 9E+9, 9E9, 9E9, 9E9, 9E9]];
    CONST robtarget p_DrawEllipse_149 := [[1118.362, -29.933, 430.0], [-1.0, 0.0, 0.0, 0.0],[-1.0, 0.0, 1.0, 0.0], [9E+9, 9E+9, 9E9, 9E9, 9E9, 9E9]];
    CONST robtarget p_DrawEllipse_150 := [[1118.286, -30.505, 430.0], [-1.0, 0.0, 0.0, 0.0],[-1.0, 0.0, 1.0, 0.0], [9E+9, 9E+9, 9E9, 9E9, 9E9, 9E9]];
    CONST robtarget p_DrawEllipse_151 := [[1118.04, -31.36, 430.0], [-1.0, 0.0, 0.0, 0.0],[-1.0, 0.0, 1.0, 0.0], [9E+9, 9E+9, 9E9, 9E9, 9E9, 9E9]];
    CONST robtarget p_DrawEllipse_152 := [[1117.811, -31.923, 430.0], [-1.0, 0.0, 0.0, 0.0],[-1.0, 0.0, 1.0, 0.0], [9E+9, 9E+9, 9E9, 9E9, 9E9, 9E9]];
    CONST robtarget p_DrawEllipse_153 := [[1117.599, -32.239000000000004, 430.0], [-1.0, 0.0, 0.0, 0.0],[-1.0, 0.0, 1.0, 0.0], [9E+9, 9E+9, 9E9, 9E9, 9E9, 9E9]];
    CONST robtarget p_DrawEllipse_154 := [[1117.5, -32.293, 430.0], [-1.0, 0.0, 0.0, 0.0],[-1.0, 0.0, 1.0, 0.0], [9E+9, 9E+9, 9E9, 9E9, 9E9, 9E9]];
    CONST robtarget p_DrawEllipse_155 := [[1117.401, -32.239000000000004, 430.0], [-1.0, 0.0, 0.0, 0.0],[-1.0, 0.0, 1.0, 0.0], [9E+9, 9E+9, 9E9, 9E9, 9E9, 9E9]];
    CONST robtarget p_DrawEllipse_156 := [[1117.189, -31.923, 430.0], [-1.0, 0.0, 0.0, 0.0],[-1.0, 0.0, 1.0, 0.0], [9E+9, 9E+9, 9E9, 9E9, 9E9, 9E9]];
    CONST robtarget p_DrawEllipse_157 := [[1116.96, -31.36, 430.0], [-1.0, 0.0, 0.0, 0.0],[-1.0, 0.0, 1.0, 0.0], [9E+9, 9E+9, 9E9, 9E9, 9E9, 9E9]];
    CONST robtarget p_DrawEllipse_158 := [[1116.715, -30.505, 430.0], [-1.0, 0.0, 0.0, 0.0],[-1.0, 0.0, 1.0, 0.0], [9E+9, 9E+9, 9E9, 9E9, 9E9, 9E9]];
    CONST robtarget p_DrawEllipse_159 := [[1116.632, -29.913, 430.0], [-1.0, 0.0, 0.0, 0.0],[-1.0, 0.0, 1.0, 0.0], [9E+9, 9E+9, 9E9, 9E9, 9E9, 9E9]];
    CONST robtarget p_DrawEllipse_160 := [[1116.53, -29.446, 430.0], [-1.0, 0.0, 0.0, 0.0],[-1.0, 0.0, 1.0, 0.0], [9E+9, 9E+9, 9E9, 9E9, 9E9, 9E9]];
    CONST robtarget p_DrawEllipse_161 := [[1116.295, -28.146, 430.0], [-1.0, 0.0, 0.0, 0.0],[-1.0, 0.0, 1.0, 0.0], [9E+9, 9E+9, 9E9, 9E9, 9E9, 9E9]];
    CONST robtarget p_DrawEllipse_162 := [[1116.05, -26.522, 430.0], [-1.0, 0.0, 0.0, 0.0],[-1.0, 0.0, 1.0, 0.0], [9E+9, 9E+9, 9E9, 9E9, 9E9, 9E9]];
    CONST robtarget p_DrawEllipse_163 := [[1115.836, -24.855, 430.0], [-1.0, 0.0, 0.0, 0.0],[-1.0, 0.0, 1.0, 0.0], [9E+9, 9E+9, 9E9, 9E9, 9E9, 9E9]];
    CONST robtarget p_DrawEllipse_164 := [[1115.611, -22.868, 430.0], [-1.0, 0.0, 0.0, 0.0],[-1.0, 0.0, 1.0, 0.0], [9E+9, 9E+9, 9E9, 9E9, 9E9, 9E9]];
    CONST robtarget p_DrawEllipse_165 := [[1115.385, -20.599, 430.0], [-1.0, 0.0, 0.0, 0.0],[-1.0, 0.0, 1.0, 0.0], [9E+9, 9E+9, 9E9, 9E9, 9E9, 9E9]];
    CONST robtarget p_DrawEllipse_166 := [[1115.1779999999999, -18.249, 430.0], [-1.0, 0.0, 0.0, 0.0],[-1.0, 0.0, 1.0, 0.0], [9E+9, 9E+9, 9E9, 9E9, 9E9, 9E9]];
    CONST robtarget p_DrawEllipse_167 := [[1114.9569999999999, -15.451, 430.0], [-1.0, 0.0, 0.0, 0.0],[-1.0, 0.0, 1.0, 0.0], [9E+9, 9E+9, 9E9, 9E9, 9E9, 9E9]];
    CONST robtarget p_DrawEllipse_168 := [[1114.772, -12.802, 430.0], [-1.0, 0.0, 0.0, 0.0],[-1.0, 0.0, 1.0, 0.0], [9E+9, 9E+9, 9E9, 9E9, 9E9, 9E9]];
    CONST robtarget p_DrawEllipse_169 := [[1114.578, -9.783999999999999, 430.0], [-1.0, 0.0, 0.0, 0.0],[-1.0, 0.0, 1.0, 0.0], [9E+9, 9E+9, 9E9, 9E9, 9E9, 9E9]];
    CONST robtarget p_DrawEllipse_170 := [[1114.394, -6.581000000000003, 430.0], [-1.0, 0.0, 0.0, 0.0],[-1.0, 0.0, 1.0, 0.0], [9E+9, 9E+9, 9E9, 9E9, 9E9, 9E9]];
    CONST robtarget p_DrawEllipse_171 := [[1114.215, -3.1970000000000027, 430.0], [-1.0, 0.0, 0.0, 0.0],[-1.0, 0.0, 1.0, 0.0], [9E+9, 9E+9, 9E9, 9E9, 9E9, 9E9]];
    CONST robtarget p_DrawEllipse_172 := [[1113.887, 4.072000000000003, 430.0], [-1.0, 0.0, 0.0, 0.0],[-1.0, 0.0, 1.0, 0.0], [9E+9, 9E+9, 9E9, 9E9, 9E9, 9E9]];
    CONST robtarget p_DrawEllipse_173 := [[1113.596, 11.953000000000003, 430.0], [-1.0, 0.0, 0.0, 0.0],[-1.0, 0.0, 1.0, 0.0], [9E+9, 9E+9, 9E9, 9E9, 9E9, 9E9]];
    CONST robtarget p_DrawEllipse_174 := [[1113.342, 20.367999999999995, 430.0], [-1.0, 0.0, 0.0, 0.0],[-1.0, 0.0, 1.0, 0.0], [9E+9, 9E+9, 9E9, 9E9, 9E9, 9E9]];
    CONST robtarget p_DrawEllipse_175 := [[1113.044, 33.816, 430.0], [-1.0, 0.0, 0.0, 0.0],[-1.0, 0.0, 1.0, 0.0], [9E+9, 9E+9, 9E9, 9E9, 9E9, 9E9]];
    CONST robtarget p_DrawEllipse_176 := [[1112.848, 47.995999999999995, 430.0], [-1.0, 0.0, 0.0, 0.0],[-1.0, 0.0, 1.0, 0.0], [9E+9, 9E+9, 9E9, 9E9, 9E9, 9E9]];
    CONST robtarget p_DrawEllipse_177 := [[1112.755, 67.501, 430.0], [-1.0, 0.0, 0.0, 0.0],[-1.0, 0.0, 1.0, 0.0], [9E+9, 9E+9, 9E9, 9E9, 9E9, 9E9]];
    CONST robtarget p_DrawEllipse_178 := [[1112.805, 79.118, 430.0], [-1.0, 0.0, 0.0, 0.0],[-1.0, 0.0, 1.0, 0.0], [9E+9, 9E+9, 9E9, 9E9, 9E9, 9E9]];
    CONST robtarget p_DrawEllipse_179 := [[1112.854, 87.00399999999999, 430.0], [-1.0, 0.0, 0.0, 0.0],[-1.0, 0.0, 1.0, 0.0], [9E+9, 9E+9, 9E9, 9E9, 9E9, 9E9]];
    CONST robtarget p_DrawEllipse_180 := [[1112.974, 96.39500000000001, 430.0], [-1.0, 0.0, 0.0, 0.0],[-1.0, 0.0, 1.0, 0.0], [9E+9, 9E+9, 9E9, 9E9, 9E9, 9E9]];
    CONST robtarget p_DrawEllipse_181 := [[1113.047, 101.18299999999999, 430.0], [-1.0, 0.0, 0.0, 0.0],[-1.0, 0.0, 1.0, 0.0], [9E+9, 9E+9, 9E9, 9E9, 9E9, 9E9]];
    CONST robtarget p_DrawEllipse_182 := [[1113.222, 109.47, 430.0], [-1.0, 0.0, 0.0, 0.0],[-1.0, 0.0, 1.0, 0.0], [9E+9, 9E+9, 9E9, 9E9, 9E9, 9E9]];
    CONST robtarget p_DrawEllipse_183 := [[1113.342, 114.63300000000001, 430.0], [-1.0, 0.0, 0.0, 0.0],[-1.0, 0.0, 1.0, 0.0], [9E+9, 9E+9, 9E9, 9E9, 9E9, 9E9]];
    CONST robtarget p_DrawEllipse_184 := [[1113.594, 123.047, 430.0], [-1.0, 0.0, 0.0, 0.0],[-1.0, 0.0, 1.0, 0.0], [9E+9, 9E+9, 9E9, 9E9, 9E9, 9E9]];
    CONST robtarget p_DrawEllipse_185 := [[1113.888, 130.926, 430.0], [-1.0, 0.0, 0.0, 0.0],[-1.0, 0.0, 1.0, 0.0], [9E+9, 9E+9, 9E9, 9E9, 9E9, 9E9]];
    CONST robtarget p_DrawEllipse_186 := [[1114.216, 138.195, 430.0], [-1.0, 0.0, 0.0, 0.0],[-1.0, 0.0, 1.0, 0.0], [9E+9, 9E+9, 9E9, 9E9, 9E9, 9E9]];
    CONST robtarget p_DrawEllipse_187 := [[1114.394, 141.579, 430.0], [-1.0, 0.0, 0.0, 0.0],[-1.0, 0.0, 1.0, 0.0], [9E+9, 9E+9, 9E9, 9E9, 9E9, 9E9]];
    CONST robtarget p_DrawEllipse_188 := [[1114.58, 144.783, 430.0], [-1.0, 0.0, 0.0, 0.0],[-1.0, 0.0, 1.0, 0.0], [9E+9, 9E+9, 9E9, 9E9, 9E9, 9E9]];
    CONST robtarget p_DrawEllipse_189 := [[1114.775, 147.802, 430.0], [-1.0, 0.0, 0.0, 0.0],[-1.0, 0.0, 1.0, 0.0], [9E+9, 9E+9, 9E9, 9E9, 9E9, 9E9]];
    CONST robtarget p_DrawEllipse_190 := [[1114.963, 150.452, 430.0], [-1.0, 0.0, 0.0, 0.0],[-1.0, 0.0, 1.0, 0.0], [9E+9, 9E+9, 9E9, 9E9, 9E9, 9E9]];
    CONST robtarget p_DrawEllipse_191 := [[1115.213, 153.631, 430.0], [-1.0, 0.0, 0.0, 0.0],[-1.0, 0.0, 1.0, 0.0], [9E+9, 9E+9, 9E9, 9E9, 9E9, 9E9]];
    CONST robtarget p_DrawEllipse_192 := [[1115.394, 155.668, 430.0], [-1.0, 0.0, 0.0, 0.0],[-1.0, 0.0, 1.0, 0.0], [9E+9, 9E+9, 9E9, 9E9, 9E9, 9E9]];
    CONST robtarget p_DrawEllipse_193 := [[1115.613, 157.87, 430.0], [-1.0, 0.0, 0.0, 0.0],[-1.0, 0.0, 1.0, 0.0], [9E+9, 9E+9, 9E9, 9E9, 9E9, 9E9]];
    CONST robtarget p_DrawEllipse_194 := [[1115.837, 159.857, 430.0], [-1.0, 0.0, 0.0, 0.0],[-1.0, 0.0, 1.0, 0.0], [9E+9, 9E+9, 9E9, 9E9, 9E9, 9E9]];
    CONST robtarget p_DrawEllipse_195 := [[1116.064, 161.616, 430.0], [-1.0, 0.0, 0.0, 0.0],[-1.0, 0.0, 1.0, 0.0], [9E+9, 9E+9, 9E9, 9E9, 9E9, 9E9]];
    CONST robtarget p_DrawEllipse_196 := [[1116.295, 163.152, 430.0], [-1.0, 0.0, 0.0, 0.0],[-1.0, 0.0, 1.0, 0.0], [9E+9, 9E+9, 9E9, 9E9, 9E9, 9E9]];
    CONST robtarget p_DrawEllipse_197 := [[1116.531, 164.45, 430.0], [-1.0, 0.0, 0.0, 0.0],[-1.0, 0.0, 1.0, 0.0], [9E+9, 9E+9, 9E9, 9E9, 9E9, 9E9]];
    CONST robtarget p_DrawEllipse_198 := [[1116.657, 165.015, 430.0], [-1.0, 0.0, 0.0, 0.0],[-1.0, 0.0, 1.0, 0.0], [9E+9, 9E+9, 9E9, 9E9, 9E9, 9E9]];
    CONST robtarget p_DrawEllipse_199 := [[1116.714, 165.505, 430.0], [-1.0, 0.0, 0.0, 0.0],[-1.0, 0.0, 1.0, 0.0], [9E+9, 9E+9, 9E9, 9E9, 9E9, 9E9]];
    CONST robtarget p_DrawEllipse_200 := [[1116.96, 166.36, 430.0], [-1.0, 0.0, 0.0, 0.0],[-1.0, 0.0, 1.0, 0.0], [9E+9, 9E+9, 9E9, 9E9, 9E9, 9E9]];
    CONST robtarget p_DrawEllipse_201 := [[1117.189, 166.923, 430.0], [-1.0, 0.0, 0.0, 0.0],[-1.0, 0.0, 1.0, 0.0], [9E+9, 9E+9, 9E9, 9E9, 9E9, 9E9]];
    CONST robtarget p_DrawEllipse_202 := [[1117.401, 167.239, 430.0], [-1.0, 0.0, 0.0, 0.0],[-1.0, 0.0, 1.0, 0.0], [9E+9, 9E+9, 9E9, 9E9, 9E9, 9E9]];
    CONST robtarget p_DrawEllipse_203 := [[1117.5, 167.293, 430.0], [-1.0, 0.0, 0.0, 0.0],[-1.0, 0.0, 1.0, 0.0], [9E+9, 9E+9, 9E9, 9E9, 9E9, 9E9]];
    CONST robtarget p_DrawEllipse_204 := [[1117.599, 167.239, 430.0], [-1.0, 0.0, 0.0, 0.0],[-1.0, 0.0, 1.0, 0.0], [9E+9, 9E+9, 9E9, 9E9, 9E9, 9E9]];
    CONST robtarget p_DrawEllipse_205 := [[1117.811, 166.923, 430.0], [-1.0, 0.0, 0.0, 0.0],[-1.0, 0.0, 1.0, 0.0], [9E+9, 9E+9, 9E9, 9E9, 9E9, 9E9]];
    CONST robtarget p_DrawEllipse_206 := [[1118.04, 166.36, 430.0], [-1.0, 0.0, 0.0, 0.0],[-1.0, 0.0, 1.0, 0.0], [9E+9, 9E+9, 9E9, 9E9, 9E9, 9E9]];
    CONST robtarget p_DrawEllipse_207 := [[1118.285, 165.506, 430.0], [-1.0, 0.0, 0.0, 0.0],[-1.0, 0.0, 1.0, 0.0], [9E+9, 9E+9, 9E9, 9E9, 9E9, 9E9]];
    CONST robtarget p_DrawEllipse_208 := [[1118.346, 165.009, 430.0], [-1.0, 0.0, 0.0, 0.0],[-1.0, 0.0, 1.0, 0.0], [9E+9, 9E+9, 9E9, 9E9, 9E9, 9E9]];
    CONST robtarget p_DrawEllipse_209 := [[1118.346, 165.009, 430.0], [-1.0, 0.0, 0.0, 0.0],[-1.0, 0.0, 1.0, 0.0], [9E+9, 9E+9, 9E9, 9E9, 9E9, 9E9]];

    PROC DrawEllipse()
        moveJ zcHome,v1000,fine,tool1\WObj:=wobj0;
        moveJ p_DrawEllipse_0,v100,fine,tool1\WObj:=wobj0;
        moveJ p_DrawEllipse_1,v5,fine,tool1\WObj:=wobj0;
        moveL p_DrawEllipse_2,v5,fine,tool1\WObj:=wobj0;
        moveL p_DrawEllipse_3,v5,fine,tool1\WObj:=wobj0;
        moveL p_DrawEllipse_4,v5,fine,tool1\WObj:=wobj0;
        moveL p_DrawEllipse_5,v5,fine,tool1\WObj:=wobj0;
        moveL p_DrawEllipse_6,v5,fine,tool1\WObj:=wobj0;
        moveL p_DrawEllipse_7,v5,fine,tool1\WObj:=wobj0;
        moveL p_DrawEllipse_8,v5,fine,tool1\WObj:=wobj0;
        moveL p_DrawEllipse_9,v5,fine,tool1\WObj:=wobj0;
        moveL p_DrawEllipse_10,v5,fine,tool1\WObj:=wobj0;
        moveL p_DrawEllipse_11,v5,fine,tool1\WObj:=wobj0;
        moveJ p_DrawEllipse_12,v5,fine,tool1\WObj:=wobj0;
        moveL p_DrawEllipse_13,v5,fine,tool1\WObj:=wobj0;
        moveJ p_DrawEllipse_14,v5,fine,tool1\WObj:=wobj0;
        moveL p_DrawEllipse_15,v5,fine,tool1\WObj:=wobj0;
        moveL p_DrawEllipse_16,v5,fine,tool1\WObj:=wobj0;
        moveL p_DrawEllipse_17,v5,fine,tool1\WObj:=wobj0;
        moveL p_DrawEllipse_18,v5,fine,tool1\WObj:=wobj0;
        moveL p_DrawEllipse_19,v5,fine,tool1\WObj:=wobj0;
        moveL p_DrawEllipse_20,v5,fine,tool1\WObj:=wobj0;
        moveL p_DrawEllipse_21,v5,fine,tool1\WObj:=wobj0;
        moveL p_DrawEllipse_22,v5,fine,tool1\WObj:=wobj0;
        moveL p_DrawEllipse_23,v5,fine,tool1\WObj:=wobj0;
        moveL p_DrawEllipse_24,v5,fine,tool1\WObj:=wobj0;
        moveL p_DrawEllipse_25,v5,fine,tool1\WObj:=wobj0;
        moveL p_DrawEllipse_26,v5,fine,tool1\WObj:=wobj0;
        moveL p_DrawEllipse_27,v5,fine,tool1\WObj:=wobj0;
        moveL p_DrawEllipse_28,v5,fine,tool1\WObj:=wobj0;
        moveL p_DrawEllipse_29,v5,fine,tool1\WObj:=wobj0;
        moveL p_DrawEllipse_30,v5,fine,tool1\WObj:=wobj0;
        moveL p_DrawEllipse_31,v5,fine,tool1\WObj:=wobj0;
        moveL p_DrawEllipse_32,v5,fine,tool1\WObj:=wobj0;
        moveL p_DrawEllipse_33,v5,fine,tool1\WObj:=wobj0;
        moveL p_DrawEllipse_34,v5,fine,tool1\WObj:=wobj0;
        moveL p_DrawEllipse_35,v5,fine,tool1\WObj:=wobj0;
        moveL p_DrawEllipse_36,v5,fine,tool1\WObj:=wobj0;
        moveL p_DrawEllipse_37,v5,fine,tool1\WObj:=wobj0;
        moveL p_DrawEllipse_38,v5,fine,tool1\WObj:=wobj0;
        moveL p_DrawEllipse_39,v5,fine,tool1\WObj:=wobj0;
        moveL p_DrawEllipse_40,v5,fine,tool1\WObj:=wobj0;
        moveL p_DrawEllipse_41,v5,fine,tool1\WObj:=wobj0;
        moveL p_DrawEllipse_42,v5,fine,tool1\WObj:=wobj0;
        moveL p_DrawEllipse_43,v5,fine,tool1\WObj:=wobj0;
        moveL p_DrawEllipse_44,v5,fine,tool1\WObj:=wobj0;
        moveL p_DrawEllipse_45,v5,fine,tool1\WObj:=wobj0;
        moveL p_DrawEllipse_46,v5,fine,tool1\WObj:=wobj0;
        moveL p_DrawEllipse_47,v5,fine,tool1\WObj:=wobj0;
        moveL p_DrawEllipse_48,v5,fine,tool1\WObj:=wobj0;
        moveL p_DrawEllipse_49,v5,fine,tool1\WObj:=wobj0;
        moveL p_DrawEllipse_50,v5,fine,tool1\WObj:=wobj0;
        moveL p_DrawEllipse_51,v5,fine,tool1\WObj:=wobj0;
        moveL p_DrawEllipse_52,v5,fine,tool1\WObj:=wobj0;
        moveL p_DrawEllipse_53,v5,fine,tool1\WObj:=wobj0;
        moveL p_DrawEllipse_54,v5,fine,tool1\WObj:=wobj0;
        moveL p_DrawEllipse_55,v5,fine,tool1\WObj:=wobj0;
        moveL p_DrawEllipse_56,v5,fine,tool1\WObj:=wobj0;
        moveL p_DrawEllipse_57,v5,fine,tool1\WObj:=wobj0;
        moveL p_DrawEllipse_58,v5,fine,tool1\WObj:=wobj0;
        moveL p_DrawEllipse_59,v5,fine,tool1\WObj:=wobj0;
        moveL p_DrawEllipse_60,v5,fine,tool1\WObj:=wobj0;
        moveL p_DrawEllipse_61,v5,fine,tool1\WObj:=wobj0;
        moveL p_DrawEllipse_62,v5,fine,tool1\WObj:=wobj0;
        moveL p_DrawEllipse_63,v5,fine,tool1\WObj:=wobj0;
        moveL p_DrawEllipse_64,v5,fine,tool1\WObj:=wobj0;
        moveL p_DrawEllipse_65,v5,fine,tool1\WObj:=wobj0;
        moveL p_DrawEllipse_66,v5,fine,tool1\WObj:=wobj0;
        moveL p_DrawEllipse_67,v5,fine,tool1\WObj:=wobj0;
        moveL p_DrawEllipse_68,v5,fine,tool1\WObj:=wobj0;
        moveL p_DrawEllipse_69,v5,fine,tool1\WObj:=wobj0;
        moveL p_DrawEllipse_70,v5,fine,tool1\WObj:=wobj0;
        moveL p_DrawEllipse_71,v5,fine,tool1\WObj:=wobj0;
        moveL p_DrawEllipse_72,v5,fine,tool1\WObj:=wobj0;
        moveL p_DrawEllipse_73,v5,fine,tool1\WObj:=wobj0;
        moveL p_DrawEllipse_74,v5,fine,tool1\WObj:=wobj0;
        moveL p_DrawEllipse_75,v5,fine,tool1\WObj:=wobj0;
        moveL p_DrawEllipse_76,v5,fine,tool1\WObj:=wobj0;
        moveL p_DrawEllipse_77,v5,fine,tool1\WObj:=wobj0;
        moveL p_DrawEllipse_78,v5,fine,tool1\WObj:=wobj0;
        moveL p_DrawEllipse_79,v5,fine,tool1\WObj:=wobj0;
        moveL p_DrawEllipse_80,v5,fine,tool1\WObj:=wobj0;
        moveL p_DrawEllipse_81,v5,fine,tool1\WObj:=wobj0;
        moveL p_DrawEllipse_82,v5,fine,tool1\WObj:=wobj0;
        moveL p_DrawEllipse_83,v5,fine,tool1\WObj:=wobj0;
        moveL p_DrawEllipse_84,v5,fine,tool1\WObj:=wobj0;
        moveL p_DrawEllipse_85,v5,fine,tool1\WObj:=wobj0;
        moveL p_DrawEllipse_86,v5,fine,tool1\WObj:=wobj0;
        moveL p_DrawEllipse_87,v5,fine,tool1\WObj:=wobj0;
        moveL p_DrawEllipse_88,v5,fine,tool1\WObj:=wobj0;
        moveL p_DrawEllipse_89,v5,fine,tool1\WObj:=wobj0;
        moveL p_DrawEllipse_90,v5,fine,tool1\WObj:=wobj0;
        moveL p_DrawEllipse_91,v5,fine,tool1\WObj:=wobj0;
        moveL p_DrawEllipse_92,v5,fine,tool1\WObj:=wobj0;
        moveL p_DrawEllipse_93,v5,fine,tool1\WObj:=wobj0;
        moveL p_DrawEllipse_94,v5,fine,tool1\WObj:=wobj0;
        moveL p_DrawEllipse_95,v5,fine,tool1\WObj:=wobj0;
        moveL p_DrawEllipse_96,v5,fine,tool1\WObj:=wobj0;
        moveL p_DrawEllipse_97,v5,fine,tool1\WObj:=wobj0;
        moveL p_DrawEllipse_98,v5,fine,tool1\WObj:=wobj0;
        moveL p_DrawEllipse_99,v5,fine,tool1\WObj:=wobj0;
        moveL p_DrawEllipse_100,v5,fine,tool1\WObj:=wobj0;
        moveL p_DrawEllipse_101,v5,fine,tool1\WObj:=wobj0;
        moveL p_DrawEllipse_102,v5,fine,tool1\WObj:=wobj0;
        moveL p_DrawEllipse_103,v5,fine,tool1\WObj:=wobj0;
        moveL p_DrawEllipse_104,v5,fine,tool1\WObj:=wobj0;
        moveL p_DrawEllipse_105,v5,fine,tool1\WObj:=wobj0;
        moveL p_DrawEllipse_106,v5,fine,tool1\WObj:=wobj0;
        moveL p_DrawEllipse_107,v5,fine,tool1\WObj:=wobj0;
        moveL p_DrawEllipse_108,v5,fine,tool1\WObj:=wobj0;
        moveL p_DrawEllipse_109,v5,fine,tool1\WObj:=wobj0;
        moveL p_DrawEllipse_110,v5,fine,tool1\WObj:=wobj0;
        moveL p_DrawEllipse_111,v5,fine,tool1\WObj:=wobj0;
        moveL p_DrawEllipse_112,v5,fine,tool1\WObj:=wobj0;
        moveL p_DrawEllipse_113,v5,fine,tool1\WObj:=wobj0;
        moveL p_DrawEllipse_114,v5,fine,tool1\WObj:=wobj0;
        moveL p_DrawEllipse_115,v5,fine,tool1\WObj:=wobj0;
        moveL p_DrawEllipse_116,v5,fine,tool1\WObj:=wobj0;
        moveL p_DrawEllipse_117,v5,fine,tool1\WObj:=wobj0;
        moveL p_DrawEllipse_118,v5,fine,tool1\WObj:=wobj0;
        moveL p_DrawEllipse_119,v5,fine,tool1\WObj:=wobj0;
        moveL p_DrawEllipse_120,v5,fine,tool1\WObj:=wobj0;
        moveL p_DrawEllipse_121,v5,fine,tool1\WObj:=wobj0;
        moveL p_DrawEllipse_122,v5,fine,tool1\WObj:=wobj0;
        moveL p_DrawEllipse_123,v5,fine,tool1\WObj:=wobj0;
        moveL p_DrawEllipse_124,v5,fine,tool1\WObj:=wobj0;
        moveL p_DrawEllipse_125,v5,fine,tool1\WObj:=wobj0;
        moveL p_DrawEllipse_126,v5,fine,tool1\WObj:=wobj0;
        moveL p_DrawEllipse_127,v5,fine,tool1\WObj:=wobj0;
        moveL p_DrawEllipse_128,v5,fine,tool1\WObj:=wobj0;
        moveL p_DrawEllipse_129,v5,fine,tool1\WObj:=wobj0;
        moveL p_DrawEllipse_130,v5,fine,tool1\WObj:=wobj0;
        moveL p_DrawEllipse_131,v5,fine,tool1\WObj:=wobj0;
        moveL p_DrawEllipse_132,v5,fine,tool1\WObj:=wobj0;
        moveL p_DrawEllipse_133,v5,fine,tool1\WObj:=wobj0;
        moveL p_DrawEllipse_134,v5,fine,tool1\WObj:=wobj0;
        moveL p_DrawEllipse_135,v5,fine,tool1\WObj:=wobj0;
        moveL p_DrawEllipse_136,v5,fine,tool1\WObj:=wobj0;
        moveL p_DrawEllipse_137,v5,fine,tool1\WObj:=wobj0;
        moveL p_DrawEllipse_138,v5,fine,tool1\WObj:=wobj0;
        moveL p_DrawEllipse_139,v5,fine,tool1\WObj:=wobj0;
        moveL p_DrawEllipse_140,v5,fine,tool1\WObj:=wobj0;
        moveL p_DrawEllipse_141,v5,fine,tool1\WObj:=wobj0;
        moveL p_DrawEllipse_142,v5,fine,tool1\WObj:=wobj0;
        moveL p_DrawEllipse_143,v5,fine,tool1\WObj:=wobj0;
        moveL p_DrawEllipse_144,v5,fine,tool1\WObj:=wobj0;
        moveL p_DrawEllipse_145,v5,fine,tool1\WObj:=wobj0;
        moveL p_DrawEllipse_146,v5,fine,tool1\WObj:=wobj0;
        moveL p_DrawEllipse_147,v5,fine,tool1\WObj:=wobj0;
        moveL p_DrawEllipse_148,v5,fine,tool1\WObj:=wobj0;
        moveL p_DrawEllipse_149,v5,fine,tool1\WObj:=wobj0;
        moveL p_DrawEllipse_150,v5,fine,tool1\WObj:=wobj0;
        moveL p_DrawEllipse_151,v5,fine,tool1\WObj:=wobj0;
        moveL p_DrawEllipse_152,v5,fine,tool1\WObj:=wobj0;
        moveL p_DrawEllipse_153,v5,fine,tool1\WObj:=wobj0;
        moveL p_DrawEllipse_154,v5,fine,tool1\WObj:=wobj0;
        moveL p_DrawEllipse_155,v5,fine,tool1\WObj:=wobj0;
        moveL p_DrawEllipse_156,v5,fine,tool1\WObj:=wobj0;
        moveL p_DrawEllipse_157,v5,fine,tool1\WObj:=wobj0;
        moveL p_DrawEllipse_158,v5,fine,tool1\WObj:=wobj0;
        moveL p_DrawEllipse_159,v5,fine,tool1\WObj:=wobj0;
        moveL p_DrawEllipse_160,v5,fine,tool1\WObj:=wobj0;
        moveL p_DrawEllipse_161,v5,fine,tool1\WObj:=wobj0;
        moveL p_DrawEllipse_162,v5,fine,tool1\WObj:=wobj0;
        moveL p_DrawEllipse_163,v5,fine,tool1\WObj:=wobj0;
        moveL p_DrawEllipse_164,v5,fine,tool1\WObj:=wobj0;
        moveL p_DrawEllipse_165,v5,fine,tool1\WObj:=wobj0;
        moveL p_DrawEllipse_166,v5,fine,tool1\WObj:=wobj0;
        moveL p_DrawEllipse_167,v5,fine,tool1\WObj:=wobj0;
        moveL p_DrawEllipse_168,v5,fine,tool1\WObj:=wobj0;
        moveL p_DrawEllipse_169,v5,fine,tool1\WObj:=wobj0;
        moveL p_DrawEllipse_170,v5,fine,tool1\WObj:=wobj0;
        moveL p_DrawEllipse_171,v5,fine,tool1\WObj:=wobj0;
        moveL p_DrawEllipse_172,v5,fine,tool1\WObj:=wobj0;
        moveL p_DrawEllipse_173,v5,fine,tool1\WObj:=wobj0;
        moveL p_DrawEllipse_174,v5,fine,tool1\WObj:=wobj0;
        moveL p_DrawEllipse_175,v5,fine,tool1\WObj:=wobj0;
        moveL p_DrawEllipse_176,v5,fine,tool1\WObj:=wobj0;
        moveL p_DrawEllipse_177,v5,fine,tool1\WObj:=wobj0;
        moveL p_DrawEllipse_178,v5,fine,tool1\WObj:=wobj0;
        moveL p_DrawEllipse_179,v5,fine,tool1\WObj:=wobj0;
        moveL p_DrawEllipse_180,v5,fine,tool1\WObj:=wobj0;
        moveL p_DrawEllipse_181,v5,fine,tool1\WObj:=wobj0;
        moveL p_DrawEllipse_182,v5,fine,tool1\WObj:=wobj0;
        moveL p_DrawEllipse_183,v5,fine,tool1\WObj:=wobj0;
        moveL p_DrawEllipse_184,v5,fine,tool1\WObj:=wobj0;
        moveL p_DrawEllipse_185,v5,fine,tool1\WObj:=wobj0;
        moveL p_DrawEllipse_186,v5,fine,tool1\WObj:=wobj0;
        moveL p_DrawEllipse_187,v5,fine,tool1\WObj:=wobj0;
        moveL p_DrawEllipse_188,v5,fine,tool1\WObj:=wobj0;
        moveL p_DrawEllipse_189,v5,fine,tool1\WObj:=wobj0;
        moveL p_DrawEllipse_190,v5,fine,tool1\WObj:=wobj0;
        moveL p_DrawEllipse_191,v5,fine,tool1\WObj:=wobj0;
        moveL p_DrawEllipse_192,v5,fine,tool1\WObj:=wobj0;
        moveL p_DrawEllipse_193,v5,fine,tool1\WObj:=wobj0;
        moveL p_DrawEllipse_194,v5,fine,tool1\WObj:=wobj0;
        moveL p_DrawEllipse_195,v5,fine,tool1\WObj:=wobj0;
        moveL p_DrawEllipse_196,v5,fine,tool1\WObj:=wobj0;
        moveL p_DrawEllipse_197,v5,fine,tool1\WObj:=wobj0;
        moveL p_DrawEllipse_198,v5,fine,tool1\WObj:=wobj0;
        moveL p_DrawEllipse_199,v5,fine,tool1\WObj:=wobj0;
        moveL p_DrawEllipse_200,v5,fine,tool1\WObj:=wobj0;
        moveL p_DrawEllipse_201,v5,fine,tool1\WObj:=wobj0;
        moveL p_DrawEllipse_202,v5,fine,tool1\WObj:=wobj0;
        moveL p_DrawEllipse_203,v5,fine,tool1\WObj:=wobj0;
        moveL p_DrawEllipse_204,v5,fine,tool1\WObj:=wobj0;
        moveL p_DrawEllipse_205,v5,fine,tool1\WObj:=wobj0;
        moveL p_DrawEllipse_206,v5,fine,tool1\WObj:=wobj0;
        moveL p_DrawEllipse_207,v5,fine,tool1\WObj:=wobj0;
        moveL p_DrawEllipse_208,v5,fine,tool1\WObj:=wobj0;
        moveL p_DrawEllipse_209,v100,fine,tool1\WObj:=wobj0;
        moveJ zcHome,v1000,fine,tool1\WObj:=wobj0;
    
    ENDPROC

ENDMODULE
