MODULE Logo
    PERS tooldata tool1:=[True,[[0, 0, 0],[0, 0, 1, 0]],[1,[0, 0, 1],[1, 0, 0, 0],0,0,0]];

    CONST robtarget zcHome := [[650.0, 0.0, 1000.0], [-1.0, 0.0, 0.0, 0.0],[-1.0, 0.0, 1.0, 0.0], [9E+9, 9E+9, 9E9, 9E9, 9E9, 9E9]];
    CONST robtarget p_DrawLogo_0 := [[1098.95, 84.119, 430.0], [-1.0, 0.0, 0.0, 0.0],[-1.0, 0.0, 1.0, 0.0], [9E+9, 9E+9, 9E9, 9E9, 9E9, 9E9]];
    CONST robtarget p_DrawLogo_1 := [[1098.95, 84.119, 430.0], [-1.0, 0.0, 0.0, 0.0],[-1.0, 0.0, 1.0, 0.0], [9E+9, 9E+9, 9E9, 9E9, 9E9, 9E9]];
    CONST robtarget p_DrawLogo_2 := [[1098.523, 83.936, 430.0], [-1.0, 0.0, 0.0, 0.0],[-1.0, 0.0, 1.0, 0.0], [9E+9, 9E+9, 9E9, 9E9, 9E9, 9E9]];
    CONST robtarget p_DrawLogo_3 := [[1098.324, 83.804, 430.0], [-1.0, 0.0, 0.0, 0.0],[-1.0, 0.0, 1.0, 0.0], [9E+9, 9E+9, 9E9, 9E9, 9E9, 9E9]];
    CONST robtarget p_DrawLogo_4 := [[1098.146, 83.60499999999999, 430.0], [-1.0, 0.0, 0.0, 0.0],[-1.0, 0.0, 1.0, 0.0], [9E+9, 9E+9, 9E9, 9E9, 9E9, 9E9]];
    CONST robtarget p_DrawLogo_5 := [[1097.973, 83.24799999999999, 430.0], [-1.0, 0.0, 0.0, 0.0],[-1.0, 0.0, 1.0, 0.0], [9E+9, 9E+9, 9E9, 9E9, 9E9, 9E9]];
    CONST robtarget p_DrawLogo_6 := [[1097.973, 39.003, 430.0], [-1.0, 0.0, 0.0, 0.0],[-1.0, 0.0, 1.0, 0.0], [9E+9, 9E+9, 9E9, 9E9, 9E9, 9E9]];
    CONST robtarget p_DrawLogo_7 := [[1089.351, 39.003, 430.0], [-1.0, 0.0, 0.0, 0.0],[-1.0, 0.0, 1.0, 0.0], [9E+9, 9E+9, 9E9, 9E9, 9E9, 9E9]];
    CONST robtarget p_DrawLogo_8 := [[1089.351, 95.917, 430.0], [-1.0, 0.0, 0.0, 0.0],[-1.0, 0.0, 1.0, 0.0], [9E+9, 9E+9, 9E9, 9E9, 9E9, 9E9]];
    CONST robtarget p_DrawLogo_9 := [[1096.628, 95.917, 430.0], [-1.0, 0.0, 0.0, 0.0],[-1.0, 0.0, 1.0, 0.0], [9E+9, 9E+9, 9E9, 9E9, 9E9, 9E9]];
    CONST robtarget p_DrawLogo_10 := [[1098.123, 95.65, 430.0], [-1.0, 0.0, 0.0, 0.0],[-1.0, 0.0, 1.0, 0.0], [9E+9, 9E+9, 9E9, 9E9, 9E9, 9E9]];
    CONST robtarget p_DrawLogo_11 := [[1099.656, 95.28399999999999, 430.0], [-1.0, 0.0, 0.0, 0.0],[-1.0, 0.0, 1.0, 0.0], [9E+9, 9E+9, 9E9, 9E9, 9E9, 9E9]];
    CONST robtarget p_DrawLogo_12 := [[1101.154, 94.83000000000001, 430.0], [-1.0, 0.0, 0.0, 0.0],[-1.0, 0.0, 1.0, 0.0], [9E+9, 9E+9, 9E9, 9E9, 9E9, 9E9]];
    CONST robtarget p_DrawLogo_13 := [[1102.621, 94.285, 430.0], [-1.0, 0.0, 0.0, 0.0],[-1.0, 0.0, 1.0, 0.0], [9E+9, 9E+9, 9E9, 9E9, 9E9, 9E9]];
    CONST robtarget p_DrawLogo_14 := [[1104.062, 93.643, 430.0], [-1.0, 0.0, 0.0, 0.0],[-1.0, 0.0, 1.0, 0.0], [9E+9, 9E+9, 9E9, 9E9, 9E9, 9E9]];
    CONST robtarget p_DrawLogo_15 := [[1105.443, 92.91900000000001, 430.0], [-1.0, 0.0, 0.0, 0.0],[-1.0, 0.0, 1.0, 0.0], [9E+9, 9E+9, 9E9, 9E9, 9E9, 9E9]];
    CONST robtarget p_DrawLogo_16 := [[1106.797, 92.09899999999999, 430.0], [-1.0, 0.0, 0.0, 0.0],[-1.0, 0.0, 1.0, 0.0], [9E+9, 9E+9, 9E9, 9E9, 9E9, 9E9]];
    CONST robtarget p_DrawLogo_17 := [[1108.12, 91.18299999999999, 430.0], [-1.0, 0.0, 0.0, 0.0],[-1.0, 0.0, 1.0, 0.0], [9E+9, 9E+9, 9E9, 9E9, 9E9, 9E9]];
    CONST robtarget p_DrawLogo_18 := [[1109.381, 90.195, 430.0], [-1.0, 0.0, 0.0, 0.0],[-1.0, 0.0, 1.0, 0.0], [9E+9, 9E+9, 9E9, 9E9, 9E9, 9E9]];
    CONST robtarget p_DrawLogo_19 := [[1110.59, 89.132, 430.0], [-1.0, 0.0, 0.0, 0.0],[-1.0, 0.0, 1.0, 0.0], [9E+9, 9E+9, 9E9, 9E9, 9E9, 9E9]];
    CONST robtarget p_DrawLogo_20 := [[1111.745, 88.00200000000001, 430.0], [-1.0, 0.0, 0.0, 0.0],[-1.0, 0.0, 1.0, 0.0], [9E+9, 9E+9, 9E9, 9E9, 9E9, 9E9]];
    CONST robtarget p_DrawLogo_21 := [[1112.84, 86.81, 430.0], [-1.0, 0.0, 0.0, 0.0],[-1.0, 0.0, 1.0, 0.0], [9E+9, 9E+9, 9E9, 9E9, 9E9, 9E9]];
    CONST robtarget p_DrawLogo_22 := [[1113.875, 85.564, 430.0], [-1.0, 0.0, 0.0, 0.0],[-1.0, 0.0, 1.0, 0.0], [9E+9, 9E+9, 9E9, 9E9, 9E9, 9E9]];
    CONST robtarget p_DrawLogo_23 := [[1114.854, 84.262, 430.0], [-1.0, 0.0, 0.0, 0.0],[-1.0, 0.0, 1.0, 0.0], [9E+9, 9E+9, 9E9, 9E9, 9E9, 9E9]];
    CONST robtarget p_DrawLogo_24 := [[1115.778, 82.91, 430.0], [-1.0, 0.0, 0.0, 0.0],[-1.0, 0.0, 1.0, 0.0], [9E+9, 9E+9, 9E9, 9E9, 9E9, 9E9]];
    CONST robtarget p_DrawLogo_25 := [[1116.714, 81.412, 430.0], [-1.0, 0.0, 0.0, 0.0],[-1.0, 0.0, 1.0, 0.0], [9E+9, 9E+9, 9E9, 9E9, 9E9, 9E9]];
    CONST robtarget p_DrawLogo_26 := [[1116.97, 81.18, 430.0], [-1.0, 0.0, 0.0, 0.0],[-1.0, 0.0, 1.0, 0.0], [9E+9, 9E+9, 9E9, 9E9, 9E9, 9E9]];
    CONST robtarget p_DrawLogo_27 := [[1117.176, 81.08099999999999, 430.0], [-1.0, 0.0, 0.0, 0.0],[-1.0, 0.0, 1.0, 0.0], [9E+9, 9E+9, 9E9, 9E9, 9E9, 9E9]];
    CONST robtarget p_DrawLogo_28 := [[1117.4, 81.03200000000001, 430.0], [-1.0, 0.0, 0.0, 0.0],[-1.0, 0.0, 1.0, 0.0], [9E+9, 9E+9, 9E9, 9E9, 9E9, 9E9]];
    CONST robtarget p_DrawLogo_29 := [[1117.734, 81.053, 430.0], [-1.0, 0.0, 0.0, 0.0],[-1.0, 0.0, 1.0, 0.0], [9E+9, 9E+9, 9E9, 9E9, 9E9, 9E9]];
    CONST robtarget p_DrawLogo_30 := [[1118.116, 81.23500000000001, 430.0], [-1.0, 0.0, 0.0, 0.0],[-1.0, 0.0, 1.0, 0.0], [9E+9, 9E+9, 9E9, 9E9, 9E9, 9E9]];
    CONST robtarget p_DrawLogo_31 := [[1118.296, 81.417, 430.0], [-1.0, 0.0, 0.0, 0.0],[-1.0, 0.0, 1.0, 0.0], [9E+9, 9E+9, 9E9, 9E9, 9E9, 9E9]];
    CONST robtarget p_DrawLogo_32 := [[1118.976, 82.505, 430.0], [-1.0, 0.0, 0.0, 0.0],[-1.0, 0.0, 1.0, 0.0], [9E+9, 9E+9, 9E9, 9E9, 9E9, 9E9]];
    CONST robtarget p_DrawLogo_33 := [[1119.545, 83.38300000000001, 430.0], [-1.0, 0.0, 0.0, 0.0],[-1.0, 0.0, 1.0, 0.0], [9E+9, 9E+9, 9E9, 9E9, 9E9, 9E9]];
    CONST robtarget p_DrawLogo_34 := [[1120.231, 84.382, 430.0], [-1.0, 0.0, 0.0, 0.0],[-1.0, 0.0, 1.0, 0.0], [9E+9, 9E+9, 9E9, 9E9, 9E9, 9E9]];
    CONST robtarget p_DrawLogo_35 := [[1120.814, 85.18799999999999, 430.0], [-1.0, 0.0, 0.0, 0.0],[-1.0, 0.0, 1.0, 0.0], [9E+9, 9E+9, 9E9, 9E9, 9E9, 9E9]];
    CONST robtarget p_DrawLogo_36 := [[1121.409, 85.96600000000001, 430.0], [-1.0, 0.0, 0.0, 0.0],[-1.0, 0.0, 1.0, 0.0], [9E+9, 9E+9, 9E9, 9E9, 9E9, 9E9]];
    CONST robtarget p_DrawLogo_37 := [[1122.012, 86.70500000000001, 430.0], [-1.0, 0.0, 0.0, 0.0],[-1.0, 0.0, 1.0, 0.0], [9E+9, 9E+9, 9E9, 9E9, 9E9, 9E9]];
    CONST robtarget p_DrawLogo_38 := [[1122.628, 87.41300000000001, 430.0], [-1.0, 0.0, 0.0, 0.0],[-1.0, 0.0, 1.0, 0.0], [9E+9, 9E+9, 9E9, 9E9, 9E9, 9E9]];
    CONST robtarget p_DrawLogo_39 := [[1123.156, 87.969, 430.0], [-1.0, 0.0, 0.0, 0.0],[-1.0, 0.0, 1.0, 0.0], [9E+9, 9E+9, 9E9, 9E9, 9E9, 9E9]];
    CONST robtarget p_DrawLogo_40 := [[1123.781, 88.59899999999999, 430.0], [-1.0, 0.0, 0.0, 0.0],[-1.0, 0.0, 1.0, 0.0], [9E+9, 9E+9, 9E9, 9E9, 9E9, 9E9]];
    CONST robtarget p_DrawLogo_41 := [[1124.365, 89.13900000000001, 430.0], [-1.0, 0.0, 0.0, 0.0],[-1.0, 0.0, 1.0, 0.0], [9E+9, 9E+9, 9E9, 9E9, 9E9, 9E9]];
    CONST robtarget p_DrawLogo_42 := [[1124.968, 89.66, 430.0], [-1.0, 0.0, 0.0, 0.0],[-1.0, 0.0, 1.0, 0.0], [9E+9, 9E+9, 9E9, 9E9, 9E9, 9E9]];
    CONST robtarget p_DrawLogo_43 := [[1125.555, 90.13399999999999, 430.0], [-1.0, 0.0, 0.0, 0.0],[-1.0, 0.0, 1.0, 0.0], [9E+9, 9E+9, 9E9, 9E9, 9E9, 9E9]];
    CONST robtarget p_DrawLogo_44 := [[1126.809, 91.064, 430.0], [-1.0, 0.0, 0.0, 0.0],[-1.0, 0.0, 1.0, 0.0], [9E+9, 9E+9, 9E9, 9E9, 9E9, 9E9]];
    CONST robtarget p_DrawLogo_45 := [[1128.103, 91.93700000000001, 430.0], [-1.0, 0.0, 0.0, 0.0],[-1.0, 0.0, 1.0, 0.0], [9E+9, 9E+9, 9E9, 9E9, 9E9, 9E9]];
    CONST robtarget p_DrawLogo_46 := [[1129.451, 92.77699999999999, 430.0], [-1.0, 0.0, 0.0, 0.0],[-1.0, 0.0, 1.0, 0.0], [9E+9, 9E+9, 9E9, 9E9, 9E9, 9E9]];
    CONST robtarget p_DrawLogo_47 := [[1130.883, 93.588, 430.0], [-1.0, 0.0, 0.0, 0.0],[-1.0, 0.0, 1.0, 0.0], [9E+9, 9E+9, 9E9, 9E9, 9E9, 9E9]];
    CONST robtarget p_DrawLogo_48 := [[1131.624, 93.971, 430.0], [-1.0, 0.0, 0.0, 0.0],[-1.0, 0.0, 1.0, 0.0], [9E+9, 9E+9, 9E9, 9E9, 9E9, 9E9]];
    CONST robtarget p_DrawLogo_49 := [[1132.375, 94.33000000000001, 430.0], [-1.0, 0.0, 0.0, 0.0],[-1.0, 0.0, 1.0, 0.0], [9E+9, 9E+9, 9E9, 9E9, 9E9, 9E9]];
    CONST robtarget p_DrawLogo_50 := [[1133.132, 94.65799999999999, 430.0], [-1.0, 0.0, 0.0, 0.0],[-1.0, 0.0, 1.0, 0.0], [9E+9, 9E+9, 9E9, 9E9, 9E9, 9E9]];
    CONST robtarget p_DrawLogo_51 := [[1133.9279999999999, 94.96799999999999, 430.0], [-1.0, 0.0, 0.0, 0.0],[-1.0, 0.0, 1.0, 0.0], [9E+9, 9E+9, 9E9, 9E9, 9E9, 9E9]];
    CONST robtarget p_DrawLogo_52 := [[1134.81, 95.267, 430.0], [-1.0, 0.0, 0.0, 0.0],[-1.0, 0.0, 1.0, 0.0], [9E+9, 9E+9, 9E9, 9E9, 9E9, 9E9]];
    CONST robtarget p_DrawLogo_53 := [[1135.54, 95.471, 430.0], [-1.0, 0.0, 0.0, 0.0],[-1.0, 0.0, 1.0, 0.0], [9E+9, 9E+9, 9E9, 9E9, 9E9, 9E9]];
    CONST robtarget p_DrawLogo_54 := [[1136.374, 95.672, 430.0], [-1.0, 0.0, 0.0, 0.0],[-1.0, 0.0, 1.0, 0.0], [9E+9, 9E+9, 9E9, 9E9, 9E9, 9E9]];
    CONST robtarget p_DrawLogo_55 := [[1137.2359999999999, 95.83699999999999, 430.0], [-1.0, 0.0, 0.0, 0.0],[-1.0, 0.0, 1.0, 0.0], [9E+9, 9E+9, 9E9, 9E9, 9E9, 9E9]];
    CONST robtarget p_DrawLogo_56 := [[1138.093, 95.959, 430.0], [-1.0, 0.0, 0.0, 0.0],[-1.0, 0.0, 1.0, 0.0], [9E+9, 9E+9, 9E9, 9E9, 9E9, 9E9]];
    CONST robtarget p_DrawLogo_57 := [[1138.9859999999999, 96.04499999999999, 430.0], [-1.0, 0.0, 0.0, 0.0],[-1.0, 0.0, 1.0, 0.0], [9E+9, 9E+9, 9E9, 9E9, 9E9, 9E9]];
    CONST robtarget p_DrawLogo_58 := [[1139.915, 96.094, 430.0], [-1.0, 0.0, 0.0, 0.0],[-1.0, 0.0, 1.0, 0.0], [9E+9, 9E+9, 9E9, 9E9, 9E9, 9E9]];
    CONST robtarget p_DrawLogo_59 := [[1140.886, 96.10499999999999, 430.0], [-1.0, 0.0, 0.0, 0.0],[-1.0, 0.0, 1.0, 0.0], [9E+9, 9E+9, 9E9, 9E9, 9E9, 9E9]];
    CONST robtarget p_DrawLogo_60 := [[1145.649, 96.096, 430.0], [-1.0, 0.0, 0.0, 0.0],[-1.0, 0.0, 1.0, 0.0], [9E+9, 9E+9, 9E9, 9E9, 9E9, 9E9]];
    CONST robtarget p_DrawLogo_61 := [[1145.55, 38.897000000000006, 430.0], [-1.0, 0.0, 0.0, 0.0],[-1.0, 0.0, 1.0, 0.0], [9E+9, 9E+9, 9E9, 9E9, 9E9, 9E9]];
    CONST robtarget p_DrawLogo_62 := [[1136.894, 38.92100000000001, 430.0], [-1.0, 0.0, 0.0, 0.0],[-1.0, 0.0, 1.0, 0.0], [9E+9, 9E+9, 9E9, 9E9, 9E9, 9E9]];
    CONST robtarget p_DrawLogo_63 := [[1136.894, 83.21600000000001, 430.0], [-1.0, 0.0, 0.0, 0.0],[-1.0, 0.0, 1.0, 0.0], [9E+9, 9E+9, 9E9, 9E9, 9E9, 9E9]];
    CONST robtarget p_DrawLogo_64 := [[1136.795, 83.525, 430.0], [-1.0, 0.0, 0.0, 0.0],[-1.0, 0.0, 1.0, 0.0], [9E+9, 9E+9, 9E9, 9E9, 9E9, 9E9]];
    CONST robtarget p_DrawLogo_65 := [[1136.6399999999999, 83.757, 430.0], [-1.0, 0.0, 0.0, 0.0],[-1.0, 0.0, 1.0, 0.0], [9E+9, 9E+9, 9E9, 9E9, 9E9, 9E9]];
    CONST robtarget p_DrawLogo_66 := [[1136.449, 83.922, 430.0], [-1.0, 0.0, 0.0, 0.0],[-1.0, 0.0, 1.0, 0.0], [9E+9, 9E+9, 9E9, 9E9, 9E9, 9E9]];
    CONST robtarget p_DrawLogo_67 := [[1136.058, 84.076, 430.0], [-1.0, 0.0, 0.0, 0.0],[-1.0, 0.0, 1.0, 0.0], [9E+9, 9E+9, 9E9, 9E9, 9E9, 9E9]];
    CONST robtarget p_DrawLogo_68 := [[1135.199, 84.13300000000001, 430.0], [-1.0, 0.0, 0.0, 0.0],[-1.0, 0.0, 1.0, 0.0], [9E+9, 9E+9, 9E9, 9E9, 9E9, 9E9]];
    CONST robtarget p_DrawLogo_69 := [[1134.466, 84.10499999999999, 430.0], [-1.0, 0.0, 0.0, 0.0],[-1.0, 0.0, 1.0, 0.0], [9E+9, 9E+9, 9E9, 9E9, 9E9, 9E9]];
    CONST robtarget p_DrawLogo_70 := [[1133.755, 84.005, 430.0], [-1.0, 0.0, 0.0, 0.0],[-1.0, 0.0, 1.0, 0.0], [9E+9, 9E+9, 9E9, 9E9, 9E9, 9E9]];
    CONST robtarget p_DrawLogo_71 := [[1132.991, 83.826, 430.0], [-1.0, 0.0, 0.0, 0.0],[-1.0, 0.0, 1.0, 0.0], [9E+9, 9E+9, 9E9, 9E9, 9E9, 9E9]];
    CONST robtarget p_DrawLogo_72 := [[1132.145, 83.536, 430.0], [-1.0, 0.0, 0.0, 0.0],[-1.0, 0.0, 1.0, 0.0], [9E+9, 9E+9, 9E9, 9E9, 9E9, 9E9]];
    CONST robtarget p_DrawLogo_73 := [[1131.4279999999999, 83.214, 430.0], [-1.0, 0.0, 0.0, 0.0],[-1.0, 0.0, 1.0, 0.0], [9E+9, 9E+9, 9E9, 9E9, 9E9, 9E9]];
    CONST robtarget p_DrawLogo_74 := [[1130.68, 82.797, 430.0], [-1.0, 0.0, 0.0, 0.0],[-1.0, 0.0, 1.0, 0.0], [9E+9, 9E+9, 9E9, 9E9, 9E9, 9E9]];
    CONST robtarget p_DrawLogo_75 := [[1129.93, 82.29599999999999, 430.0], [-1.0, 0.0, 0.0, 0.0],[-1.0, 0.0, 1.0, 0.0], [9E+9, 9E+9, 9E9, 9E9, 9E9, 9E9]];
    CONST robtarget p_DrawLogo_76 := [[1129.215, 81.738, 430.0], [-1.0, 0.0, 0.0, 0.0],[-1.0, 0.0, 1.0, 0.0], [9E+9, 9E+9, 9E9, 9E9, 9E9, 9E9]];
    CONST robtarget p_DrawLogo_77 := [[1128.563, 81.15100000000001, 430.0], [-1.0, 0.0, 0.0, 0.0],[-1.0, 0.0, 1.0, 0.0], [9E+9, 9E+9, 9E9, 9E9, 9E9, 9E9]];
    CONST robtarget p_DrawLogo_78 := [[1127.849, 80.411, 430.0], [-1.0, 0.0, 0.0, 0.0],[-1.0, 0.0, 1.0, 0.0], [9E+9, 9E+9, 9E9, 9E9, 9E9, 9E9]];
    CONST robtarget p_DrawLogo_79 := [[1127.233, 79.68100000000001, 430.0], [-1.0, 0.0, 0.0, 0.0],[-1.0, 0.0, 1.0, 0.0], [9E+9, 9E+9, 9E9, 9E9, 9E9, 9E9]];
    CONST robtarget p_DrawLogo_80 := [[1126.603, 78.833, 430.0], [-1.0, 0.0, 0.0, 0.0],[-1.0, 0.0, 1.0, 0.0], [9E+9, 9E+9, 9E9, 9E9, 9E9, 9E9]];
    CONST robtarget p_DrawLogo_81 := [[1126.027, 77.937, 430.0], [-1.0, 0.0, 0.0, 0.0],[-1.0, 0.0, 1.0, 0.0], [9E+9, 9E+9, 9E9, 9E9, 9E9, 9E9]];
    CONST robtarget p_DrawLogo_82 := [[1125.481, 76.965, 430.0], [-1.0, 0.0, 0.0, 0.0],[-1.0, 0.0, 1.0, 0.0], [9E+9, 9E+9, 9E9, 9E9, 9E9, 9E9]];
    CONST robtarget p_DrawLogo_83 := [[1124.983, 75.941, 430.0], [-1.0, 0.0, 0.0, 0.0],[-1.0, 0.0, 1.0, 0.0], [9E+9, 9E+9, 9E9, 9E9, 9E9, 9E9]];
    CONST robtarget p_DrawLogo_84 := [[1124.535, 74.882, 430.0], [-1.0, 0.0, 0.0, 0.0],[-1.0, 0.0, 1.0, 0.0], [9E+9, 9E+9, 9E9, 9E9, 9E9, 9E9]];
    CONST robtarget p_DrawLogo_85 := [[1124.14, 73.795, 430.0], [-1.0, 0.0, 0.0, 0.0],[-1.0, 0.0, 1.0, 0.0], [9E+9, 9E+9, 9E9, 9E9, 9E9, 9E9]];
    CONST robtarget p_DrawLogo_86 := [[1123.779, 72.643, 430.0], [-1.0, 0.0, 0.0, 0.0],[-1.0, 0.0, 1.0, 0.0], [9E+9, 9E+9, 9E9, 9E9, 9E9, 9E9]];
    CONST robtarget p_DrawLogo_87 := [[1123.461, 71.465, 430.0], [-1.0, 0.0, 0.0, 0.0],[-1.0, 0.0, 1.0, 0.0], [9E+9, 9E+9, 9E9, 9E9, 9E9, 9E9]];
    CONST robtarget p_DrawLogo_88 := [[1123.183, 70.26, 430.0], [-1.0, 0.0, 0.0, 0.0],[-1.0, 0.0, 1.0, 0.0], [9E+9, 9E+9, 9E9, 9E9, 9E9, 9E9]];
    CONST robtarget p_DrawLogo_89 := [[1122.94, 69.025, 430.0], [-1.0, 0.0, 0.0, 0.0],[-1.0, 0.0, 1.0, 0.0], [9E+9, 9E+9, 9E9, 9E9, 9E9, 9E9]];
    CONST robtarget p_DrawLogo_90 := [[1122.73, 67.774, 430.0], [-1.0, 0.0, 0.0, 0.0],[-1.0, 0.0, 1.0, 0.0], [9E+9, 9E+9, 9E9, 9E9, 9E9, 9E9]];
    CONST robtarget p_DrawLogo_91 := [[1122.547, 66.485, 430.0], [-1.0, 0.0, 0.0, 0.0],[-1.0, 0.0, 1.0, 0.0], [9E+9, 9E+9, 9E9, 9E9, 9E9, 9E9]];
    CONST robtarget p_DrawLogo_92 := [[1122.411, 65.336, 430.0], [-1.0, 0.0, 0.0, 0.0],[-1.0, 0.0, 1.0, 0.0], [9E+9, 9E+9, 9E9, 9E9, 9E9, 9E9]];
    CONST robtarget p_DrawLogo_93 := [[1122.268, 63.876000000000005, 430.0], [-1.0, 0.0, 0.0, 0.0],[-1.0, 0.0, 1.0, 0.0], [9E+9, 9E+9, 9E9, 9E9, 9E9, 9E9]];
    CONST robtarget p_DrawLogo_94 := [[1122.162, 62.540000000000006, 430.0], [-1.0, 0.0, 0.0, 0.0],[-1.0, 0.0, 1.0, 0.0], [9E+9, 9E+9, 9E9, 9E9, 9E9, 9E9]];
    CONST robtarget p_DrawLogo_95 := [[1122.07, 61.016999999999996, 430.0], [-1.0, 0.0, 0.0, 0.0],[-1.0, 0.0, 1.0, 0.0], [9E+9, 9E+9, 9E9, 9E9, 9E9, 9E9]];
    CONST robtarget p_DrawLogo_96 := [[1121.986, 58.479, 430.0], [-1.0, 0.0, 0.0, 0.0],[-1.0, 0.0, 1.0, 0.0], [9E+9, 9E+9, 9E9, 9E9, 9E9, 9E9]];
    CONST robtarget p_DrawLogo_97 := [[1121.975, 52.45, 430.0], [-1.0, 0.0, 0.0, 0.0],[-1.0, 0.0, 1.0, 0.0], [9E+9, 9E+9, 9E9, 9E9, 9E9, 9E9]];
    CONST robtarget p_DrawLogo_98 := [[1113.071, 52.45, 430.0], [-1.0, 0.0, 0.0, 0.0],[-1.0, 0.0, 1.0, 0.0], [9E+9, 9E+9, 9E9, 9E9, 9E9, 9E9]];
    CONST robtarget p_DrawLogo_99 := [[1113.071, 56.736999999999995, 430.0], [-1.0, 0.0, 0.0, 0.0],[-1.0, 0.0, 1.0, 0.0], [9E+9, 9E+9, 9E9, 9E9, 9E9, 9E9]];
    CONST robtarget p_DrawLogo_100 := [[1112.994, 57.894000000000005, 430.0], [-1.0, 0.0, 0.0, 0.0],[-1.0, 0.0, 1.0, 0.0], [9E+9, 9E+9, 9E9, 9E9, 9E9, 9E9]];
    CONST robtarget p_DrawLogo_101 := [[1112.905, 59.010000000000005, 430.0], [-1.0, 0.0, 0.0, 0.0],[-1.0, 0.0, 1.0, 0.0], [9E+9, 9E+9, 9E9, 9E9, 9E9, 9E9]];
    CONST robtarget p_DrawLogo_102 := [[1112.704, 61.156000000000006, 430.0], [-1.0, 0.0, 0.0, 0.0],[-1.0, 0.0, 1.0, 0.0], [9E+9, 9E+9, 9E9, 9E9, 9E9, 9E9]];
    CONST robtarget p_DrawLogo_103 := [[1112.59, 62.185, 430.0], [-1.0, 0.0, 0.0, 0.0],[-1.0, 0.0, 1.0, 0.0], [9E+9, 9E+9, 9E9, 9E9, 9E9, 9E9]];
    CONST robtarget p_DrawLogo_104 := [[1112.3220000000001, 64.203, 430.0], [-1.0, 0.0, 0.0, 0.0],[-1.0, 0.0, 1.0, 0.0], [9E+9, 9E+9, 9E9, 9E9, 9E9, 9E9]];
    CONST robtarget p_DrawLogo_105 := [[1112.021, 66.098, 430.0], [-1.0, 0.0, 0.0, 0.0],[-1.0, 0.0, 1.0, 0.0], [9E+9, 9E+9, 9E9, 9E9, 9E9, 9E9]];
    CONST robtarget p_DrawLogo_106 := [[1111.855, 67.007, 430.0], [-1.0, 0.0, 0.0, 0.0],[-1.0, 0.0, 1.0, 0.0], [9E+9, 9E+9, 9E9, 9E9, 9E9, 9E9]];
    CONST robtarget p_DrawLogo_107 := [[1111.684, 67.872, 430.0], [-1.0, 0.0, 0.0, 0.0],[-1.0, 0.0, 1.0, 0.0], [9E+9, 9E+9, 9E9, 9E9, 9E9, 9E9]];
    CONST robtarget p_DrawLogo_108 := [[1111.3029999999999, 69.574, 430.0], [-1.0, 0.0, 0.0, 0.0],[-1.0, 0.0, 1.0, 0.0], [9E+9, 9E+9, 9E9, 9E9, 9E9, 9E9]];
    CONST robtarget p_DrawLogo_109 := [[1111.101, 70.379, 430.0], [-1.0, 0.0, 0.0, 0.0],[-1.0, 0.0, 1.0, 0.0], [9E+9, 9E+9, 9E9, 9E9, 9E9, 9E9]];
    CONST robtarget p_DrawLogo_110 := [[1110.683, 71.882, 430.0], [-1.0, 0.0, 0.0, 0.0],[-1.0, 0.0, 1.0, 0.0], [9E+9, 9E+9, 9E9, 9E9, 9E9, 9E9]];
    CONST robtarget p_DrawLogo_111 := [[1110.247, 73.25, 430.0], [-1.0, 0.0, 0.0, 0.0],[-1.0, 0.0, 1.0, 0.0], [9E+9, 9E+9, 9E9, 9E9, 9E9, 9E9]];
    CONST robtarget p_DrawLogo_112 := [[1110.01, 73.923, 430.0], [-1.0, 0.0, 0.0, 0.0],[-1.0, 0.0, 1.0, 0.0], [9E+9, 9E+9, 9E9, 9E9, 9E9, 9E9]];
    CONST robtarget p_DrawLogo_113 := [[1109.552, 75.108, 430.0], [-1.0, 0.0, 0.0, 0.0],[-1.0, 0.0, 1.0, 0.0], [9E+9, 9E+9, 9E9, 9E9, 9E9, 9E9]];
    CONST robtarget p_DrawLogo_114 := [[1109.311, 75.676, 430.0], [-1.0, 0.0, 0.0, 0.0],[-1.0, 0.0, 1.0, 0.0], [9E+9, 9E+9, 9E9, 9E9, 9E9, 9E9]];
    CONST robtarget p_DrawLogo_115 := [[1108.856, 76.655, 430.0], [-1.0, 0.0, 0.0, 0.0],[-1.0, 0.0, 1.0, 0.0], [9E+9, 9E+9, 9E9, 9E9, 9E9, 9E9]];
    CONST robtarget p_DrawLogo_116 := [[1108.623, 77.113, 430.0], [-1.0, 0.0, 0.0, 0.0],[-1.0, 0.0, 1.0, 0.0], [9E+9, 9E+9, 9E9, 9E9, 9E9, 9E9]];
    CONST robtarget p_DrawLogo_117 := [[1108.389, 77.544, 430.0], [-1.0, 0.0, 0.0, 0.0],[-1.0, 0.0, 1.0, 0.0], [9E+9, 9E+9, 9E9, 9E9, 9E9, 9E9]];
    CONST robtarget p_DrawLogo_118 := [[1107.961, 78.269, 430.0], [-1.0, 0.0, 0.0, 0.0],[-1.0, 0.0, 1.0, 0.0], [9E+9, 9E+9, 9E9, 9E9, 9E9, 9E9]];
    CONST robtarget p_DrawLogo_119 := [[1107.489, 78.987, 430.0], [-1.0, 0.0, 0.0, 0.0],[-1.0, 0.0, 1.0, 0.0], [9E+9, 9E+9, 9E9, 9E9, 9E9, 9E9]];
    CONST robtarget p_DrawLogo_120 := [[1107.064, 79.572, 430.0], [-1.0, 0.0, 0.0, 0.0],[-1.0, 0.0, 1.0, 0.0], [9E+9, 9E+9, 9E9, 9E9, 9E9, 9E9]];
    CONST robtarget p_DrawLogo_121 := [[1106.1779999999999, 80.66900000000001, 430.0], [-1.0, 0.0, 0.0, 0.0],[-1.0, 0.0, 1.0, 0.0], [9E+9, 9E+9, 9E9, 9E9, 9E9, 9E9]];
    CONST robtarget p_DrawLogo_122 := [[1105.709, 81.19, 430.0], [-1.0, 0.0, 0.0, 0.0],[-1.0, 0.0, 1.0, 0.0], [9E+9, 9E+9, 9E9, 9E9, 9E9, 9E9]];
    CONST robtarget p_DrawLogo_123 := [[1105.194, 81.71000000000001, 430.0], [-1.0, 0.0, 0.0, 0.0],[-1.0, 0.0, 1.0, 0.0], [9E+9, 9E+9, 9E9, 9E9, 9E9, 9E9]];
    CONST robtarget p_DrawLogo_124 := [[1104.609, 82.225, 430.0], [-1.0, 0.0, 0.0, 0.0],[-1.0, 0.0, 1.0, 0.0], [9E+9, 9E+9, 9E9, 9E9, 9E9, 9E9]];
    CONST robtarget p_DrawLogo_125 := [[1103.9470000000001, 82.71199999999999, 430.0], [-1.0, 0.0, 0.0, 0.0],[-1.0, 0.0, 1.0, 0.0], [9E+9, 9E+9, 9E9, 9E9, 9E9, 9E9]];
    CONST robtarget p_DrawLogo_126 := [[1103.317, 83.09, 430.0], [-1.0, 0.0, 0.0, 0.0],[-1.0, 0.0, 1.0, 0.0], [9E+9, 9E+9, 9E9, 9E9, 9E9, 9E9]];
    CONST robtarget p_DrawLogo_127 := [[1102.662, 83.399, 430.0], [-1.0, 0.0, 0.0, 0.0],[-1.0, 0.0, 1.0, 0.0], [9E+9, 9E+9, 9E9, 9E9, 9E9, 9E9]];
    CONST robtarget p_DrawLogo_128 := [[1101.968, 83.656, 430.0], [-1.0, 0.0, 0.0, 0.0],[-1.0, 0.0, 1.0, 0.0], [9E+9, 9E+9, 9E9, 9E9, 9E9, 9E9]];
    CONST robtarget p_DrawLogo_129 := [[1101.235, 83.85900000000001, 430.0], [-1.0, 0.0, 0.0, 0.0],[-1.0, 0.0, 1.0, 0.0], [9E+9, 9E+9, 9E9, 9E9, 9E9, 9E9]];
    CONST robtarget p_DrawLogo_130 := [[1100.619, 83.987, 430.0], [-1.0, 0.0, 0.0, 0.0],[-1.0, 0.0, 1.0, 0.0], [9E+9, 9E+9, 9E9, 9E9, 9E9, 9E9]];
    CONST robtarget p_DrawLogo_131 := [[1100.15, 84.05600000000001, 430.0], [-1.0, 0.0, 0.0, 0.0],[-1.0, 0.0, 1.0, 0.0], [9E+9, 9E+9, 9E9, 9E9, 9E9, 9E9]];
    CONST robtarget p_DrawLogo_132 := [[1099.749, 84.09200000000001, 430.0], [-1.0, 0.0, 0.0, 0.0],[-1.0, 0.0, 1.0, 0.0], [9E+9, 9E+9, 9E9, 9E9, 9E9, 9E9]];
    CONST robtarget p_DrawLogo_133 := [[1099.611, 84.10400000000001, 430.0], [-1.0, 0.0, 0.0, 0.0],[-1.0, 0.0, 1.0, 0.0], [9E+9, 9E+9, 9E9, 9E9, 9E9, 9E9]];
    CONST robtarget p_DrawLogo_134 := [[1098.95, 84.119, 430.0], [-1.0, 0.0, 0.0, 0.0],[-1.0, 0.0, 1.0, 0.0], [9E+9, 9E+9, 9E9, 9E9, 9E9, 9E9]];
    CONST robtarget p_DrawLogo_135 := [[1099.025, 83.71700000000001, 430.0], [-1.0, 0.0, 0.0, 0.0],[-1.0, 0.0, 1.0, 0.0], [9E+9, 9E+9, 9E9, 9E9, 9E9, 9E9]];
    CONST robtarget p_DrawLogo_136 := [[1098.625, 83.54599999999999, 430.0], [-1.0, 0.0, 0.0, 0.0],[-1.0, 0.0, 1.0, 0.0], [9E+9, 9E+9, 9E9, 9E9, 9E9, 9E9]];
    CONST robtarget p_DrawLogo_137 := [[1098.476, 83.38, 430.0], [-1.0, 0.0, 0.0, 0.0],[-1.0, 0.0, 1.0, 0.0], [9E+9, 9E+9, 9E9, 9E9, 9E9, 9E9]];
    CONST robtarget p_DrawLogo_138 := [[1098.379, 83.13399999999999, 430.0], [-1.0, 0.0, 0.0, 0.0],[-1.0, 0.0, 1.0, 0.0], [9E+9, 9E+9, 9E9, 9E9, 9E9, 9E9]];
    CONST robtarget p_DrawLogo_139 := [[1098.373, 38.602999999999994, 430.0], [-1.0, 0.0, 0.0, 0.0],[-1.0, 0.0, 1.0, 0.0], [9E+9, 9E+9, 9E9, 9E9, 9E9, 9E9]];
    CONST robtarget p_DrawLogo_140 := [[1088.951, 38.602999999999994, 430.0], [-1.0, 0.0, 0.0, 0.0],[-1.0, 0.0, 1.0, 0.0], [9E+9, 9E+9, 9E9, 9E9, 9E9, 9E9]];
    CONST robtarget p_DrawLogo_141 := [[1088.951, 96.31700000000001, 430.0], [-1.0, 0.0, 0.0, 0.0],[-1.0, 0.0, 1.0, 0.0], [9E+9, 9E+9, 9E9, 9E9, 9E9, 9E9]];
    CONST robtarget p_DrawLogo_142 := [[1096.663, 96.31700000000001, 430.0], [-1.0, 0.0, 0.0, 0.0],[-1.0, 0.0, 1.0, 0.0], [9E+9, 9E+9, 9E9, 9E9, 9E9, 9E9]];
    CONST robtarget p_DrawLogo_143 := [[1098.205, 96.042, 430.0], [-1.0, 0.0, 0.0, 0.0],[-1.0, 0.0, 1.0, 0.0], [9E+9, 9E+9, 9E9, 9E9, 9E9, 9E9]];
    CONST robtarget p_DrawLogo_144 := [[1099.761, 95.66999999999999, 430.0], [-1.0, 0.0, 0.0, 0.0],[-1.0, 0.0, 1.0, 0.0], [9E+9, 9E+9, 9E9, 9E9, 9E9, 9E9]];
    CONST robtarget p_DrawLogo_145 := [[1101.282, 95.21000000000001, 430.0], [-1.0, 0.0, 0.0, 0.0],[-1.0, 0.0, 1.0, 0.0], [9E+9, 9E+9, 9E9, 9E9, 9E9, 9E9]];
    CONST robtarget p_DrawLogo_146 := [[1102.772, 94.656, 430.0], [-1.0, 0.0, 0.0, 0.0],[-1.0, 0.0, 1.0, 0.0], [9E+9, 9E+9, 9E9, 9E9, 9E9, 9E9]];
    CONST robtarget p_DrawLogo_147 := [[1104.237, 94.00299999999999, 430.0], [-1.0, 0.0, 0.0, 0.0],[-1.0, 0.0, 1.0, 0.0], [9E+9, 9E+9, 9E9, 9E9, 9E9, 9E9]];
    CONST robtarget p_DrawLogo_148 := [[1105.639, 93.268, 430.0], [-1.0, 0.0, 0.0, 0.0],[-1.0, 0.0, 1.0, 0.0], [9E+9, 9E+9, 9E9, 9E9, 9E9, 9E9]];
    CONST robtarget p_DrawLogo_149 := [[1107.015, 92.435, 430.0], [-1.0, 0.0, 0.0, 0.0],[-1.0, 0.0, 1.0, 0.0], [9E+9, 9E+9, 9E9, 9E9, 9E9, 9E9]];
    CONST robtarget p_DrawLogo_150 := [[1108.357, 91.505, 430.0], [-1.0, 0.0, 0.0, 0.0],[-1.0, 0.0, 1.0, 0.0], [9E+9, 9E+9, 9E9, 9E9, 9E9, 9E9]];
    CONST robtarget p_DrawLogo_151 := [[1109.637, 90.50299999999999, 430.0], [-1.0, 0.0, 0.0, 0.0],[-1.0, 0.0, 1.0, 0.0], [9E+9, 9E+9, 9E9, 9E9, 9E9, 9E9]];
    CONST robtarget p_DrawLogo_152 := [[1110.862, 89.42500000000001, 430.0], [-1.0, 0.0, 0.0, 0.0],[-1.0, 0.0, 1.0, 0.0], [9E+9, 9E+9, 9E9, 9E9, 9E9, 9E9]];
    CONST robtarget p_DrawLogo_153 := [[1112.032, 88.281, 430.0], [-1.0, 0.0, 0.0, 0.0],[-1.0, 0.0, 1.0, 0.0], [9E+9, 9E+9, 9E9, 9E9, 9E9, 9E9]];
    CONST robtarget p_DrawLogo_154 := [[1113.141, 87.07400000000001, 430.0], [-1.0, 0.0, 0.0, 0.0],[-1.0, 0.0, 1.0, 0.0], [9E+9, 9E+9, 9E9, 9E9, 9E9, 9E9]];
    CONST robtarget p_DrawLogo_155 := [[1114.189, 85.81200000000001, 430.0], [-1.0, 0.0, 0.0, 0.0],[-1.0, 0.0, 1.0, 0.0], [9E+9, 9E+9, 9E9, 9E9, 9E9, 9E9]];
    CONST robtarget p_DrawLogo_156 := [[1115.179, 84.49600000000001, 430.0], [-1.0, 0.0, 0.0, 0.0],[-1.0, 0.0, 1.0, 0.0], [9E+9, 9E+9, 9E9, 9E9, 9E9, 9E9]];
    CONST robtarget p_DrawLogo_157 := [[1116.114, 83.12899999999999, 430.0], [-1.0, 0.0, 0.0, 0.0],[-1.0, 0.0, 1.0, 0.0], [9E+9, 9E+9, 9E9, 9E9, 9E9, 9E9]];
    CONST robtarget p_DrawLogo_158 := [[1117.029, 81.65799999999999, 430.0], [-1.0, 0.0, 0.0, 0.0],[-1.0, 0.0, 1.0, 0.0], [9E+9, 9E+9, 9E9, 9E9, 9E9, 9E9]];
    CONST robtarget p_DrawLogo_159 := [[1117.183, 81.518, 430.0], [-1.0, 0.0, 0.0, 0.0],[-1.0, 0.0, 1.0, 0.0], [9E+9, 9E+9, 9E9, 9E9, 9E9, 9E9]];
    CONST robtarget p_DrawLogo_160 := [[1117.374, 81.44, 430.0], [-1.0, 0.0, 0.0, 0.0],[-1.0, 0.0, 1.0, 0.0], [9E+9, 9E+9, 9E9, 9E9, 9E9, 9E9]];
    CONST robtarget p_DrawLogo_161 := [[1117.642, 81.44300000000001, 430.0], [-1.0, 0.0, 0.0, 0.0],[-1.0, 0.0, 1.0, 0.0], [9E+9, 9E+9, 9E9, 9E9, 9E9, 9E9]];
    CONST robtarget p_DrawLogo_162 := [[1117.871, 81.55199999999999, 430.0], [-1.0, 0.0, 0.0, 0.0],[-1.0, 0.0, 1.0, 0.0], [9E+9, 9E+9, 9E9, 9E9, 9E9, 9E9]];
    CONST robtarget p_DrawLogo_163 := [[1118.0, 81.689, 430.0], [-1.0, 0.0, 0.0, 0.0],[-1.0, 0.0, 1.0, 0.0], [9E+9, 9E+9, 9E9, 9E9, 9E9, 9E9]];
    CONST robtarget p_DrawLogo_164 := [[1118.638, 82.719, 430.0], [-1.0, 0.0, 0.0, 0.0],[-1.0, 0.0, 1.0, 0.0], [9E+9, 9E+9, 9E9, 9E9, 9E9, 9E9]];
    CONST robtarget p_DrawLogo_165 := [[1119.291, 83.72300000000001, 430.0], [-1.0, 0.0, 0.0, 0.0],[-1.0, 0.0, 1.0, 0.0], [9E+9, 9E+9, 9E9, 9E9, 9E9, 9E9]];
    CONST robtarget p_DrawLogo_166 := [[1119.875, 84.572, 430.0], [-1.0, 0.0, 0.0, 0.0],[-1.0, 0.0, 1.0, 0.0], [9E+9, 9E+9, 9E9, 9E9, 9E9, 9E9]];
    CONST robtarget p_DrawLogo_167 := [[1120.529, 85.47399999999999, 430.0], [-1.0, 0.0, 0.0, 0.0],[-1.0, 0.0, 1.0, 0.0], [9E+9, 9E+9, 9E9, 9E9, 9E9, 9E9]];
    CONST robtarget p_DrawLogo_168 := [[1121.095, 86.214, 430.0], [-1.0, 0.0, 0.0, 0.0],[-1.0, 0.0, 1.0, 0.0], [9E+9, 9E+9, 9E9, 9E9, 9E9, 9E9]];
    CONST robtarget p_DrawLogo_169 := [[1121.706, 86.963, 430.0], [-1.0, 0.0, 0.0, 0.0],[-1.0, 0.0, 1.0, 0.0], [9E+9, 9E+9, 9E9, 9E9, 9E9, 9E9]];
    CONST robtarget p_DrawLogo_170 := [[1122.3319999999999, 87.68199999999999, 430.0], [-1.0, 0.0, 0.0, 0.0],[-1.0, 0.0, 1.0, 0.0], [9E+9, 9E+9, 9E9, 9E9, 9E9, 9E9]];
    CONST robtarget p_DrawLogo_171 := [[1122.833, 88.21199999999999, 430.0], [-1.0, 0.0, 0.0, 0.0],[-1.0, 0.0, 1.0, 0.0], [9E+9, 9E+9, 9E9, 9E9, 9E9, 9E9]];
    CONST robtarget p_DrawLogo_172 := [[1123.503, 88.887, 430.0], [-1.0, 0.0, 0.0, 0.0],[-1.0, 0.0, 1.0, 0.0], [9E+9, 9E+9, 9E9, 9E9, 9E9, 9E9]];
    CONST robtarget p_DrawLogo_173 := [[1124.098, 89.43700000000001, 430.0], [-1.0, 0.0, 0.0, 0.0],[-1.0, 0.0, 1.0, 0.0], [9E+9, 9E+9, 9E9, 9E9, 9E9, 9E9]];
    CONST robtarget p_DrawLogo_174 := [[1124.711, 89.96700000000001, 430.0], [-1.0, 0.0, 0.0, 0.0],[-1.0, 0.0, 1.0, 0.0], [9E+9, 9E+9, 9E9, 9E9, 9E9, 9E9]];
    CONST robtarget p_DrawLogo_175 := [[1125.31, 90.451, 430.0], [-1.0, 0.0, 0.0, 0.0],[-1.0, 0.0, 1.0, 0.0], [9E+9, 9E+9, 9E9, 9E9, 9E9, 9E9]];
    CONST robtarget p_DrawLogo_176 := [[1126.578, 91.39099999999999, 430.0], [-1.0, 0.0, 0.0, 0.0],[-1.0, 0.0, 1.0, 0.0], [9E+9, 9E+9, 9E9, 9E9, 9E9, 9E9]];
    CONST robtarget p_DrawLogo_177 := [[1127.885, 92.273, 430.0], [-1.0, 0.0, 0.0, 0.0],[-1.0, 0.0, 1.0, 0.0], [9E+9, 9E+9, 9E9, 9E9, 9E9, 9E9]];
    CONST robtarget p_DrawLogo_178 := [[1129.246, 93.12100000000001, 430.0], [-1.0, 0.0, 0.0, 0.0],[-1.0, 0.0, 1.0, 0.0], [9E+9, 9E+9, 9E9, 9E9, 9E9, 9E9]];
    CONST robtarget p_DrawLogo_179 := [[1130.692, 93.94, 430.0], [-1.0, 0.0, 0.0, 0.0],[-1.0, 0.0, 1.0, 0.0], [9E+9, 9E+9, 9E9, 9E9, 9E9, 9E9]];
    CONST robtarget p_DrawLogo_180 := [[1131.446, 94.32900000000001, 430.0], [-1.0, 0.0, 0.0, 0.0],[-1.0, 0.0, 1.0, 0.0], [9E+9, 9E+9, 9E9, 9E9, 9E9, 9E9]];
    CONST robtarget p_DrawLogo_181 := [[1132.209, 94.69399999999999, 430.0], [-1.0, 0.0, 0.0, 0.0],[-1.0, 0.0, 1.0, 0.0], [9E+9, 9E+9, 9E9, 9E9, 9E9, 9E9]];
    CONST robtarget p_DrawLogo_182 := [[1132.98, 95.02799999999999, 430.0], [-1.0, 0.0, 0.0, 0.0],[-1.0, 0.0, 1.0, 0.0], [9E+9, 9E+9, 9E9, 9E9, 9E9, 9E9]];
    CONST robtarget p_DrawLogo_183 := [[1133.792, 95.344, 430.0], [-1.0, 0.0, 0.0, 0.0],[-1.0, 0.0, 1.0, 0.0], [9E+9, 9E+9, 9E9, 9E9, 9E9, 9E9]];
    CONST robtarget p_DrawLogo_184 := [[1134.692, 95.649, 430.0], [-1.0, 0.0, 0.0, 0.0],[-1.0, 0.0, 1.0, 0.0], [9E+9, 9E+9, 9E9, 9E9, 9E9, 9E9]];
    CONST robtarget p_DrawLogo_185 := [[1135.44, 95.85900000000001, 430.0], [-1.0, 0.0, 0.0, 0.0],[-1.0, 0.0, 1.0, 0.0], [9E+9, 9E+9, 9E9, 9E9, 9E9, 9E9]];
    CONST robtarget p_DrawLogo_186 := [[1136.29, 96.06299999999999, 430.0], [-1.0, 0.0, 0.0, 0.0],[-1.0, 0.0, 1.0, 0.0], [9E+9, 9E+9, 9E9, 9E9, 9E9, 9E9]];
    CONST robtarget p_DrawLogo_187 := [[1137.17, 96.231, 430.0], [-1.0, 0.0, 0.0, 0.0],[-1.0, 0.0, 1.0, 0.0], [9E+9, 9E+9, 9E9, 9E9, 9E9, 9E9]];
    CONST robtarget p_DrawLogo_188 := [[1138.046, 96.356, 430.0], [-1.0, 0.0, 0.0, 0.0],[-1.0, 0.0, 1.0, 0.0], [9E+9, 9E+9, 9E9, 9E9, 9E9, 9E9]];
    CONST robtarget p_DrawLogo_189 := [[1138.9569999999999, 96.44399999999999, 430.0], [-1.0, 0.0, 0.0, 0.0],[-1.0, 0.0, 1.0, 0.0], [9E+9, 9E+9, 9E9, 9E9, 9E9, 9E9]];
    CONST robtarget p_DrawLogo_190 := [[1139.903, 96.494, 430.0], [-1.0, 0.0, 0.0, 0.0],[-1.0, 0.0, 1.0, 0.0], [9E+9, 9E+9, 9E9, 9E9, 9E9, 9E9]];
    CONST robtarget p_DrawLogo_191 := [[1140.886, 96.505, 430.0], [-1.0, 0.0, 0.0, 0.0],[-1.0, 0.0, 1.0, 0.0], [9E+9, 9E+9, 9E9, 9E9, 9E9, 9E9]];
    CONST robtarget p_DrawLogo_192 := [[1146.05, 96.495, 430.0], [-1.0, 0.0, 0.0, 0.0],[-1.0, 0.0, 1.0, 0.0], [9E+9, 9E+9, 9E9, 9E9, 9E9, 9E9]];
    CONST robtarget p_DrawLogo_193 := [[1145.95, 38.495999999999995, 430.0], [-1.0, 0.0, 0.0, 0.0],[-1.0, 0.0, 1.0, 0.0], [9E+9, 9E+9, 9E9, 9E9, 9E9, 9E9]];
    CONST robtarget p_DrawLogo_194 := [[1136.494, 38.522999999999996, 430.0], [-1.0, 0.0, 0.0, 0.0],[-1.0, 0.0, 1.0, 0.0], [9E+9, 9E+9, 9E9, 9E9, 9E9, 9E9]];
    CONST robtarget p_DrawLogo_195 := [[1136.494, 83.167, 430.0], [-1.0, 0.0, 0.0, 0.0],[-1.0, 0.0, 1.0, 0.0], [9E+9, 9E+9, 9E9, 9E9, 9E9, 9E9]];
    CONST robtarget p_DrawLogo_196 := [[1136.435, 83.351, 430.0], [-1.0, 0.0, 0.0, 0.0],[-1.0, 0.0, 1.0, 0.0], [9E+9, 9E+9, 9E9, 9E9, 9E9, 9E9]];
    CONST robtarget p_DrawLogo_197 := [[1136.227, 83.589, 430.0], [-1.0, 0.0, 0.0, 0.0],[-1.0, 0.0, 1.0, 0.0], [9E+9, 9E+9, 9E9, 9E9, 9E9, 9E9]];
    CONST robtarget p_DrawLogo_198 := [[1135.992, 83.68199999999999, 430.0], [-1.0, 0.0, 0.0, 0.0],[-1.0, 0.0, 1.0, 0.0], [9E+9, 9E+9, 9E9, 9E9, 9E9, 9E9]];
    CONST robtarget p_DrawLogo_199 := [[1135.213, 83.733, 430.0], [-1.0, 0.0, 0.0, 0.0],[-1.0, 0.0, 1.0, 0.0], [9E+9, 9E+9, 9E9, 9E9, 9E9, 9E9]];
    CONST robtarget p_DrawLogo_200 := [[1134.506, 83.707, 430.0], [-1.0, 0.0, 0.0, 0.0],[-1.0, 0.0, 1.0, 0.0], [9E+9, 9E+9, 9E9, 9E9, 9E9, 9E9]];
    CONST robtarget p_DrawLogo_201 := [[1133.811, 83.60900000000001, 430.0], [-1.0, 0.0, 0.0, 0.0],[-1.0, 0.0, 1.0, 0.0], [9E+9, 9E+9, 9E9, 9E9, 9E9, 9E9]];
    CONST robtarget p_DrawLogo_202 := [[1133.029, 83.42099999999999, 430.0], [-1.0, 0.0, 0.0, 0.0],[-1.0, 0.0, 1.0, 0.0], [9E+9, 9E+9, 9E9, 9E9, 9E9, 9E9]];
    CONST robtarget p_DrawLogo_203 := [[1132.354, 83.18799999999999, 430.0], [-1.0, 0.0, 0.0, 0.0],[-1.0, 0.0, 1.0, 0.0], [9E+9, 9E+9, 9E9, 9E9, 9E9, 9E9]];
    CONST robtarget p_DrawLogo_204 := [[1131.583, 82.844, 430.0], [-1.0, 0.0, 0.0, 0.0],[-1.0, 0.0, 1.0, 0.0], [9E+9, 9E+9, 9E9, 9E9, 9E9, 9E9]];
    CONST robtarget p_DrawLogo_205 := [[1130.892, 82.458, 430.0], [-1.0, 0.0, 0.0, 0.0],[-1.0, 0.0, 1.0, 0.0], [9E+9, 9E+9, 9E9, 9E9, 9E9, 9E9]];
    CONST robtarget p_DrawLogo_206 := [[1130.185, 81.988, 430.0], [-1.0, 0.0, 0.0, 0.0],[-1.0, 0.0, 1.0, 0.0], [9E+9, 9E+9, 9E9, 9E9, 9E9, 9E9]];
    CONST robtarget p_DrawLogo_207 := [[1129.516, 81.46799999999999, 430.0], [-1.0, 0.0, 0.0, 0.0],[-1.0, 0.0, 1.0, 0.0], [9E+9, 9E+9, 9E9, 9E9, 9E9, 9E9]];
    CONST robtarget p_DrawLogo_208 := [[1128.801, 80.82400000000001, 430.0], [-1.0, 0.0, 0.0, 0.0],[-1.0, 0.0, 1.0, 0.0], [9E+9, 9E+9, 9E9, 9E9, 9E9, 9E9]];
    CONST robtarget p_DrawLogo_209 := [[1128.155, 80.15299999999999, 430.0], [-1.0, 0.0, 0.0, 0.0],[-1.0, 0.0, 1.0, 0.0], [9E+9, 9E+9, 9E9, 9E9, 9E9, 9E9]];
    CONST robtarget p_DrawLogo_210 := [[1127.515, 79.393, 430.0], [-1.0, 0.0, 0.0, 0.0],[-1.0, 0.0, 1.0, 0.0], [9E+9, 9E+9, 9E9, 9E9, 9E9, 9E9]];
    CONST robtarget p_DrawLogo_211 := [[1126.945, 78.624, 430.0], [-1.0, 0.0, 0.0, 0.0],[-1.0, 0.0, 1.0, 0.0], [9E+9, 9E+9, 9E9, 9E9, 9E9, 9E9]];
    CONST robtarget p_DrawLogo_212 := [[1126.367, 77.727, 430.0], [-1.0, 0.0, 0.0, 0.0],[-1.0, 0.0, 1.0, 0.0], [9E+9, 9E+9, 9E9, 9E9, 9E9, 9E9]];
    CONST robtarget p_DrawLogo_213 := [[1125.84, 76.79, 430.0], [-1.0, 0.0, 0.0, 0.0],[-1.0, 0.0, 1.0, 0.0], [9E+9, 9E+9, 9E9, 9E9, 9E9, 9E9]];
    CONST robtarget p_DrawLogo_214 := [[1125.351, 75.785, 430.0], [-1.0, 0.0, 0.0, 0.0],[-1.0, 0.0, 1.0, 0.0], [9E+9, 9E+9, 9E9, 9E9, 9E9, 9E9]];
    CONST robtarget p_DrawLogo_215 := [[1124.922, 74.774, 430.0], [-1.0, 0.0, 0.0, 0.0],[-1.0, 0.0, 1.0, 0.0], [9E+9, 9E+9, 9E9, 9E9, 9E9, 9E9]];
    CONST robtarget p_DrawLogo_216 := [[1124.522, 73.675, 430.0], [-1.0, 0.0, 0.0, 0.0],[-1.0, 0.0, 1.0, 0.0], [9E+9, 9E+9, 9E9, 9E9, 9E9, 9E9]];
    CONST robtarget p_DrawLogo_217 := [[1124.165, 72.538, 430.0], [-1.0, 0.0, 0.0, 0.0],[-1.0, 0.0, 1.0, 0.0], [9E+9, 9E+9, 9E9, 9E9, 9E9, 9E9]];
    CONST robtarget p_DrawLogo_218 := [[1123.851, 71.375, 430.0], [-1.0, 0.0, 0.0, 0.0],[-1.0, 0.0, 1.0, 0.0], [9E+9, 9E+9, 9E9, 9E9, 9E9, 9E9]];
    CONST robtarget p_DrawLogo_219 := [[1123.576, 70.183, 430.0], [-1.0, 0.0, 0.0, 0.0],[-1.0, 0.0, 1.0, 0.0], [9E+9, 9E+9, 9E9, 9E9, 9E9, 9E9]];
    CONST robtarget p_DrawLogo_220 := [[1123.335, 68.959, 430.0], [-1.0, 0.0, 0.0, 0.0],[-1.0, 0.0, 1.0, 0.0], [9E+9, 9E+9, 9E9, 9E9, 9E9, 9E9]];
    CONST robtarget p_DrawLogo_221 := [[1123.126, 67.718, 430.0], [-1.0, 0.0, 0.0, 0.0],[-1.0, 0.0, 1.0, 0.0], [9E+9, 9E+9, 9E9, 9E9, 9E9, 9E9]];
    CONST robtarget p_DrawLogo_222 := [[1122.945, 66.438, 430.0], [-1.0, 0.0, 0.0, 0.0],[-1.0, 0.0, 1.0, 0.0], [9E+9, 9E+9, 9E9, 9E9, 9E9, 9E9]];
    CONST robtarget p_DrawLogo_223 := [[1122.809, 65.296, 430.0], [-1.0, 0.0, 0.0, 0.0],[-1.0, 0.0, 1.0, 0.0], [9E+9, 9E+9, 9E9, 9E9, 9E9, 9E9]];
    CONST robtarget p_DrawLogo_224 := [[1122.666, 63.845, 430.0], [-1.0, 0.0, 0.0, 0.0],[-1.0, 0.0, 1.0, 0.0], [9E+9, 9E+9, 9E9, 9E9, 9E9, 9E9]];
    CONST robtarget p_DrawLogo_225 := [[1122.562, 62.515, 430.0], [-1.0, 0.0, 0.0, 0.0],[-1.0, 0.0, 1.0, 0.0], [9E+9, 9E+9, 9E9, 9E9, 9E9, 9E9]];
    CONST robtarget p_DrawLogo_226 := [[1122.47, 61.003, 430.0], [-1.0, 0.0, 0.0, 0.0],[-1.0, 0.0, 1.0, 0.0], [9E+9, 9E+9, 9E9, 9E9, 9E9, 9E9]];
    CONST robtarget p_DrawLogo_227 := [[1122.386, 58.447, 430.0], [-1.0, 0.0, 0.0, 0.0],[-1.0, 0.0, 1.0, 0.0], [9E+9, 9E+9, 9E9, 9E9, 9E9, 9E9]];
    CONST robtarget p_DrawLogo_228 := [[1122.374, 52.05, 430.0], [-1.0, 0.0, 0.0, 0.0],[-1.0, 0.0, 1.0, 0.0], [9E+9, 9E+9, 9E9, 9E9, 9E9, 9E9]];
    CONST robtarget p_DrawLogo_229 := [[1112.671, 52.05, 430.0], [-1.0, 0.0, 0.0, 0.0],[-1.0, 0.0, 1.0, 0.0], [9E+9, 9E+9, 9E9, 9E9, 9E9, 9E9]];
    CONST robtarget p_DrawLogo_230 := [[1112.67, 56.738, 430.0], [-1.0, 0.0, 0.0, 0.0],[-1.0, 0.0, 1.0, 0.0], [9E+9, 9E+9, 9E9, 9E9, 9E9, 9E9]];
    CONST robtarget p_DrawLogo_231 := [[1112.596, 57.861999999999995, 430.0], [-1.0, 0.0, 0.0, 0.0],[-1.0, 0.0, 1.0, 0.0], [9E+9, 9E+9, 9E9, 9E9, 9E9, 9E9]];
    CONST robtarget p_DrawLogo_232 := [[1112.507, 58.973, 430.0], [-1.0, 0.0, 0.0, 0.0],[-1.0, 0.0, 1.0, 0.0], [9E+9, 9E+9, 9E9, 9E9, 9E9, 9E9]];
    CONST robtarget p_DrawLogo_233 := [[1112.306, 61.111999999999995, 430.0], [-1.0, 0.0, 0.0, 0.0],[-1.0, 0.0, 1.0, 0.0], [9E+9, 9E+9, 9E9, 9E9, 9E9, 9E9]];
    CONST robtarget p_DrawLogo_234 := [[1112.19, 62.150999999999996, 430.0], [-1.0, 0.0, 0.0, 0.0],[-1.0, 0.0, 1.0, 0.0], [9E+9, 9E+9, 9E9, 9E9, 9E9, 9E9]];
    CONST robtarget p_DrawLogo_235 := [[1111.927, 64.141, 430.0], [-1.0, 0.0, 0.0, 0.0],[-1.0, 0.0, 1.0, 0.0], [9E+9, 9E+9, 9E9, 9E9, 9E9, 9E9]];
    CONST robtarget p_DrawLogo_236 := [[1111.628, 66.026, 430.0], [-1.0, 0.0, 0.0, 0.0],[-1.0, 0.0, 1.0, 0.0], [9E+9, 9E+9, 9E9, 9E9, 9E9, 9E9]];
    CONST robtarget p_DrawLogo_237 := [[1111.462, 66.93, 430.0], [-1.0, 0.0, 0.0, 0.0],[-1.0, 0.0, 1.0, 0.0], [9E+9, 9E+9, 9E9, 9E9, 9E9, 9E9]];
    CONST robtarget p_DrawLogo_238 := [[1111.288, 67.81, 430.0], [-1.0, 0.0, 0.0, 0.0],[-1.0, 0.0, 1.0, 0.0], [9E+9, 9E+9, 9E9, 9E9, 9E9, 9E9]];
    CONST robtarget p_DrawLogo_239 := [[1110.915, 69.477, 430.0], [-1.0, 0.0, 0.0, 0.0],[-1.0, 0.0, 1.0, 0.0], [9E+9, 9E+9, 9E9, 9E9, 9E9, 9E9]];
    CONST robtarget p_DrawLogo_240 := [[1110.716, 70.272, 430.0], [-1.0, 0.0, 0.0, 0.0],[-1.0, 0.0, 1.0, 0.0], [9E+9, 9E+9, 9E9, 9E9, 9E9, 9E9]];
    CONST robtarget p_DrawLogo_241 := [[1110.301, 71.764, 430.0], [-1.0, 0.0, 0.0, 0.0],[-1.0, 0.0, 1.0, 0.0], [9E+9, 9E+9, 9E9, 9E9, 9E9, 9E9]];
    CONST robtarget p_DrawLogo_242 := [[1109.863, 73.136, 430.0], [-1.0, 0.0, 0.0, 0.0],[-1.0, 0.0, 1.0, 0.0], [9E+9, 9E+9, 9E9, 9E9, 9E9, 9E9]];
    CONST robtarget p_DrawLogo_243 := [[1109.637, 73.779, 430.0], [-1.0, 0.0, 0.0, 0.0],[-1.0, 0.0, 1.0, 0.0], [9E+9, 9E+9, 9E9, 9E9, 9E9, 9E9]];
    CONST robtarget p_DrawLogo_244 := [[1109.184, 74.952, 430.0], [-1.0, 0.0, 0.0, 0.0],[-1.0, 0.0, 1.0, 0.0], [9E+9, 9E+9, 9E9, 9E9, 9E9, 9E9]];
    CONST robtarget p_DrawLogo_245 := [[1108.948, 75.507, 430.0], [-1.0, 0.0, 0.0, 0.0],[-1.0, 0.0, 1.0, 0.0], [9E+9, 9E+9, 9E9, 9E9, 9E9, 9E9]];
    CONST robtarget p_DrawLogo_246 := [[1108.499, 76.474, 430.0], [-1.0, 0.0, 0.0, 0.0],[-1.0, 0.0, 1.0, 0.0], [9E+9, 9E+9, 9E9, 9E9, 9E9, 9E9]];
    CONST robtarget p_DrawLogo_247 := [[1108.271, 76.922, 430.0], [-1.0, 0.0, 0.0, 0.0],[-1.0, 0.0, 1.0, 0.0], [9E+9, 9E+9, 9E9, 9E9, 9E9, 9E9]];
    CONST robtarget p_DrawLogo_248 := [[1108.044, 77.341, 430.0], [-1.0, 0.0, 0.0, 0.0],[-1.0, 0.0, 1.0, 0.0], [9E+9, 9E+9, 9E9, 9E9, 9E9, 9E9]];
    CONST robtarget p_DrawLogo_249 := [[1107.601, 78.09, 430.0], [-1.0, 0.0, 0.0, 0.0],[-1.0, 0.0, 1.0, 0.0], [9E+9, 9E+9, 9E9, 9E9, 9E9, 9E9]];
    CONST robtarget p_DrawLogo_250 := [[1107.166, 78.751, 430.0], [-1.0, 0.0, 0.0, 0.0],[-1.0, 0.0, 1.0, 0.0], [9E+9, 9E+9, 9E9, 9E9, 9E9, 9E9]];
    CONST robtarget p_DrawLogo_251 := [[1106.731, 79.34800000000001, 430.0], [-1.0, 0.0, 0.0, 0.0],[-1.0, 0.0, 1.0, 0.0], [9E+9, 9E+9, 9E9, 9E9, 9E9, 9E9]];
    CONST robtarget p_DrawLogo_252 := [[1105.87, 80.41300000000001, 430.0], [-1.0, 0.0, 0.0, 0.0],[-1.0, 0.0, 1.0, 0.0], [9E+9, 9E+9, 9E9, 9E9, 9E9, 9E9]];
    CONST robtarget p_DrawLogo_253 := [[1105.415, 80.91999999999999, 430.0], [-1.0, 0.0, 0.0, 0.0],[-1.0, 0.0, 1.0, 0.0], [9E+9, 9E+9, 9E9, 9E9, 9E9, 9E9]];
    CONST robtarget p_DrawLogo_254 := [[1104.914, 81.424, 430.0], [-1.0, 0.0, 0.0, 0.0],[-1.0, 0.0, 1.0, 0.0], [9E+9, 9E+9, 9E9, 9E9, 9E9, 9E9]];
    CONST robtarget p_DrawLogo_255 := [[1104.358, 81.91300000000001, 430.0], [-1.0, 0.0, 0.0, 0.0],[-1.0, 0.0, 1.0, 0.0], [9E+9, 9E+9, 9E9, 9E9, 9E9, 9E9]];
    CONST robtarget p_DrawLogo_256 := [[1103.791, 82.33600000000001, 430.0], [-1.0, 0.0, 0.0, 0.0],[-1.0, 0.0, 1.0, 0.0], [9E+9, 9E+9, 9E9, 9E9, 9E9, 9E9]];
    CONST robtarget p_DrawLogo_257 := [[1103.128, 82.737, 430.0], [-1.0, 0.0, 0.0, 0.0],[-1.0, 0.0, 1.0, 0.0], [9E+9, 9E+9, 9E9, 9E9, 9E9, 9E9]];
    CONST robtarget p_DrawLogo_258 := [[1102.495, 83.036, 430.0], [-1.0, 0.0, 0.0, 0.0],[-1.0, 0.0, 1.0, 0.0], [9E+9, 9E+9, 9E9, 9E9, 9E9, 9E9]];
    CONST robtarget p_DrawLogo_259 := [[1101.784, 83.29499999999999, 430.0], [-1.0, 0.0, 0.0, 0.0],[-1.0, 0.0, 1.0, 0.0], [9E+9, 9E+9, 9E9, 9E9, 9E9, 9E9]];
    CONST robtarget p_DrawLogo_260 := [[1101.153, 83.46799999999999, 430.0], [-1.0, 0.0, 0.0, 0.0],[-1.0, 0.0, 1.0, 0.0], [9E+9, 9E+9, 9E9, 9E9, 9E9, 9E9]];
    CONST robtarget p_DrawLogo_261 := [[1100.597, 83.58500000000001, 430.0], [-1.0, 0.0, 0.0, 0.0],[-1.0, 0.0, 1.0, 0.0], [9E+9, 9E+9, 9E9, 9E9, 9E9, 9E9]];
    CONST robtarget p_DrawLogo_262 := [[1100.059, 83.66399999999999, 430.0], [-1.0, 0.0, 0.0, 0.0],[-1.0, 0.0, 1.0, 0.0], [9E+9, 9E+9, 9E9, 9E9, 9E9, 9E9]];
    CONST robtarget p_DrawLogo_263 := [[1099.824, 83.685, 430.0], [-1.0, 0.0, 0.0, 0.0],[-1.0, 0.0, 1.0, 0.0], [9E+9, 9E+9, 9E9, 9E9, 9E9, 9E9]];
    CONST robtarget p_DrawLogo_264 := [[1099.602, 83.70400000000001, 430.0], [-1.0, 0.0, 0.0, 0.0],[-1.0, 0.0, 1.0, 0.0], [9E+9, 9E+9, 9E9, 9E9, 9E9, 9E9]];
    CONST robtarget p_DrawLogo_265 := [[1099.025, 83.71700000000001, 430.0], [-1.0, 0.0, 0.0, 0.0],[-1.0, 0.0, 1.0, 0.0], [9E+9, 9E+9, 9E9, 9E9, 9E9, 9E9]];
    CONST robtarget p_DrawLogo_266 := [[1099.025, 83.71700000000001, 430.0], [-1.0, 0.0, 0.0, 0.0],[-1.0, 0.0, 1.0, 0.0], [9E+9, 9E+9, 9E9, 9E9, 9E9, 9E9]];
    CONST robtarget p_DrawLogo_267 := [[1099.031, 84.017, 430.0], [-1.0, 0.0, 0.0, 0.0],[-1.0, 0.0, 1.0, 0.0], [9E+9, 9E+9, 9E9, 9E9, 9E9, 9E9]];
    CONST robtarget p_DrawLogo_268 := [[1097.865, 83.39099999999999, 430.0], [-1.0, 0.0, 0.0, 0.0],[-1.0, 0.0, 1.0, 0.0], [9E+9, 9E+9, 9E9, 9E9, 9E9, 9E9]];
    CONST robtarget p_DrawLogo_269 := [[1097.801, 39.175, 430.0], [-1.0, 0.0, 0.0, 0.0],[-1.0, 0.0, 1.0, 0.0], [9E+9, 9E+9, 9E9, 9E9, 9E9, 9E9]];
    CONST robtarget p_DrawLogo_270 := [[1089.523, 39.175, 430.0], [-1.0, 0.0, 0.0, 0.0],[-1.0, 0.0, 1.0, 0.0], [9E+9, 9E+9, 9E9, 9E9, 9E9, 9E9]];
    CONST robtarget p_DrawLogo_271 := [[1089.523, 95.745, 430.0], [-1.0, 0.0, 0.0, 0.0],[-1.0, 0.0, 1.0, 0.0], [9E+9, 9E+9, 9E9, 9E9, 9E9, 9E9]];
    CONST robtarget p_DrawLogo_272 := [[1096.613, 95.756, 430.0], [-1.0, 0.0, 0.0, 0.0],[-1.0, 0.0, 1.0, 0.0], [9E+9, 9E+9, 9E9, 9E9, 9E9, 9E9]];
    CONST robtarget p_DrawLogo_273 := [[1098.09, 95.493, 430.0], [-1.0, 0.0, 0.0, 0.0],[-1.0, 0.0, 1.0, 0.0], [9E+9, 9E+9, 9E9, 9E9, 9E9, 9E9]];
    CONST robtarget p_DrawLogo_274 := [[1099.614, 95.12899999999999, 430.0], [-1.0, 0.0, 0.0, 0.0],[-1.0, 0.0, 1.0, 0.0], [9E+9, 9E+9, 9E9, 9E9, 9E9, 9E9]];
    CONST robtarget p_DrawLogo_275 := [[1101.102, 94.678, 430.0], [-1.0, 0.0, 0.0, 0.0],[-1.0, 0.0, 1.0, 0.0], [9E+9, 9E+9, 9E9, 9E9, 9E9, 9E9]];
    CONST robtarget p_DrawLogo_276 := [[1102.56, 94.137, 430.0], [-1.0, 0.0, 0.0, 0.0],[-1.0, 0.0, 1.0, 0.0], [9E+9, 9E+9, 9E9, 9E9, 9E9, 9E9]];
    CONST robtarget p_DrawLogo_277 := [[1103.992, 93.499, 430.0], [-1.0, 0.0, 0.0, 0.0],[-1.0, 0.0, 1.0, 0.0], [9E+9, 9E+9, 9E9, 9E9, 9E9, 9E9]];
    CONST robtarget p_DrawLogo_278 := [[1105.363, 92.779, 430.0], [-1.0, 0.0, 0.0, 0.0],[-1.0, 0.0, 1.0, 0.0], [9E+9, 9E+9, 9E9, 9E9, 9E9, 9E9]];
    CONST robtarget p_DrawLogo_279 := [[1106.709, 91.964, 430.0], [-1.0, 0.0, 0.0, 0.0],[-1.0, 0.0, 1.0, 0.0], [9E+9, 9E+9, 9E9, 9E9, 9E9, 9E9]];
    CONST robtarget p_DrawLogo_280 := [[1108.024, 91.054, 430.0], [-1.0, 0.0, 0.0, 0.0],[-1.0, 0.0, 1.0, 0.0], [9E+9, 9E+9, 9E9, 9E9, 9E9, 9E9]];
    CONST robtarget p_DrawLogo_281 := [[1109.279, 90.071, 430.0], [-1.0, 0.0, 0.0, 0.0],[-1.0, 0.0, 1.0, 0.0], [9E+9, 9E+9, 9E9, 9E9, 9E9, 9E9]];
    CONST robtarget p_DrawLogo_282 := [[1110.481, 89.01400000000001, 430.0], [-1.0, 0.0, 0.0, 0.0],[-1.0, 0.0, 1.0, 0.0], [9E+9, 9E+9, 9E9, 9E9, 9E9, 9E9]];
    CONST robtarget p_DrawLogo_283 := [[1111.629, 87.88999999999999, 430.0], [-1.0, 0.0, 0.0, 0.0],[-1.0, 0.0, 1.0, 0.0], [9E+9, 9E+9, 9E9, 9E9, 9E9, 9E9]];
    CONST robtarget p_DrawLogo_284 := [[1112.719, 86.70500000000001, 430.0], [-1.0, 0.0, 0.0, 0.0],[-1.0, 0.0, 1.0, 0.0], [9E+9, 9E+9, 9E9, 9E9, 9E9, 9E9]];
    CONST robtarget p_DrawLogo_285 := [[1113.302, 86.00299999999999, 430.0], [-1.0, 0.0, 0.0, 0.0],[-1.0, 0.0, 1.0, 0.0], [9E+9, 9E+9, 9E9, 9E9, 9E9, 9E9]];
    CONST robtarget p_DrawLogo_286 := [[1116.806, 81.445, 430.0], [-1.0, 0.0, 0.0, 0.0],[-1.0, 0.0, 1.0, 0.0], [9E+9, 9E+9, 9E9, 9E9, 9E9, 9E9]];
    CONST robtarget p_DrawLogo_287 := [[1116.806, 81.445, 430.0], [-1.0, 0.0, 0.0, 0.0],[-1.0, 0.0, 1.0, 0.0], [9E+9, 9E+9, 9E9, 9E9, 9E9, 9E9]];
    CONST robtarget p_DrawLogo_288 := [[1117.437, 81.83699999999999, 430.0], [-1.0, 0.0, 0.0, 0.0],[-1.0, 0.0, 1.0, 0.0], [9E+9, 9E+9, 9E9, 9E9, 9E9, 9E9]];
    CONST robtarget p_DrawLogo_289 := [[1117.584, 81.84299999999999, 430.0], [-1.0, 0.0, 0.0, 0.0],[-1.0, 0.0, 1.0, 0.0], [9E+9, 9E+9, 9E9, 9E9, 9E9, 9E9]];
    CONST robtarget p_DrawLogo_290 := [[1117.674, 81.92099999999999, 430.0], [-1.0, 0.0, 0.0, 0.0],[-1.0, 0.0, 1.0, 0.0], [9E+9, 9E+9, 9E9, 9E9, 9E9, 9E9]];
    CONST robtarget p_DrawLogo_291 := [[1118.328, 82.977, 430.0], [-1.0, 0.0, 0.0, 0.0],[-1.0, 0.0, 1.0, 0.0], [9E+9, 9E+9, 9E9, 9E9, 9E9, 9E9]];
    CONST robtarget p_DrawLogo_292 := [[1118.888, 83.84, 430.0], [-1.0, 0.0, 0.0, 0.0],[-1.0, 0.0, 1.0, 0.0], [9E+9, 9E+9, 9E9, 9E9, 9E9, 9E9]];
    CONST robtarget p_DrawLogo_293 := [[1119.548, 84.80199999999999, 430.0], [-1.0, 0.0, 0.0, 0.0],[-1.0, 0.0, 1.0, 0.0], [9E+9, 9E+9, 9E9, 9E9, 9E9, 9E9]];
    CONST robtarget p_DrawLogo_294 := [[1120.172, 85.66499999999999, 430.0], [-1.0, 0.0, 0.0, 0.0],[-1.0, 0.0, 1.0, 0.0], [9E+9, 9E+9, 9E9, 9E9, 9E9, 9E9]];
    CONST robtarget p_DrawLogo_295 := [[1120.781, 86.46199999999999, 430.0], [-1.0, 0.0, 0.0, 0.0],[-1.0, 0.0, 1.0, 0.0], [9E+9, 9E+9, 9E9, 9E9, 9E9, 9E9]];
    CONST robtarget p_DrawLogo_296 := [[1121.4, 87.221, 430.0], [-1.0, 0.0, 0.0, 0.0],[-1.0, 0.0, 1.0, 0.0], [9E+9, 9E+9, 9E9, 9E9, 9E9, 9E9]];
    CONST robtarget p_DrawLogo_297 := [[1122.036, 87.951, 430.0], [-1.0, 0.0, 0.0, 0.0],[-1.0, 0.0, 1.0, 0.0], [9E+9, 9E+9, 9E9, 9E9, 9E9, 9E9]];
    CONST robtarget p_DrawLogo_298 := [[1122.588, 88.53299999999999, 430.0], [-1.0, 0.0, 0.0, 0.0],[-1.0, 0.0, 1.0, 0.0], [9E+9, 9E+9, 9E9, 9E9, 9E9, 9E9]];
    CONST robtarget p_DrawLogo_299 := [[1123.225, 89.17500000000001, 430.0], [-1.0, 0.0, 0.0, 0.0],[-1.0, 0.0, 1.0, 0.0], [9E+9, 9E+9, 9E9, 9E9, 9E9, 9E9]];
    CONST robtarget p_DrawLogo_300 := [[1123.8319999999999, 89.73500000000001, 430.0], [-1.0, 0.0, 0.0, 0.0],[-1.0, 0.0, 1.0, 0.0], [9E+9, 9E+9, 9E9, 9E9, 9E9, 9E9]];
    CONST robtarget p_DrawLogo_301 := [[1124.455, 90.274, 430.0], [-1.0, 0.0, 0.0, 0.0],[-1.0, 0.0, 1.0, 0.0], [9E+9, 9E+9, 9E9, 9E9, 9E9, 9E9]];
    CONST robtarget p_DrawLogo_302 := [[1125.065, 90.767, 430.0], [-1.0, 0.0, 0.0, 0.0],[-1.0, 0.0, 1.0, 0.0], [9E+9, 9E+9, 9E9, 9E9, 9E9, 9E9]];
    CONST robtarget p_DrawLogo_303 := [[1126.347, 91.71700000000001, 430.0], [-1.0, 0.0, 0.0, 0.0],[-1.0, 0.0, 1.0, 0.0], [9E+9, 9E+9, 9E9, 9E9, 9E9, 9E9]];
    CONST robtarget p_DrawLogo_304 := [[1127.667, 92.60900000000001, 430.0], [-1.0, 0.0, 0.0, 0.0],[-1.0, 0.0, 1.0, 0.0], [9E+9, 9E+9, 9E9, 9E9, 9E9, 9E9]];
    CONST robtarget p_DrawLogo_305 := [[1129.042, 93.465, 430.0], [-1.0, 0.0, 0.0, 0.0],[-1.0, 0.0, 1.0, 0.0], [9E+9, 9E+9, 9E9, 9E9, 9E9, 9E9]];
    CONST robtarget p_DrawLogo_306 := [[1130.502, 94.292, 430.0], [-1.0, 0.0, 0.0, 0.0],[-1.0, 0.0, 1.0, 0.0], [9E+9, 9E+9, 9E9, 9E9, 9E9, 9E9]];
    CONST robtarget p_DrawLogo_307 := [[1131.268, 94.68700000000001, 430.0], [-1.0, 0.0, 0.0, 0.0],[-1.0, 0.0, 1.0, 0.0], [9E+9, 9E+9, 9E9, 9E9, 9E9, 9E9]];
    CONST robtarget p_DrawLogo_308 := [[1132.0430000000001, 95.05799999999999, 430.0], [-1.0, 0.0, 0.0, 0.0],[-1.0, 0.0, 1.0, 0.0], [9E+9, 9E+9, 9E9, 9E9, 9E9, 9E9]];
    CONST robtarget p_DrawLogo_309 := [[1132.828, 95.398, 430.0], [-1.0, 0.0, 0.0, 0.0],[-1.0, 0.0, 1.0, 0.0], [9E+9, 9E+9, 9E9, 9E9, 9E9, 9E9]];
    CONST robtarget p_DrawLogo_310 := [[1133.655, 95.72, 430.0], [-1.0, 0.0, 0.0, 0.0],[-1.0, 0.0, 1.0, 0.0], [9E+9, 9E+9, 9E9, 9E9, 9E9, 9E9]];
    CONST robtarget p_DrawLogo_311 := [[1134.574, 96.031, 430.0], [-1.0, 0.0, 0.0, 0.0],[-1.0, 0.0, 1.0, 0.0], [9E+9, 9E+9, 9E9, 9E9, 9E9, 9E9]];
    CONST robtarget p_DrawLogo_312 := [[1135.339, 96.24600000000001, 430.0], [-1.0, 0.0, 0.0, 0.0],[-1.0, 0.0, 1.0, 0.0], [9E+9, 9E+9, 9E9, 9E9, 9E9, 9E9]];
    CONST robtarget p_DrawLogo_313 := [[1136.206, 96.45400000000001, 430.0], [-1.0, 0.0, 0.0, 0.0],[-1.0, 0.0, 1.0, 0.0], [9E+9, 9E+9, 9E9, 9E9, 9E9, 9E9]];
    CONST robtarget p_DrawLogo_314 := [[1137.104, 96.626, 430.0], [-1.0, 0.0, 0.0, 0.0],[-1.0, 0.0, 1.0, 0.0], [9E+9, 9E+9, 9E9, 9E9, 9E9, 9E9]];
    CONST robtarget p_DrawLogo_315 := [[1137.998, 96.75399999999999, 430.0], [-1.0, 0.0, 0.0, 0.0],[-1.0, 0.0, 1.0, 0.0], [9E+9, 9E+9, 9E9, 9E9, 9E9, 9E9]];
    CONST robtarget p_DrawLogo_316 := [[1138.927, 96.84299999999999, 430.0], [-1.0, 0.0, 0.0, 0.0],[-1.0, 0.0, 1.0, 0.0], [9E+9, 9E+9, 9E9, 9E9, 9E9, 9E9]];
    CONST robtarget p_DrawLogo_317 := [[1139.8899999999999, 96.894, 430.0], [-1.0, 0.0, 0.0, 0.0],[-1.0, 0.0, 1.0, 0.0], [9E+9, 9E+9, 9E9, 9E9, 9E9, 9E9]];
    CONST robtarget p_DrawLogo_318 := [[1140.887, 96.905, 430.0], [-1.0, 0.0, 0.0, 0.0],[-1.0, 0.0, 1.0, 0.0], [9E+9, 9E+9, 9E9, 9E9, 9E9, 9E9]];
    CONST robtarget p_DrawLogo_319 := [[1146.45, 96.894, 430.0], [-1.0, 0.0, 0.0, 0.0],[-1.0, 0.0, 1.0, 0.0], [9E+9, 9E+9, 9E9, 9E9, 9E9, 9E9]];
    CONST robtarget p_DrawLogo_320 := [[1146.349, 38.095, 430.0], [-1.0, 0.0, 0.0, 0.0],[-1.0, 0.0, 1.0, 0.0], [9E+9, 9E+9, 9E9, 9E9, 9E9, 9E9]];
    CONST robtarget p_DrawLogo_321 := [[1136.094, 38.123999999999995, 430.0], [-1.0, 0.0, 0.0, 0.0],[-1.0, 0.0, 1.0, 0.0], [9E+9, 9E+9, 9E9, 9E9, 9E9, 9E9]];
    CONST robtarget p_DrawLogo_322 := [[1136.092, 83.124, 430.0], [-1.0, 0.0, 0.0, 0.0],[-1.0, 0.0, 1.0, 0.0], [9E+9, 9E+9, 9E9, 9E9, 9E9, 9E9]];
    CONST robtarget p_DrawLogo_323 := [[1136.044, 83.22300000000001, 430.0], [-1.0, 0.0, 0.0, 0.0],[-1.0, 0.0, 1.0, 0.0], [9E+9, 9E+9, 9E9, 9E9, 9E9, 9E9]];
    CONST robtarget p_DrawLogo_324 := [[1135.927, 83.287, 430.0], [-1.0, 0.0, 0.0, 0.0],[-1.0, 0.0, 1.0, 0.0], [9E+9, 9E+9, 9E9, 9E9, 9E9, 9E9]];
    CONST robtarget p_DrawLogo_325 := [[1135.227, 83.333, 430.0], [-1.0, 0.0, 0.0, 0.0],[-1.0, 0.0, 1.0, 0.0], [9E+9, 9E+9, 9E9, 9E9, 9E9, 9E9]];
    CONST robtarget p_DrawLogo_326 := [[1134.537, 83.30799999999999, 430.0], [-1.0, 0.0, 0.0, 0.0],[-1.0, 0.0, 1.0, 0.0], [9E+9, 9E+9, 9E9, 9E9, 9E9, 9E9]];
    CONST robtarget p_DrawLogo_327 := [[1133.867, 83.213, 430.0], [-1.0, 0.0, 0.0, 0.0],[-1.0, 0.0, 1.0, 0.0], [9E+9, 9E+9, 9E9, 9E9, 9E9, 9E9]];
    CONST robtarget p_DrawLogo_328 := [[1133.159, 83.043, 430.0], [-1.0, 0.0, 0.0, 0.0],[-1.0, 0.0, 1.0, 0.0], [9E+9, 9E+9, 9E9, 9E9, 9E9, 9E9]];
    CONST robtarget p_DrawLogo_329 := [[1132.472, 82.805, 430.0], [-1.0, 0.0, 0.0, 0.0],[-1.0, 0.0, 1.0, 0.0], [9E+9, 9E+9, 9E9, 9E9, 9E9, 9E9]];
    CONST robtarget p_DrawLogo_330 := [[1131.788, 82.5, 430.0], [-1.0, 0.0, 0.0, 0.0],[-1.0, 0.0, 1.0, 0.0], [9E+9, 9E+9, 9E9, 9E9, 9E9, 9E9]];
    CONST robtarget p_DrawLogo_331 := [[1131.101, 82.11600000000001, 430.0], [-1.0, 0.0, 0.0, 0.0],[-1.0, 0.0, 1.0, 0.0], [9E+9, 9E+9, 9E9, 9E9, 9E9, 9E9]];
    CONST robtarget p_DrawLogo_332 := [[1130.421, 81.66399999999999, 430.0], [-1.0, 0.0, 0.0, 0.0],[-1.0, 0.0, 1.0, 0.0], [9E+9, 9E+9, 9E9, 9E9, 9E9, 9E9]];
    CONST robtarget p_DrawLogo_333 := [[1129.751, 81.143, 430.0], [-1.0, 0.0, 0.0, 0.0],[-1.0, 0.0, 1.0, 0.0], [9E+9, 9E+9, 9E9, 9E9, 9E9, 9E9]];
    CONST robtarget p_DrawLogo_334 := [[1129.089, 80.54599999999999, 430.0], [-1.0, 0.0, 0.0, 0.0],[-1.0, 0.0, 1.0, 0.0], [9E+9, 9E+9, 9E9, 9E9, 9E9, 9E9]];
    CONST robtarget p_DrawLogo_335 := [[1128.461, 79.89500000000001, 430.0], [-1.0, 0.0, 0.0, 0.0],[-1.0, 0.0, 1.0, 0.0], [9E+9, 9E+9, 9E9, 9E9, 9E9, 9E9]];
    CONST robtarget p_DrawLogo_336 := [[1127.837, 79.155, 430.0], [-1.0, 0.0, 0.0, 0.0],[-1.0, 0.0, 1.0, 0.0], [9E+9, 9E+9, 9E9, 9E9, 9E9, 9E9]];
    CONST robtarget p_DrawLogo_337 := [[1127.26, 78.375, 430.0], [-1.0, 0.0, 0.0, 0.0],[-1.0, 0.0, 1.0, 0.0], [9E+9, 9E+9, 9E9, 9E9, 9E9, 9E9]];
    CONST robtarget p_DrawLogo_338 := [[1126.703, 77.509, 430.0], [-1.0, 0.0, 0.0, 0.0],[-1.0, 0.0, 1.0, 0.0], [9E+9, 9E+9, 9E9, 9E9, 9E9, 9E9]];
    CONST robtarget p_DrawLogo_339 := [[1126.205, 76.625, 430.0], [-1.0, 0.0, 0.0, 0.0],[-1.0, 0.0, 1.0, 0.0], [9E+9, 9E+9, 9E9, 9E9, 9E9, 9E9]];
    CONST robtarget p_DrawLogo_340 := [[1125.719, 75.629, 430.0], [-1.0, 0.0, 0.0, 0.0],[-1.0, 0.0, 1.0, 0.0], [9E+9, 9E+9, 9E9, 9E9, 9E9, 9E9]];
    CONST robtarget p_DrawLogo_341 := [[1125.29, 74.618, 430.0], [-1.0, 0.0, 0.0, 0.0],[-1.0, 0.0, 1.0, 0.0], [9E+9, 9E+9, 9E9, 9E9, 9E9, 9E9]];
    CONST robtarget p_DrawLogo_342 := [[1124.904, 73.555, 430.0], [-1.0, 0.0, 0.0, 0.0],[-1.0, 0.0, 1.0, 0.0], [9E+9, 9E+9, 9E9, 9E9, 9E9, 9E9]];
    CONST robtarget p_DrawLogo_343 := [[1124.551, 72.434, 430.0], [-1.0, 0.0, 0.0, 0.0],[-1.0, 0.0, 1.0, 0.0], [9E+9, 9E+9, 9E9, 9E9, 9E9, 9E9]];
    CONST robtarget p_DrawLogo_344 := [[1124.242, 71.293, 430.0], [-1.0, 0.0, 0.0, 0.0],[-1.0, 0.0, 1.0, 0.0], [9E+9, 9E+9, 9E9, 9E9, 9E9, 9E9]];
    CONST robtarget p_DrawLogo_345 := [[1123.968, 70.105, 430.0], [-1.0, 0.0, 0.0, 0.0],[-1.0, 0.0, 1.0, 0.0], [9E+9, 9E+9, 9E9, 9E9, 9E9, 9E9]];
    CONST robtarget p_DrawLogo_346 := [[1123.729, 68.893, 430.0], [-1.0, 0.0, 0.0, 0.0],[-1.0, 0.0, 1.0, 0.0], [9E+9, 9E+9, 9E9, 9E9, 9E9, 9E9]];
    CONST robtarget p_DrawLogo_347 := [[1123.522, 67.662, 430.0], [-1.0, 0.0, 0.0, 0.0],[-1.0, 0.0, 1.0, 0.0], [9E+9, 9E+9, 9E9, 9E9, 9E9, 9E9]];
    CONST robtarget p_DrawLogo_348 := [[1123.342, 66.391, 430.0], [-1.0, 0.0, 0.0, 0.0],[-1.0, 0.0, 1.0, 0.0], [9E+9, 9E+9, 9E9, 9E9, 9E9, 9E9]];
    CONST robtarget p_DrawLogo_349 := [[1123.2069999999999, 65.257, 430.0], [-1.0, 0.0, 0.0, 0.0],[-1.0, 0.0, 1.0, 0.0], [9E+9, 9E+9, 9E9, 9E9, 9E9, 9E9]];
    CONST robtarget p_DrawLogo_350 := [[1123.065, 63.813, 430.0], [-1.0, 0.0, 0.0, 0.0],[-1.0, 0.0, 1.0, 0.0], [9E+9, 9E+9, 9E9, 9E9, 9E9, 9E9]];
    CONST robtarget p_DrawLogo_351 := [[1122.961, 62.491, 430.0], [-1.0, 0.0, 0.0, 0.0],[-1.0, 0.0, 1.0, 0.0], [9E+9, 9E+9, 9E9, 9E9, 9E9, 9E9]];
    CONST robtarget p_DrawLogo_352 := [[1122.87, 60.989999999999995, 430.0], [-1.0, 0.0, 0.0, 0.0],[-1.0, 0.0, 1.0, 0.0], [9E+9, 9E+9, 9E9, 9E9, 9E9, 9E9]];
    CONST robtarget p_DrawLogo_353 := [[1122.786, 58.446, 430.0], [-1.0, 0.0, 0.0, 0.0],[-1.0, 0.0, 1.0, 0.0], [9E+9, 9E+9, 9E9, 9E9, 9E9, 9E9]];
    CONST robtarget p_DrawLogo_354 := [[1122.773, 51.650000000000006, 430.0], [-1.0, 0.0, 0.0, 0.0],[-1.0, 0.0, 1.0, 0.0], [9E+9, 9E+9, 9E9, 9E9, 9E9, 9E9]];
    CONST robtarget p_DrawLogo_355 := [[1112.271, 51.650000000000006, 430.0], [-1.0, 0.0, 0.0, 0.0],[-1.0, 0.0, 1.0, 0.0], [9E+9, 9E+9, 9E9, 9E9, 9E9, 9E9]];
    CONST robtarget p_DrawLogo_356 := [[1112.271, 56.712, 430.0], [-1.0, 0.0, 0.0, 0.0],[-1.0, 0.0, 1.0, 0.0], [9E+9, 9E+9, 9E9, 9E9, 9E9, 9E9]];
    CONST robtarget p_DrawLogo_357 := [[1112.1970000000001, 57.83, 430.0], [-1.0, 0.0, 0.0, 0.0],[-1.0, 0.0, 1.0, 0.0], [9E+9, 9E+9, 9E9, 9E9, 9E9, 9E9]];
    CONST robtarget p_DrawLogo_358 := [[1112.109, 58.935, 430.0], [-1.0, 0.0, 0.0, 0.0],[-1.0, 0.0, 1.0, 0.0], [9E+9, 9E+9, 9E9, 9E9, 9E9, 9E9]];
    CONST robtarget p_DrawLogo_359 := [[1111.908, 61.068, 430.0], [-1.0, 0.0, 0.0, 0.0],[-1.0, 0.0, 1.0, 0.0], [9E+9, 9E+9, 9E9, 9E9, 9E9, 9E9]];
    CONST robtarget p_DrawLogo_360 := [[1111.794, 62.099000000000004, 430.0], [-1.0, 0.0, 0.0, 0.0],[-1.0, 0.0, 1.0, 0.0], [9E+9, 9E+9, 9E9, 9E9, 9E9, 9E9]];
    CONST robtarget p_DrawLogo_361 := [[1111.532, 64.078, 430.0], [-1.0, 0.0, 0.0, 0.0],[-1.0, 0.0, 1.0, 0.0], [9E+9, 9E+9, 9E9, 9E9, 9E9, 9E9]];
    CONST robtarget p_DrawLogo_362 := [[1111.234, 65.954, 430.0], [-1.0, 0.0, 0.0, 0.0],[-1.0, 0.0, 1.0, 0.0], [9E+9, 9E+9, 9E9, 9E9, 9E9, 9E9]];
    CONST robtarget p_DrawLogo_363 := [[1111.07, 66.852, 430.0], [-1.0, 0.0, 0.0, 0.0],[-1.0, 0.0, 1.0, 0.0], [9E+9, 9E+9, 9E9, 9E9, 9E9, 9E9]];
    CONST robtarget p_DrawLogo_364 := [[1110.898, 67.722, 430.0], [-1.0, 0.0, 0.0, 0.0],[-1.0, 0.0, 1.0, 0.0], [9E+9, 9E+9, 9E9, 9E9, 9E9, 9E9]];
    CONST robtarget p_DrawLogo_365 := [[1110.527, 69.38, 430.0], [-1.0, 0.0, 0.0, 0.0],[-1.0, 0.0, 1.0, 0.0], [9E+9, 9E+9, 9E9, 9E9, 9E9, 9E9]];
    CONST robtarget p_DrawLogo_366 := [[1110.33, 70.165, 430.0], [-1.0, 0.0, 0.0, 0.0],[-1.0, 0.0, 1.0, 0.0], [9E+9, 9E+9, 9E9, 9E9, 9E9, 9E9]];
    CONST robtarget p_DrawLogo_367 := [[1109.919, 71.646, 430.0], [-1.0, 0.0, 0.0, 0.0],[-1.0, 0.0, 1.0, 0.0], [9E+9, 9E+9, 9E9, 9E9, 9E9, 9E9]];
    CONST robtarget p_DrawLogo_368 := [[1109.705, 72.338, 430.0], [-1.0, 0.0, 0.0, 0.0],[-1.0, 0.0, 1.0, 0.0], [9E+9, 9E+9, 9E9, 9E9, 9E9, 9E9]];
    CONST robtarget p_DrawLogo_369 := [[1109.485, 73.004, 430.0], [-1.0, 0.0, 0.0, 0.0],[-1.0, 0.0, 1.0, 0.0], [9E+9, 9E+9, 9E9, 9E9, 9E9, 9E9]];
    CONST robtarget p_DrawLogo_370 := [[1109.264, 73.635, 430.0], [-1.0, 0.0, 0.0, 0.0],[-1.0, 0.0, 1.0, 0.0], [9E+9, 9E+9, 9E9, 9E9, 9E9, 9E9]];
    CONST robtarget p_DrawLogo_371 := [[1108.816, 74.796, 430.0], [-1.0, 0.0, 0.0, 0.0],[-1.0, 0.0, 1.0, 0.0], [9E+9, 9E+9, 9E9, 9E9, 9E9, 9E9]];
    CONST robtarget p_DrawLogo_372 := [[1108.585, 75.339, 430.0], [-1.0, 0.0, 0.0, 0.0],[-1.0, 0.0, 1.0, 0.0], [9E+9, 9E+9, 9E9, 9E9, 9E9, 9E9]];
    CONST robtarget p_DrawLogo_373 := [[1108.142, 76.293, 430.0], [-1.0, 0.0, 0.0, 0.0],[-1.0, 0.0, 1.0, 0.0], [9E+9, 9E+9, 9E9, 9E9, 9E9, 9E9]];
    CONST robtarget p_DrawLogo_374 := [[1107.919, 76.732, 430.0], [-1.0, 0.0, 0.0, 0.0],[-1.0, 0.0, 1.0, 0.0], [9E+9, 9E+9, 9E9, 9E9, 9E9, 9E9]];
    CONST robtarget p_DrawLogo_375 := [[1107.7, 77.137, 430.0], [-1.0, 0.0, 0.0, 0.0],[-1.0, 0.0, 1.0, 0.0], [9E+9, 9E+9, 9E9, 9E9, 9E9, 9E9]];
    CONST robtarget p_DrawLogo_376 := [[1107.267, 77.87, 430.0], [-1.0, 0.0, 0.0, 0.0],[-1.0, 0.0, 1.0, 0.0], [9E+9, 9E+9, 9E9, 9E9, 9E9, 9E9]];
    CONST robtarget p_DrawLogo_377 := [[1106.842, 78.51599999999999, 430.0], [-1.0, 0.0, 0.0, 0.0],[-1.0, 0.0, 1.0, 0.0], [9E+9, 9E+9, 9E9, 9E9, 9E9, 9E9]];
    CONST robtarget p_DrawLogo_378 := [[1106.42, 79.096, 430.0], [-1.0, 0.0, 0.0, 0.0],[-1.0, 0.0, 1.0, 0.0], [9E+9, 9E+9, 9E9, 9E9, 9E9, 9E9]];
    CONST robtarget p_DrawLogo_379 := [[1105.557, 80.16300000000001, 430.0], [-1.0, 0.0, 0.0, 0.0],[-1.0, 0.0, 1.0, 0.0], [9E+9, 9E+9, 9E9, 9E9, 9E9, 9E9]];
    CONST robtarget p_DrawLogo_380 := [[1105.12, 80.649, 430.0], [-1.0, 0.0, 0.0, 0.0],[-1.0, 0.0, 1.0, 0.0], [9E+9, 9E+9, 9E9, 9E9, 9E9, 9E9]];
    CONST robtarget p_DrawLogo_381 := [[1104.627, 81.14500000000001, 430.0], [-1.0, 0.0, 0.0, 0.0],[-1.0, 0.0, 1.0, 0.0], [9E+9, 9E+9, 9E9, 9E9, 9E9, 9E9]];
    CONST robtarget p_DrawLogo_382 := [[1104.1, 81.607, 430.0], [-1.0, 0.0, 0.0, 0.0],[-1.0, 0.0, 1.0, 0.0], [9E+9, 9E+9, 9E9, 9E9, 9E9, 9E9]];
    CONST robtarget p_DrawLogo_383 := [[1103.535, 82.02600000000001, 430.0], [-1.0, 0.0, 0.0, 0.0],[-1.0, 0.0, 1.0, 0.0], [9E+9, 9E+9, 9E9, 9E9, 9E9, 9E9]];
    CONST robtarget p_DrawLogo_384 := [[1102.93, 82.388, 430.0], [-1.0, 0.0, 0.0, 0.0],[-1.0, 0.0, 1.0, 0.0], [9E+9, 9E+9, 9E9, 9E9, 9E9, 9E9]];
    CONST robtarget p_DrawLogo_385 := [[1102.312, 82.678, 430.0], [-1.0, 0.0, 0.0, 0.0],[-1.0, 0.0, 1.0, 0.0], [9E+9, 9E+9, 9E9, 9E9, 9E9, 9E9]];
    CONST robtarget p_DrawLogo_386 := [[1101.6779999999999, 82.90899999999999, 430.0], [-1.0, 0.0, 0.0, 0.0],[-1.0, 0.0, 1.0, 0.0], [9E+9, 9E+9, 9E9, 9E9, 9E9, 9E9]];
    CONST robtarget p_DrawLogo_387 := [[1101.071, 83.076, 430.0], [-1.0, 0.0, 0.0, 0.0],[-1.0, 0.0, 1.0, 0.0], [9E+9, 9E+9, 9E9, 9E9, 9E9, 9E9]];
    CONST robtarget p_DrawLogo_388 := [[1100.503, 83.195, 430.0], [-1.0, 0.0, 0.0, 0.0],[-1.0, 0.0, 1.0, 0.0], [9E+9, 9E+9, 9E9, 9E9, 9E9, 9E9]];
    CONST robtarget p_DrawLogo_389 := [[1100.023, 83.26599999999999, 430.0], [-1.0, 0.0, 0.0, 0.0],[-1.0, 0.0, 1.0, 0.0], [9E+9, 9E+9, 9E9, 9E9, 9E9, 9E9]];
    CONST robtarget p_DrawLogo_390 := [[1099.607, 83.304, 430.0], [-1.0, 0.0, 0.0, 0.0],[-1.0, 0.0, 1.0, 0.0], [9E+9, 9E+9, 9E9, 9E9, 9E9, 9E9]];
    CONST robtarget p_DrawLogo_391 := [[1099.09, 83.309, 430.0], [-1.0, 0.0, 0.0, 0.0],[-1.0, 0.0, 1.0, 0.0], [9E+9, 9E+9, 9E9, 9E9, 9E9, 9E9]];
    CONST robtarget p_DrawLogo_392 := [[1098.863, 83.21000000000001, 430.0], [-1.0, 0.0, 0.0, 0.0],[-1.0, 0.0, 1.0, 0.0], [9E+9, 9E+9, 9E9, 9E9, 9E9, 9E9]];
    CONST robtarget p_DrawLogo_393 := [[1098.775, 83.07300000000001, 430.0], [-1.0, 0.0, 0.0, 0.0],[-1.0, 0.0, 1.0, 0.0], [9E+9, 9E+9, 9E9, 9E9, 9E9, 9E9]];
    CONST robtarget p_DrawLogo_394 := [[1098.773, 38.203, 430.0], [-1.0, 0.0, 0.0, 0.0],[-1.0, 0.0, 1.0, 0.0], [9E+9, 9E+9, 9E9, 9E9, 9E9, 9E9]];
    CONST robtarget p_DrawLogo_395 := [[1088.551, 38.203, 430.0], [-1.0, 0.0, 0.0, 0.0],[-1.0, 0.0, 1.0, 0.0], [9E+9, 9E+9, 9E9, 9E9, 9E9, 9E9]];
    CONST robtarget p_DrawLogo_396 := [[1088.551, 96.71700000000001, 430.0], [-1.0, 0.0, 0.0, 0.0],[-1.0, 0.0, 1.0, 0.0], [9E+9, 9E+9, 9E9, 9E9, 9E9, 9E9]];
    CONST robtarget p_DrawLogo_397 := [[1096.699, 96.71700000000001, 430.0], [-1.0, 0.0, 0.0, 0.0],[-1.0, 0.0, 1.0, 0.0], [9E+9, 9E+9, 9E9, 9E9, 9E9, 9E9]];
    CONST robtarget p_DrawLogo_398 := [[1098.287, 96.434, 430.0], [-1.0, 0.0, 0.0, 0.0],[-1.0, 0.0, 1.0, 0.0], [9E+9, 9E+9, 9E9, 9E9, 9E9, 9E9]];
    CONST robtarget p_DrawLogo_399 := [[1099.865, 96.05600000000001, 430.0], [-1.0, 0.0, 0.0, 0.0],[-1.0, 0.0, 1.0, 0.0], [9E+9, 9E+9, 9E9, 9E9, 9E9, 9E9]];
    CONST robtarget p_DrawLogo_400 := [[1101.41, 95.589, 430.0], [-1.0, 0.0, 0.0, 0.0],[-1.0, 0.0, 1.0, 0.0], [9E+9, 9E+9, 9E9, 9E9, 9E9, 9E9]];
    CONST robtarget p_DrawLogo_401 := [[1102.923, 95.02600000000001, 430.0], [-1.0, 0.0, 0.0, 0.0],[-1.0, 0.0, 1.0, 0.0], [9E+9, 9E+9, 9E9, 9E9, 9E9, 9E9]];
    CONST robtarget p_DrawLogo_402 := [[1104.411, 94.363, 430.0], [-1.0, 0.0, 0.0, 0.0],[-1.0, 0.0, 1.0, 0.0], [9E+9, 9E+9, 9E9, 9E9, 9E9, 9E9]];
    CONST robtarget p_DrawLogo_403 := [[1105.836, 93.61600000000001, 430.0], [-1.0, 0.0, 0.0, 0.0],[-1.0, 0.0, 1.0, 0.0], [9E+9, 9E+9, 9E9, 9E9, 9E9, 9E9]];
    CONST robtarget p_DrawLogo_404 := [[1107.233, 92.77099999999999, 430.0], [-1.0, 0.0, 0.0, 0.0],[-1.0, 0.0, 1.0, 0.0], [9E+9, 9E+9, 9E9, 9E9, 9E9, 9E9]];
    CONST robtarget p_DrawLogo_405 := [[1108.595, 91.827, 430.0], [-1.0, 0.0, 0.0, 0.0],[-1.0, 0.0, 1.0, 0.0], [9E+9, 9E+9, 9E9, 9E9, 9E9, 9E9]];
    CONST robtarget p_DrawLogo_406 := [[1109.893, 90.811, 430.0], [-1.0, 0.0, 0.0, 0.0],[-1.0, 0.0, 1.0, 0.0], [9E+9, 9E+9, 9E9, 9E9, 9E9, 9E9]];
    CONST robtarget p_DrawLogo_407 := [[1111.134, 89.719, 430.0], [-1.0, 0.0, 0.0, 0.0],[-1.0, 0.0, 1.0, 0.0], [9E+9, 9E+9, 9E9, 9E9, 9E9, 9E9]];
    CONST robtarget p_DrawLogo_408 := [[1112.32, 88.559, 430.0], [-1.0, 0.0, 0.0, 0.0],[-1.0, 0.0, 1.0, 0.0], [9E+9, 9E+9, 9E9, 9E9, 9E9, 9E9]];
    CONST robtarget p_DrawLogo_409 := [[1113.443, 87.33699999999999, 430.0], [-1.0, 0.0, 0.0, 0.0],[-1.0, 0.0, 1.0, 0.0], [9E+9, 9E+9, 9E9, 9E9, 9E9, 9E9]];
    CONST robtarget p_DrawLogo_410 := [[1114.503, 86.06, 430.0], [-1.0, 0.0, 0.0, 0.0],[-1.0, 0.0, 1.0, 0.0], [9E+9, 9E+9, 9E9, 9E9, 9E9, 9E9]];
    CONST robtarget p_DrawLogo_411 := [[1115.504, 84.72900000000001, 430.0], [-1.0, 0.0, 0.0, 0.0],[-1.0, 0.0, 1.0, 0.0], [9E+9, 9E+9, 9E9, 9E9, 9E9, 9E9]];
    CONST robtarget p_DrawLogo_412 := [[1116.449, 83.34700000000001, 430.0], [-1.0, 0.0, 0.0, 0.0],[-1.0, 0.0, 1.0, 0.0], [9E+9, 9E+9, 9E9, 9E9, 9E9, 9E9]];
    CONST robtarget p_DrawLogo_413 := [[1116.983, 82.48400000000001, 430.0], [-1.0, 0.0, 0.0, 0.0],[-1.0, 0.0, 1.0, 0.0], [9E+9, 9E+9, 9E9, 9E9, 9E9, 9E9]];
    CONST robtarget p_DrawLogo_414 := [[1117.354, 81.88499999999999, 430.0], [-1.0, 0.0, 0.0, 0.0],[-1.0, 0.0, 1.0, 0.0], [9E+9, 9E+9, 9E9, 9E9, 9E9, 9E9]];
    CONST robtarget p_DrawLogo_415 := [[1117.437, 81.83699999999999, 430.0], [-1.0, 0.0, 0.0, 0.0],[-1.0, 0.0, 1.0, 0.0], [9E+9, 9E+9, 9E9, 9E9, 9E9, 9E9]];
    CONST robtarget p_DrawLogo_416 := [[1117.437, 81.83699999999999, 430.0], [-1.0, 0.0, 0.0, 0.0],[-1.0, 0.0, 1.0, 0.0], [9E+9, 9E+9, 9E9, 9E9, 9E9, 9E9]];
    CONST robtarget p_DrawLogo_417 := [[1116.806, 81.445, 430.0], [-1.0, 0.0, 0.0, 0.0],[-1.0, 0.0, 1.0, 0.0], [9E+9, 9E+9, 9E9, 9E9, 9E9, 9E9]];
    CONST robtarget p_DrawLogo_418 := [[1113.749, 85.464, 430.0], [-1.0, 0.0, 0.0, 0.0],[-1.0, 0.0, 1.0, 0.0], [9E+9, 9E+9, 9E9, 9E9, 9E9, 9E9]];
    CONST robtarget p_DrawLogo_419 := [[1112.719, 86.70500000000001, 430.0], [-1.0, 0.0, 0.0, 0.0],[-1.0, 0.0, 1.0, 0.0], [9E+9, 9E+9, 9E9, 9E9, 9E9, 9E9]];
    CONST robtarget p_DrawLogo_420 := [[1111.629, 87.88999999999999, 430.0], [-1.0, 0.0, 0.0, 0.0],[-1.0, 0.0, 1.0, 0.0], [9E+9, 9E+9, 9E9, 9E9, 9E9, 9E9]];
    CONST robtarget p_DrawLogo_421 := [[1110.481, 89.01400000000001, 430.0], [-1.0, 0.0, 0.0, 0.0],[-1.0, 0.0, 1.0, 0.0], [9E+9, 9E+9, 9E9, 9E9, 9E9, 9E9]];
    CONST robtarget p_DrawLogo_422 := [[1109.279, 90.071, 430.0], [-1.0, 0.0, 0.0, 0.0],[-1.0, 0.0, 1.0, 0.0], [9E+9, 9E+9, 9E9, 9E9, 9E9, 9E9]];
    CONST robtarget p_DrawLogo_423 := [[1108.024, 91.054, 430.0], [-1.0, 0.0, 0.0, 0.0],[-1.0, 0.0, 1.0, 0.0], [9E+9, 9E+9, 9E9, 9E9, 9E9, 9E9]];
    CONST robtarget p_DrawLogo_424 := [[1106.709, 91.964, 430.0], [-1.0, 0.0, 0.0, 0.0],[-1.0, 0.0, 1.0, 0.0], [9E+9, 9E+9, 9E9, 9E9, 9E9, 9E9]];
    CONST robtarget p_DrawLogo_425 := [[1105.363, 92.779, 430.0], [-1.0, 0.0, 0.0, 0.0],[-1.0, 0.0, 1.0, 0.0], [9E+9, 9E+9, 9E9, 9E9, 9E9, 9E9]];
    CONST robtarget p_DrawLogo_426 := [[1103.992, 93.499, 430.0], [-1.0, 0.0, 0.0, 0.0],[-1.0, 0.0, 1.0, 0.0], [9E+9, 9E+9, 9E9, 9E9, 9E9, 9E9]];
    CONST robtarget p_DrawLogo_427 := [[1102.56, 94.137, 430.0], [-1.0, 0.0, 0.0, 0.0],[-1.0, 0.0, 1.0, 0.0], [9E+9, 9E+9, 9E9, 9E9, 9E9, 9E9]];
    CONST robtarget p_DrawLogo_428 := [[1101.102, 94.678, 430.0], [-1.0, 0.0, 0.0, 0.0],[-1.0, 0.0, 1.0, 0.0], [9E+9, 9E+9, 9E9, 9E9, 9E9, 9E9]];
    CONST robtarget p_DrawLogo_429 := [[1099.614, 95.12899999999999, 430.0], [-1.0, 0.0, 0.0, 0.0],[-1.0, 0.0, 1.0, 0.0], [9E+9, 9E+9, 9E9, 9E9, 9E9, 9E9]];
    CONST robtarget p_DrawLogo_430 := [[1098.09, 95.493, 430.0], [-1.0, 0.0, 0.0, 0.0],[-1.0, 0.0, 1.0, 0.0], [9E+9, 9E+9, 9E9, 9E9, 9E9, 9E9]];
    CONST robtarget p_DrawLogo_431 := [[1096.613, 95.756, 430.0], [-1.0, 0.0, 0.0, 0.0],[-1.0, 0.0, 1.0, 0.0], [9E+9, 9E+9, 9E9, 9E9, 9E9, 9E9]];
    CONST robtarget p_DrawLogo_432 := [[1089.523, 95.745, 430.0], [-1.0, 0.0, 0.0, 0.0],[-1.0, 0.0, 1.0, 0.0], [9E+9, 9E+9, 9E9, 9E9, 9E9, 9E9]];
    CONST robtarget p_DrawLogo_433 := [[1089.523, 39.175, 430.0], [-1.0, 0.0, 0.0, 0.0],[-1.0, 0.0, 1.0, 0.0], [9E+9, 9E+9, 9E9, 9E9, 9E9, 9E9]];
    CONST robtarget p_DrawLogo_434 := [[1097.801, 39.175, 430.0], [-1.0, 0.0, 0.0, 0.0],[-1.0, 0.0, 1.0, 0.0], [9E+9, 9E+9, 9E9, 9E9, 9E9, 9E9]];
    CONST robtarget p_DrawLogo_435 := [[1098.013, 83.696, 430.0], [-1.0, 0.0, 0.0, 0.0],[-1.0, 0.0, 1.0, 0.0], [9E+9, 9E+9, 9E9, 9E9, 9E9, 9E9]];
    CONST robtarget p_DrawLogo_436 := [[1100.11, 84.22300000000001, 430.0], [-1.0, 0.0, 0.0, 0.0],[-1.0, 0.0, 1.0, 0.0], [9E+9, 9E+9, 9E9, 9E9, 9E9, 9E9]];
    CONST robtarget p_DrawLogo_437 := [[1104.047, 82.839, 430.0], [-1.0, 0.0, 0.0, 0.0],[-1.0, 0.0, 1.0, 0.0], [9E+9, 9E+9, 9E9, 9E9, 9E9, 9E9]];
    CONST robtarget p_DrawLogo_438 := [[1108.07, 78.398, 430.0], [-1.0, 0.0, 0.0, 0.0],[-1.0, 0.0, 1.0, 0.0], [9E+9, 9E+9, 9E9, 9E9, 9E9, 9E9]];
    CONST robtarget p_DrawLogo_439 := [[1111.459, 69.614, 430.0], [-1.0, 0.0, 0.0, 0.0],[-1.0, 0.0, 1.0, 0.0], [9E+9, 9E+9, 9E9, 9E9, 9E9, 9E9]];
    CONST robtarget p_DrawLogo_440 := [[1113.23, 56.777, 430.0], [-1.0, 0.0, 0.0, 0.0],[-1.0, 0.0, 1.0, 0.0], [9E+9, 9E+9, 9E9, 9E9, 9E9, 9E9]];
    CONST robtarget p_DrawLogo_441 := [[1113.243, 52.622, 430.0], [-1.0, 0.0, 0.0, 0.0],[-1.0, 0.0, 1.0, 0.0], [9E+9, 9E+9, 9E9, 9E9, 9E9, 9E9]];
    CONST robtarget p_DrawLogo_442 := [[1121.8029999999999, 52.622, 430.0], [-1.0, 0.0, 0.0, 0.0],[-1.0, 0.0, 1.0, 0.0], [9E+9, 9E+9, 9E9, 9E9, 9E9, 9E9]];
    CONST robtarget p_DrawLogo_443 := [[1122.571, 67.796, 430.0], [-1.0, 0.0, 0.0, 0.0],[-1.0, 0.0, 1.0, 0.0], [9E+9, 9E+9, 9E9, 9E9, 9E9, 9E9]];
    CONST robtarget p_DrawLogo_444 := [[1124.861, 76.061, 430.0], [-1.0, 0.0, 0.0, 0.0],[-1.0, 0.0, 1.0, 0.0], [9E+9, 9E+9, 9E9, 9E9, 9E9, 9E9]];
    CONST robtarget p_DrawLogo_445 := [[1128.396, 81.213, 430.0], [-1.0, 0.0, 0.0, 0.0],[-1.0, 0.0, 1.0, 0.0], [9E+9, 9E+9, 9E9, 9E9, 9E9, 9E9]];
    CONST robtarget p_DrawLogo_446 := [[1130.999, 83.184, 430.0], [-1.0, 0.0, 0.0, 0.0],[-1.0, 0.0, 1.0, 0.0], [9E+9, 9E+9, 9E9, 9E9, 9E9, 9E9]];
    CONST robtarget p_DrawLogo_447 := [[1133.741, 83.84100000000001, 430.0], [-1.0, 0.0, 0.0, 0.0],[-1.0, 0.0, 1.0, 0.0], [9E+9, 9E+9, 9E9, 9E9, 9E9, 9E9]];
    CONST robtarget p_DrawLogo_448 := [[1134.956, 83.947, 430.0], [-1.0, 0.0, 0.0, 0.0],[-1.0, 0.0, 1.0, 0.0], [9E+9, 9E+9, 9E9, 9E9, 9E9, 9E9]];
    CONST robtarget p_DrawLogo_449 := [[1136.6779999999999, 83.881, 430.0], [-1.0, 0.0, 0.0, 0.0],[-1.0, 0.0, 1.0, 0.0], [9E+9, 9E+9, 9E9, 9E9, 9E9, 9E9]];
    CONST robtarget p_DrawLogo_450 := [[1136.6779999999999, 83.881, 430.0], [-1.0, 0.0, 0.0, 0.0],[-1.0, 0.0, 1.0, 0.0], [9E+9, 9E+9, 9E9, 9E9, 9E9, 9E9]];
    CONST robtarget p_DrawLogo_451 := [[1136.8600000000001, 84.066, 430.0], [-1.0, 0.0, 0.0, 0.0],[-1.0, 0.0, 1.0, 0.0], [9E+9, 9E+9, 9E9, 9E9, 9E9, 9E9]];
    CONST robtarget p_DrawLogo_452 := [[1137.121, 83.685, 430.0], [-1.0, 0.0, 0.0, 0.0],[-1.0, 0.0, 1.0, 0.0], [9E+9, 9E+9, 9E9, 9E9, 9E9, 9E9]];
    CONST robtarget p_DrawLogo_453 := [[1137.252, 83.27199999999999, 430.0], [-1.0, 0.0, 0.0, 0.0],[-1.0, 0.0, 1.0, 0.0], [9E+9, 9E+9, 9E9, 9E9, 9E9, 9E9]];
    CONST robtarget p_DrawLogo_454 := [[1137.254, 39.282, 430.0], [-1.0, 0.0, 0.0, 0.0],[-1.0, 0.0, 1.0, 0.0], [9E+9, 9E+9, 9E9, 9E9, 9E9, 9E9]];
    CONST robtarget p_DrawLogo_455 := [[1145.19, 39.257999999999996, 430.0], [-1.0, 0.0, 0.0, 0.0],[-1.0, 0.0, 1.0, 0.0], [9E+9, 9E+9, 9E9, 9E9, 9E9, 9E9]];
    CONST robtarget p_DrawLogo_456 := [[1145.289, 95.73500000000001, 430.0], [-1.0, 0.0, 0.0, 0.0],[-1.0, 0.0, 1.0, 0.0], [9E+9, 9E+9, 9E9, 9E9, 9E9, 9E9]];
    CONST robtarget p_DrawLogo_457 := [[1140.916, 95.745, 430.0], [-1.0, 0.0, 0.0, 0.0],[-1.0, 0.0, 1.0, 0.0], [9E+9, 9E+9, 9E9, 9E9, 9E9, 9E9]];
    CONST robtarget p_DrawLogo_458 := [[1139.936, 95.73400000000001, 430.0], [-1.0, 0.0, 0.0, 0.0],[-1.0, 0.0, 1.0, 0.0], [9E+9, 9E+9, 9E9, 9E9, 9E9, 9E9]];
    CONST robtarget p_DrawLogo_459 := [[1139.007, 95.685, 430.0], [-1.0, 0.0, 0.0, 0.0],[-1.0, 0.0, 1.0, 0.0], [9E+9, 9E+9, 9E9, 9E9, 9E9, 9E9]];
    CONST robtarget p_DrawLogo_460 := [[1138.129, 95.601, 430.0], [-1.0, 0.0, 0.0, 0.0],[-1.0, 0.0, 1.0, 0.0], [9E+9, 9E+9, 9E9, 9E9, 9E9, 9E9]];
    CONST robtarget p_DrawLogo_461 := [[1137.304, 95.482, 430.0], [-1.0, 0.0, 0.0, 0.0],[-1.0, 0.0, 1.0, 0.0], [9E+9, 9E+9, 9E9, 9E9, 9E9, 9E9]];
    CONST robtarget p_DrawLogo_462 := [[1136.452, 95.31899999999999, 430.0], [-1.0, 0.0, 0.0, 0.0],[-1.0, 0.0, 1.0, 0.0], [9E+9, 9E+9, 9E9, 9E9, 9E9, 9E9]];
    CONST robtarget p_DrawLogo_463 := [[1135.512, 95.089, 430.0], [-1.0, 0.0, 0.0, 0.0],[-1.0, 0.0, 1.0, 0.0], [9E+9, 9E+9, 9E9, 9E9, 9E9, 9E9]];
    CONST robtarget p_DrawLogo_464 := [[1134.91, 94.91900000000001, 430.0], [-1.0, 0.0, 0.0, 0.0],[-1.0, 0.0, 1.0, 0.0], [9E+9, 9E+9, 9E9, 9E9, 9E9, 9E9]];
    CONST robtarget p_DrawLogo_465 := [[1134.059, 94.631, 430.0], [-1.0, 0.0, 0.0, 0.0],[-1.0, 0.0, 1.0, 0.0], [9E+9, 9E+9, 9E9, 9E9, 9E9, 9E9]];
    CONST robtarget p_DrawLogo_466 := [[1133.2640000000001, 94.322, 430.0], [-1.0, 0.0, 0.0, 0.0],[-1.0, 0.0, 1.0, 0.0], [9E+9, 9E+9, 9E9, 9E9, 9E9, 9E9]];
    CONST robtarget p_DrawLogo_467 := [[1132.529, 94.00299999999999, 430.0], [-1.0, 0.0, 0.0, 0.0],[-1.0, 0.0, 1.0, 0.0], [9E+9, 9E+9, 9E9, 9E9, 9E9, 9E9]];
    CONST robtarget p_DrawLogo_468 := [[1131.79, 93.649, 430.0], [-1.0, 0.0, 0.0, 0.0],[-1.0, 0.0, 1.0, 0.0], [9E+9, 9E+9, 9E9, 9E9, 9E9, 9E9]];
    CONST robtarget p_DrawLogo_469 := [[1131.05, 93.267, 430.0], [-1.0, 0.0, 0.0, 0.0],[-1.0, 0.0, 1.0, 0.0], [9E+9, 9E+9, 9E9, 9E9, 9E9, 9E9]];
    CONST robtarget p_DrawLogo_470 := [[1129.629, 92.46199999999999, 430.0], [-1.0, 0.0, 0.0, 0.0],[-1.0, 0.0, 1.0, 0.0], [9E+9, 9E+9, 9E9, 9E9, 9E9, 9E9]];
    CONST robtarget p_DrawLogo_471 := [[1128.3029999999999, 91.63900000000001, 430.0], [-1.0, 0.0, 0.0, 0.0],[-1.0, 0.0, 1.0, 0.0], [9E+9, 9E+9, 9E9, 9E9, 9E9, 9E9]];
    CONST robtarget p_DrawLogo_472 := [[1127.023, 90.773, 430.0], [-1.0, 0.0, 0.0, 0.0],[-1.0, 0.0, 1.0, 0.0], [9E+9, 9E+9, 9E9, 9E9, 9E9, 9E9]];
    CONST robtarget p_DrawLogo_473 := [[1125.77, 89.844, 430.0], [-1.0, 0.0, 0.0, 0.0],[-1.0, 0.0, 1.0, 0.0], [9E+9, 9E+9, 9E9, 9E9, 9E9, 9E9]];
    CONST robtarget p_DrawLogo_474 := [[1125.203, 89.387, 430.0], [-1.0, 0.0, 0.0, 0.0],[-1.0, 0.0, 1.0, 0.0], [9E+9, 9E+9, 9E9, 9E9, 9E9, 9E9]];
    CONST robtarget p_DrawLogo_475 := [[1124.601, 88.86600000000001, 430.0], [-1.0, 0.0, 0.0, 0.0],[-1.0, 0.0, 1.0, 0.0], [9E+9, 9E+9, 9E9, 9E9, 9E9, 9E9]];
    CONST robtarget p_DrawLogo_476 := [[1124.026, 88.33500000000001, 430.0], [-1.0, 0.0, 0.0, 0.0],[-1.0, 0.0, 1.0, 0.0], [9E+9, 9E+9, 9E9, 9E9, 9E9, 9E9]];
    CONST robtarget p_DrawLogo_477 := [[1123.411, 87.715, 430.0], [-1.0, 0.0, 0.0, 0.0],[-1.0, 0.0, 1.0, 0.0], [9E+9, 9E+9, 9E9, 9E9, 9E9, 9E9]];
    CONST robtarget p_DrawLogo_478 := [[1122.893, 87.167, 430.0], [-1.0, 0.0, 0.0, 0.0],[-1.0, 0.0, 1.0, 0.0], [9E+9, 9E+9, 9E9, 9E9, 9E9, 9E9]];
    CONST robtarget p_DrawLogo_479 := [[1122.291, 86.47800000000001, 430.0], [-1.0, 0.0, 0.0, 0.0],[-1.0, 0.0, 1.0, 0.0], [9E+9, 9E+9, 9E9, 9E9, 9E9, 9E9]];
    CONST robtarget p_DrawLogo_480 := [[1121.69, 85.739, 430.0], [-1.0, 0.0, 0.0, 0.0],[-1.0, 0.0, 1.0, 0.0], [9E+9, 9E+9, 9E9, 9E9, 9E9, 9E9]];
    CONST robtarget p_DrawLogo_481 := [[1121.138, 85.017, 430.0], [-1.0, 0.0, 0.0, 0.0],[-1.0, 0.0, 1.0, 0.0], [9E+9, 9E+9, 9E9, 9E9, 9E9, 9E9]];
    CONST robtarget p_DrawLogo_482 := [[1120.494, 84.12899999999999, 430.0], [-1.0, 0.0, 0.0, 0.0],[-1.0, 0.0, 1.0, 0.0], [9E+9, 9E+9, 9E9, 9E9, 9E9, 9E9]];
    CONST robtarget p_DrawLogo_483 := [[1119.844, 83.18199999999999, 430.0], [-1.0, 0.0, 0.0, 0.0],[-1.0, 0.0, 1.0, 0.0], [9E+9, 9E+9, 9E9, 9E9, 9E9, 9E9]];
    CONST robtarget p_DrawLogo_484 := [[1119.318, 82.368, 430.0], [-1.0, 0.0, 0.0, 0.0],[-1.0, 0.0, 1.0, 0.0], [9E+9, 9E+9, 9E9, 9E9, 9E9, 9E9]];
    CONST robtarget p_DrawLogo_485 := [[1118.581, 81.196, 430.0], [-1.0, 0.0, 0.0, 0.0],[-1.0, 0.0, 1.0, 0.0], [9E+9, 9E+9, 9E9, 9E9, 9E9, 9E9]];
    CONST robtarget p_DrawLogo_486 := [[1118.396, 80.99799999999999, 430.0], [-1.0, 0.0, 0.0, 0.0],[-1.0, 0.0, 1.0, 0.0], [9E+9, 9E+9, 9E9, 9E9, 9E9, 9E9]];
    CONST robtarget p_DrawLogo_487 := [[1118.112, 80.81, 430.0], [-1.0, 0.0, 0.0, 0.0],[-1.0, 0.0, 1.0, 0.0], [9E+9, 9E+9, 9E9, 9E9, 9E9, 9E9]];
    CONST robtarget p_DrawLogo_488 := [[1117.837, 80.709, 430.0], [-1.0, 0.0, 0.0, 0.0],[-1.0, 0.0, 1.0, 0.0], [9E+9, 9E+9, 9E9, 9E9, 9E9, 9E9]];
    CONST robtarget p_DrawLogo_489 := [[1117.424, 80.65199999999999, 430.0], [-1.0, 0.0, 0.0, 0.0],[-1.0, 0.0, 1.0, 0.0], [9E+9, 9E+9, 9E9, 9E9, 9E9, 9E9]];
    CONST robtarget p_DrawLogo_490 := [[1117.025, 80.75299999999999, 430.0], [-1.0, 0.0, 0.0, 0.0],[-1.0, 0.0, 1.0, 0.0], [9E+9, 9E+9, 9E9, 9E9, 9E9, 9E9]];
    CONST robtarget p_DrawLogo_491 := [[1116.689, 80.91999999999999, 430.0], [-1.0, 0.0, 0.0, 0.0],[-1.0, 0.0, 1.0, 0.0], [9E+9, 9E+9, 9E9, 9E9, 9E9, 9E9]];
    CONST robtarget p_DrawLogo_492 := [[1116.4, 81.22300000000001, 430.0], [-1.0, 0.0, 0.0, 0.0],[-1.0, 0.0, 1.0, 0.0], [9E+9, 9E+9, 9E9, 9E9, 9E9, 9E9]];
    CONST robtarget p_DrawLogo_493 := [[1115.482, 82.707, 430.0], [-1.0, 0.0, 0.0, 0.0],[-1.0, 0.0, 1.0, 0.0], [9E+9, 9E+9, 9E9, 9E9, 9E9, 9E9]];
    CONST robtarget p_DrawLogo_494 := [[1114.565, 84.04599999999999, 430.0], [-1.0, 0.0, 0.0, 0.0],[-1.0, 0.0, 1.0, 0.0], [9E+9, 9E+9, 9E9, 9E9, 9E9, 9E9]];
    CONST robtarget p_DrawLogo_495 := [[1113.597, 85.33500000000001, 430.0], [-1.0, 0.0, 0.0, 0.0],[-1.0, 0.0, 1.0, 0.0], [9E+9, 9E+9, 9E9, 9E9, 9E9, 9E9]];
    CONST robtarget p_DrawLogo_496 := [[1112.573, 86.566, 430.0], [-1.0, 0.0, 0.0, 0.0],[-1.0, 0.0, 1.0, 0.0], [9E+9, 9E+9, 9E9, 9E9, 9E9, 9E9]];
    CONST robtarget p_DrawLogo_497 := [[1111.479, 87.757, 430.0], [-1.0, 0.0, 0.0, 0.0],[-1.0, 0.0, 1.0, 0.0], [9E+9, 9E+9, 9E9, 9E9, 9E9, 9E9]];
    CONST robtarget p_DrawLogo_498 := [[1110.351, 88.86099999999999, 430.0], [-1.0, 0.0, 0.0, 0.0],[-1.0, 0.0, 1.0, 0.0], [9E+9, 9E+9, 9E9, 9E9, 9E9, 9E9]];
    CONST robtarget p_DrawLogo_499 := [[1109.159, 89.912, 430.0], [-1.0, 0.0, 0.0, 0.0],[-1.0, 0.0, 1.0, 0.0], [9E+9, 9E+9, 9E9, 9E9, 9E9, 9E9]];
    CONST robtarget p_DrawLogo_500 := [[1107.914, 90.886, 430.0], [-1.0, 0.0, 0.0, 0.0],[-1.0, 0.0, 1.0, 0.0], [9E+9, 9E+9, 9E9, 9E9, 9E9, 9E9]];
    CONST robtarget p_DrawLogo_501 := [[1106.593, 91.80199999999999, 430.0], [-1.0, 0.0, 0.0, 0.0],[-1.0, 0.0, 1.0, 0.0], [9E+9, 9E+9, 9E9, 9E9, 9E9, 9E9]];
    CONST robtarget p_DrawLogo_502 := [[1105.273, 92.601, 430.0], [-1.0, 0.0, 0.0, 0.0],[-1.0, 0.0, 1.0, 0.0], [9E+9, 9E+9, 9E9, 9E9, 9E9, 9E9]];
    CONST robtarget p_DrawLogo_503 := [[1103.914, 93.31299999999999, 430.0], [-1.0, 0.0, 0.0, 0.0],[-1.0, 0.0, 1.0, 0.0], [9E+9, 9E+9, 9E9, 9E9, 9E9, 9E9]];
    CONST robtarget p_DrawLogo_504 := [[1102.488, 93.94900000000001, 430.0], [-1.0, 0.0, 0.0, 0.0],[-1.0, 0.0, 1.0, 0.0], [9E+9, 9E+9, 9E9, 9E9, 9E9, 9E9]];
    CONST robtarget p_DrawLogo_505 := [[1101.033, 94.49100000000001, 430.0], [-1.0, 0.0, 0.0, 0.0],[-1.0, 0.0, 1.0, 0.0], [9E+9, 9E+9, 9E9, 9E9, 9E9, 9E9]];
    CONST robtarget p_DrawLogo_506 := [[1099.571, 94.93299999999999, 430.0], [-1.0, 0.0, 0.0, 0.0],[-1.0, 0.0, 1.0, 0.0], [9E+9, 9E+9, 9E9, 9E9, 9E9, 9E9]];
    CONST robtarget p_DrawLogo_507 := [[1098.0529999999999, 95.297, 430.0], [-1.0, 0.0, 0.0, 0.0],[-1.0, 0.0, 1.0, 0.0], [9E+9, 9E+9, 9E9, 9E9, 9E9, 9E9]];
    CONST robtarget p_DrawLogo_508 := [[1096.601, 95.55600000000001, 430.0], [-1.0, 0.0, 0.0, 0.0],[-1.0, 0.0, 1.0, 0.0], [9E+9, 9E+9, 9E9, 9E9, 9E9, 9E9]];
    CONST robtarget p_DrawLogo_509 := [[1089.712, 95.55600000000001, 430.0], [-1.0, 0.0, 0.0, 0.0],[-1.0, 0.0, 1.0, 0.0], [9E+9, 9E+9, 9E9, 9E9, 9E9, 9E9]];
    CONST robtarget p_DrawLogo_510 := [[1089.711, 39.363, 430.0], [-1.0, 0.0, 0.0, 0.0],[-1.0, 0.0, 1.0, 0.0], [9E+9, 9E+9, 9E9, 9E9, 9E9, 9E9]];
    CONST robtarget p_DrawLogo_511 := [[1097.613, 39.363, 430.0], [-1.0, 0.0, 0.0, 0.0],[-1.0, 0.0, 1.0, 0.0], [9E+9, 9E+9, 9E9, 9E9, 9E9, 9E9]];
    CONST robtarget p_DrawLogo_512 := [[1097.615, 83.201, 430.0], [-1.0, 0.0, 0.0, 0.0],[-1.0, 0.0, 1.0, 0.0], [9E+9, 9E+9, 9E9, 9E9, 9E9, 9E9]];
    CONST robtarget p_DrawLogo_513 := [[1097.671, 83.43700000000001, 430.0], [-1.0, 0.0, 0.0, 0.0],[-1.0, 0.0, 1.0, 0.0], [9E+9, 9E+9, 9E9, 9E9, 9E9, 9E9]];
    CONST robtarget p_DrawLogo_514 := [[1097.848, 83.80600000000001, 430.0], [-1.0, 0.0, 0.0, 0.0],[-1.0, 0.0, 1.0, 0.0], [9E+9, 9E+9, 9E9, 9E9, 9E9, 9E9]];
    CONST robtarget p_DrawLogo_515 := [[1098.091, 84.08000000000001, 430.0], [-1.0, 0.0, 0.0, 0.0],[-1.0, 0.0, 1.0, 0.0], [9E+9, 9E+9, 9E9, 9E9, 9E9, 9E9]];
    CONST robtarget p_DrawLogo_516 := [[1098.37, 84.263, 430.0], [-1.0, 0.0, 0.0, 0.0],[-1.0, 0.0, 1.0, 0.0], [9E+9, 9E+9, 9E9, 9E9, 9E9, 9E9]];
    CONST robtarget p_DrawLogo_517 := [[1098.687, 84.398, 430.0], [-1.0, 0.0, 0.0, 0.0],[-1.0, 0.0, 1.0, 0.0], [9E+9, 9E+9, 9E9, 9E9, 9E9, 9E9]];
    CONST robtarget p_DrawLogo_518 := [[1099.006, 84.47999999999999, 430.0], [-1.0, 0.0, 0.0, 0.0],[-1.0, 0.0, 1.0, 0.0], [9E+9, 9E+9, 9E9, 9E9, 9E9, 9E9]];
    CONST robtarget p_DrawLogo_519 := [[1099.71, 84.46000000000001, 430.0], [-1.0, 0.0, 0.0, 0.0],[-1.0, 0.0, 1.0, 0.0], [9E+9, 9E+9, 9E9, 9E9, 9E9, 9E9]];
    CONST robtarget p_DrawLogo_520 := [[1100.137, 84.42099999999999, 430.0], [-1.0, 0.0, 0.0, 0.0],[-1.0, 0.0, 1.0, 0.0], [9E+9, 9E+9, 9E9, 9E9, 9E9, 9E9]];
    CONST robtarget p_DrawLogo_521 := [[1100.763, 84.326, 430.0], [-1.0, 0.0, 0.0, 0.0],[-1.0, 0.0, 1.0, 0.0], [9E+9, 9E+9, 9E9, 9E9, 9E9, 9E9]];
    CONST robtarget p_DrawLogo_522 := [[1101.285, 84.21700000000001, 430.0], [-1.0, 0.0, 0.0, 0.0],[-1.0, 0.0, 1.0, 0.0], [9E+9, 9E+9, 9E9, 9E9, 9E9, 9E9]];
    CONST robtarget p_DrawLogo_523 := [[1102.0819999999999, 83.99700000000001, 430.0], [-1.0, 0.0, 0.0, 0.0],[-1.0, 0.0, 1.0, 0.0], [9E+9, 9E+9, 9E9, 9E9, 9E9, 9E9]];
    CONST robtarget p_DrawLogo_524 := [[1102.7930000000001, 83.73400000000001, 430.0], [-1.0, 0.0, 0.0, 0.0],[-1.0, 0.0, 1.0, 0.0], [9E+9, 9E+9, 9E9, 9E9, 9E9, 9E9]];
    CONST robtarget p_DrawLogo_525 := [[1103.481, 83.412, 430.0], [-1.0, 0.0, 0.0, 0.0],[-1.0, 0.0, 1.0, 0.0], [9E+9, 9E+9, 9E9, 9E9, 9E9, 9E9]];
    CONST robtarget p_DrawLogo_526 := [[1104.149, 83.011, 430.0], [-1.0, 0.0, 0.0, 0.0],[-1.0, 0.0, 1.0, 0.0], [9E+9, 9E+9, 9E9, 9E9, 9E9, 9E9]];
    CONST robtarget p_DrawLogo_527 := [[1104.8319999999999, 82.50800000000001, 430.0], [-1.0, 0.0, 0.0, 0.0],[-1.0, 0.0, 1.0, 0.0], [9E+9, 9E+9, 9E9, 9E9, 9E9, 9E9]];
    CONST robtarget p_DrawLogo_528 := [[1105.448, 81.96700000000001, 430.0], [-1.0, 0.0, 0.0, 0.0],[-1.0, 0.0, 1.0, 0.0], [9E+9, 9E+9, 9E9, 9E9, 9E9, 9E9]];
    CONST robtarget p_DrawLogo_529 := [[1105.965, 81.445, 430.0], [-1.0, 0.0, 0.0, 0.0],[-1.0, 0.0, 1.0, 0.0], [9E+9, 9E+9, 9E9, 9E9, 9E9, 9E9]];
    CONST robtarget p_DrawLogo_530 := [[1106.4569999999999, 80.89699999999999, 430.0], [-1.0, 0.0, 0.0, 0.0],[-1.0, 0.0, 1.0, 0.0], [9E+9, 9E+9, 9E9, 9E9, 9E9, 9E9]];
    CONST robtarget p_DrawLogo_531 := [[1107.354, 79.78800000000001, 430.0], [-1.0, 0.0, 0.0, 0.0],[-1.0, 0.0, 1.0, 0.0], [9E+9, 9E+9, 9E9, 9E9, 9E9, 9E9]];
    CONST robtarget p_DrawLogo_532 := [[1107.811, 79.16, 430.0], [-1.0, 0.0, 0.0, 0.0],[-1.0, 0.0, 1.0, 0.0], [9E+9, 9E+9, 9E9, 9E9, 9E9, 9E9]];
    CONST robtarget p_DrawLogo_533 := [[1108.242, 78.5, 430.0], [-1.0, 0.0, 0.0, 0.0],[-1.0, 0.0, 1.0, 0.0], [9E+9, 9E+9, 9E9, 9E9, 9E9, 9E9]];
    CONST robtarget p_DrawLogo_534 := [[1108.704, 77.723, 430.0], [-1.0, 0.0, 0.0, 0.0],[-1.0, 0.0, 1.0, 0.0], [9E+9, 9E+9, 9E9, 9E9, 9E9, 9E9]];
    CONST robtarget p_DrawLogo_535 := [[1109.069, 77.048, 430.0], [-1.0, 0.0, 0.0, 0.0],[-1.0, 0.0, 1.0, 0.0], [9E+9, 9E+9, 9E9, 9E9, 9E9, 9E9]];
    CONST robtarget p_DrawLogo_536 := [[1109.635, 75.834, 430.0], [-1.0, 0.0, 0.0, 0.0],[-1.0, 0.0, 1.0, 0.0], [9E+9, 9E+9, 9E9, 9E9, 9E9, 9E9]];
    CONST robtarget p_DrawLogo_537 := [[1109.891, 75.232, 430.0], [-1.0, 0.0, 0.0, 0.0],[-1.0, 0.0, 1.0, 0.0], [9E+9, 9E+9, 9E9, 9E9, 9E9, 9E9]];
    CONST robtarget p_DrawLogo_538 := [[1110.344, 74.063, 430.0], [-1.0, 0.0, 0.0, 0.0],[-1.0, 0.0, 1.0, 0.0], [9E+9, 9E+9, 9E9, 9E9, 9E9, 9E9]];
    CONST robtarget p_DrawLogo_539 := [[1110.589, 73.361, 430.0], [-1.0, 0.0, 0.0, 0.0],[-1.0, 0.0, 1.0, 0.0], [9E+9, 9E+9, 9E9, 9E9, 9E9, 9E9]];
    CONST robtarget p_DrawLogo_540 := [[1111.01, 72.045, 430.0], [-1.0, 0.0, 0.0, 0.0],[-1.0, 0.0, 1.0, 0.0], [9E+9, 9E+9, 9E9, 9E9, 9E9, 9E9]];
    CONST robtarget p_DrawLogo_541 := [[1111.45, 70.471, 430.0], [-1.0, 0.0, 0.0, 0.0],[-1.0, 0.0, 1.0, 0.0], [9E+9, 9E+9, 9E9, 9E9, 9E9, 9E9]];
    CONST robtarget p_DrawLogo_542 := [[1111.654, 69.658, 430.0], [-1.0, 0.0, 0.0, 0.0],[-1.0, 0.0, 1.0, 0.0], [9E+9, 9E+9, 9E9, 9E9, 9E9, 9E9]];
    CONST robtarget p_DrawLogo_543 := [[1112.037, 67.942, 430.0], [-1.0, 0.0, 0.0, 0.0],[-1.0, 0.0, 1.0, 0.0], [9E+9, 9E+9, 9E9, 9E9, 9E9, 9E9]];
    CONST robtarget p_DrawLogo_544 := [[1112.367, 66.217, 430.0], [-1.0, 0.0, 0.0, 0.0],[-1.0, 0.0, 1.0, 0.0], [9E+9, 9E+9, 9E9, 9E9, 9E9, 9E9]];
    CONST robtarget p_DrawLogo_545 := [[1112.676, 64.272, 430.0], [-1.0, 0.0, 0.0, 0.0],[-1.0, 0.0, 1.0, 0.0], [9E+9, 9E+9, 9E9, 9E9, 9E9, 9E9]];
    CONST robtarget p_DrawLogo_546 := [[1112.945, 62.248999999999995, 430.0], [-1.0, 0.0, 0.0, 0.0],[-1.0, 0.0, 1.0, 0.0], [9E+9, 9E+9, 9E9, 9E9, 9E9, 9E9]];
    CONST robtarget p_DrawLogo_547 := [[1113.06, 61.19799999999999, 430.0], [-1.0, 0.0, 0.0, 0.0],[-1.0, 0.0, 1.0, 0.0], [9E+9, 9E+9, 9E9, 9E9, 9E9, 9E9]];
    CONST robtarget p_DrawLogo_548 := [[1113.263, 59.041, 430.0], [-1.0, 0.0, 0.0, 0.0],[-1.0, 0.0, 1.0, 0.0], [9E+9, 9E+9, 9E9, 9E9, 9E9, 9E9]];
    CONST robtarget p_DrawLogo_549 := [[1113.355, 57.92, 430.0], [-1.0, 0.0, 0.0, 0.0],[-1.0, 0.0, 1.0, 0.0], [9E+9, 9E+9, 9E9, 9E9, 9E9, 9E9]];
    CONST robtarget p_DrawLogo_550 := [[1113.429, 56.801, 430.0], [-1.0, 0.0, 0.0, 0.0],[-1.0, 0.0, 1.0, 0.0], [9E+9, 9E+9, 9E9, 9E9, 9E9, 9E9]];
    CONST robtarget p_DrawLogo_551 := [[1113.431, 52.81, 430.0], [-1.0, 0.0, 0.0, 0.0],[-1.0, 0.0, 1.0, 0.0], [9E+9, 9E+9, 9E9, 9E9, 9E9, 9E9]];
    CONST robtarget p_DrawLogo_552 := [[1121.614, 52.81, 430.0], [-1.0, 0.0, 0.0, 0.0],[-1.0, 0.0, 1.0, 0.0], [9E+9, 9E+9, 9E9, 9E9, 9E9, 9E9]];
    CONST robtarget p_DrawLogo_553 := [[1121.626, 58.480999999999995, 430.0], [-1.0, 0.0, 0.0, 0.0],[-1.0, 0.0, 1.0, 0.0], [9E+9, 9E+9, 9E9, 9E9, 9E9, 9E9]];
    CONST robtarget p_DrawLogo_554 := [[1121.71, 61.033, 430.0], [-1.0, 0.0, 0.0, 0.0],[-1.0, 0.0, 1.0, 0.0], [9E+9, 9E+9, 9E9, 9E9, 9E9, 9E9]];
    CONST robtarget p_DrawLogo_555 := [[1121.802, 62.559, 430.0], [-1.0, 0.0, 0.0, 0.0],[-1.0, 0.0, 1.0, 0.0], [9E+9, 9E+9, 9E9, 9E9, 9E9, 9E9]];
    CONST robtarget p_DrawLogo_556 := [[1121.909, 63.908, 430.0], [-1.0, 0.0, 0.0, 0.0],[-1.0, 0.0, 1.0, 0.0], [9E+9, 9E+9, 9E9, 9E9, 9E9, 9E9]];
    CONST robtarget p_DrawLogo_557 := [[1122.069, 65.515, 430.0], [-1.0, 0.0, 0.0, 0.0],[-1.0, 0.0, 1.0, 0.0], [9E+9, 9E+9, 9E9, 9E9, 9E9, 9E9]];
    CONST robtarget p_DrawLogo_558 := [[1122.189, 66.523, 430.0], [-1.0, 0.0, 0.0, 0.0],[-1.0, 0.0, 1.0, 0.0], [9E+9, 9E+9, 9E9, 9E9, 9E9, 9E9]];
    CONST robtarget p_DrawLogo_559 := [[1122.38, 67.872, 430.0], [-1.0, 0.0, 0.0, 0.0],[-1.0, 0.0, 1.0, 0.0], [9E+9, 9E+9, 9E9, 9E9, 9E9, 9E9]];
    CONST robtarget p_DrawLogo_560 := [[1122.584, 69.08, 430.0], [-1.0, 0.0, 0.0, 0.0],[-1.0, 0.0, 1.0, 0.0], [9E+9, 9E+9, 9E9, 9E9, 9E9, 9E9]];
    CONST robtarget p_DrawLogo_561 := [[1122.829, 70.323, 430.0], [-1.0, 0.0, 0.0, 0.0],[-1.0, 0.0, 1.0, 0.0], [9E+9, 9E+9, 9E9, 9E9, 9E9, 9E9]];
    CONST robtarget p_DrawLogo_562 := [[1123.11, 71.547, 430.0], [-1.0, 0.0, 0.0, 0.0],[-1.0, 0.0, 1.0, 0.0], [9E+9, 9E+9, 9E9, 9E9, 9E9, 9E9]];
    CONST robtarget p_DrawLogo_563 := [[1123.429, 72.729, 430.0], [-1.0, 0.0, 0.0, 0.0],[-1.0, 0.0, 1.0, 0.0], [9E+9, 9E+9, 9E9, 9E9, 9E9, 9E9]];
    CONST robtarget p_DrawLogo_564 := [[1123.809, 73.939, 430.0], [-1.0, 0.0, 0.0, 0.0],[-1.0, 0.0, 1.0, 0.0], [9E+9, 9E+9, 9E9, 9E9, 9E9, 9E9]];
    CONST robtarget p_DrawLogo_565 := [[1124.191, 74.994, 430.0], [-1.0, 0.0, 0.0, 0.0],[-1.0, 0.0, 1.0, 0.0], [9E+9, 9E+9, 9E9, 9E9, 9E9, 9E9]];
    CONST robtarget p_DrawLogo_566 := [[1124.68, 76.147, 430.0], [-1.0, 0.0, 0.0, 0.0],[-1.0, 0.0, 1.0, 0.0], [9E+9, 9E+9, 9E9, 9E9, 9E9, 9E9]];
    CONST robtarget p_DrawLogo_567 := [[1125.194, 77.196, 430.0], [-1.0, 0.0, 0.0, 0.0],[-1.0, 0.0, 1.0, 0.0], [9E+9, 9E+9, 9E9, 9E9, 9E9, 9E9]];
    CONST robtarget p_DrawLogo_568 := [[1125.712, 78.112, 430.0], [-1.0, 0.0, 0.0, 0.0],[-1.0, 0.0, 1.0, 0.0], [9E+9, 9E+9, 9E9, 9E9, 9E9, 9E9]];
    CONST robtarget p_DrawLogo_569 := [[1126.302, 79.03200000000001, 430.0], [-1.0, 0.0, 0.0, 0.0],[-1.0, 0.0, 1.0, 0.0], [9E+9, 9E+9, 9E9, 9E9, 9E9, 9E9]];
    CONST robtarget p_DrawLogo_570 := [[1126.953, 79.906, 430.0], [-1.0, 0.0, 0.0, 0.0],[-1.0, 0.0, 1.0, 0.0], [9E+9, 9E+9, 9E9, 9E9, 9E9, 9E9]];
    CONST robtarget p_DrawLogo_571 := [[1127.574, 80.64500000000001, 430.0], [-1.0, 0.0, 0.0, 0.0],[-1.0, 0.0, 1.0, 0.0], [9E+9, 9E+9, 9E9, 9E9, 9E9, 9E9]];
    CONST robtarget p_DrawLogo_572 := [[1128.247, 81.34800000000001, 430.0], [-1.0, 0.0, 0.0, 0.0],[-1.0, 0.0, 1.0, 0.0], [9E+9, 9E+9, 9E9, 9E9, 9E9, 9E9]];
    CONST robtarget p_DrawLogo_573 := [[1129.051, 82.071, 430.0], [-1.0, 0.0, 0.0, 0.0],[-1.0, 0.0, 1.0, 0.0], [9E+9, 9E+9, 9E9, 9E9, 9E9, 9E9]];
    CONST robtarget p_DrawLogo_574 := [[1129.781, 82.63300000000001, 430.0], [-1.0, 0.0, 0.0, 0.0],[-1.0, 0.0, 1.0, 0.0], [9E+9, 9E+9, 9E9, 9E9, 9E9, 9E9]];
    CONST robtarget p_DrawLogo_575 := [[1130.452, 83.08000000000001, 430.0], [-1.0, 0.0, 0.0, 0.0],[-1.0, 0.0, 1.0, 0.0], [9E+9, 9E+9, 9E9, 9E9, 9E9, 9E9]];
    CONST robtarget p_DrawLogo_576 := [[1131.26, 83.53299999999999, 430.0], [-1.0, 0.0, 0.0, 0.0],[-1.0, 0.0, 1.0, 0.0], [9E+9, 9E+9, 9E9, 9E9, 9E9, 9E9]];
    CONST robtarget p_DrawLogo_577 := [[1132.098, 83.904, 430.0], [-1.0, 0.0, 0.0, 0.0],[-1.0, 0.0, 1.0, 0.0], [9E+9, 9E+9, 9E9, 9E9, 9E9, 9E9]];
    CONST robtarget p_DrawLogo_578 := [[1132.892, 84.173, 430.0], [-1.0, 0.0, 0.0, 0.0],[-1.0, 0.0, 1.0, 0.0], [9E+9, 9E+9, 9E9, 9E9, 9E9, 9E9]];
    CONST robtarget p_DrawLogo_579 := [[1133.69, 84.357, 430.0], [-1.0, 0.0, 0.0, 0.0],[-1.0, 0.0, 1.0, 0.0], [9E+9, 9E+9, 9E9, 9E9, 9E9, 9E9]];
    CONST robtarget p_DrawLogo_580 := [[1134.431, 84.465, 430.0], [-1.0, 0.0, 0.0, 0.0],[-1.0, 0.0, 1.0, 0.0], [9E+9, 9E+9, 9E9, 9E9, 9E9, 9E9]];
    CONST robtarget p_DrawLogo_581 := [[1135.191, 84.493, 430.0], [-1.0, 0.0, 0.0, 0.0],[-1.0, 0.0, 1.0, 0.0], [9E+9, 9E+9, 9E9, 9E9, 9E9, 9E9]];
    CONST robtarget p_DrawLogo_582 := [[1136.144, 84.43700000000001, 430.0], [-1.0, 0.0, 0.0, 0.0],[-1.0, 0.0, 1.0, 0.0], [9E+9, 9E+9, 9E9, 9E9, 9E9, 9E9]];
    CONST robtarget p_DrawLogo_583 := [[1136.156, 84.43199999999999, 430.0], [-1.0, 0.0, 0.0, 0.0],[-1.0, 0.0, 1.0, 0.0], [9E+9, 9E+9, 9E9, 9E9, 9E9, 9E9]];
    CONST robtarget p_DrawLogo_584 := [[1136.516, 84.30099999999999, 430.0], [-1.0, 0.0, 0.0, 0.0],[-1.0, 0.0, 1.0, 0.0], [9E+9, 9E+9, 9E9, 9E9, 9E9, 9E9]];
    CONST robtarget p_DrawLogo_585 := [[1136.8600000000001, 84.066, 430.0], [-1.0, 0.0, 0.0, 0.0],[-1.0, 0.0, 1.0, 0.0], [9E+9, 9E+9, 9E9, 9E9, 9E9, 9E9]];
    CONST robtarget p_DrawLogo_586 := [[1136.8600000000001, 84.066, 430.0], [-1.0, 0.0, 0.0, 0.0],[-1.0, 0.0, 1.0, 0.0], [9E+9, 9E+9, 9E9, 9E9, 9E9, 9E9]];
    CONST robtarget p_DrawLogo_587 := [[1136.6779999999999, 83.881, 430.0], [-1.0, 0.0, 0.0, 0.0],[-1.0, 0.0, 1.0, 0.0], [9E+9, 9E+9, 9E9, 9E9, 9E9, 9E9]];
    CONST robtarget p_DrawLogo_588 := [[1137.066, 39.093, 430.0], [-1.0, 0.0, 0.0, 0.0],[-1.0, 0.0, 1.0, 0.0], [9E+9, 9E+9, 9E9, 9E9, 9E9, 9E9]];
    CONST robtarget p_DrawLogo_589 := [[1145.379, 39.06999999999999, 430.0], [-1.0, 0.0, 0.0, 0.0],[-1.0, 0.0, 1.0, 0.0], [9E+9, 9E+9, 9E9, 9E9, 9E9, 9E9]];
    CONST robtarget p_DrawLogo_590 := [[1145.452, 39.55200000000001, 430.0], [-1.0, 0.0, 0.0, 0.0],[-1.0, 0.0, 1.0, 0.0], [9E+9, 9E+9, 9E9, 9E9, 9E9, 9E9]];
    CONST robtarget p_DrawLogo_591 := [[1145.452, 39.55200000000001, 430.0], [-1.0, 0.0, 0.0, 0.0],[-1.0, 0.0, 1.0, 0.0], [9E+9, 9E+9, 9E9, 9E9, 9E9, 9E9]];
    CONST robtarget p_DrawLogo_592 := [[1144.99, 39.55200000000001, 430.0], [-1.0, 0.0, 0.0, 0.0],[-1.0, 0.0, 1.0, 0.0], [9E+9, 9E+9, 9E9, 9E9, 9E9, 9E9]];
    CONST robtarget p_DrawLogo_593 := [[1144.896, 39.459, 430.0], [-1.0, 0.0, 0.0, 0.0],[-1.0, 0.0, 1.0, 0.0], [9E+9, 9E+9, 9E9, 9E9, 9E9, 9E9]];
    CONST robtarget p_DrawLogo_594 := [[1144.3319999999999, 39.461, 430.0], [-1.0, 0.0, 0.0, 0.0],[-1.0, 0.0, 1.0, 0.0], [9E+9, 9E+9, 9E9, 9E9, 9E9, 9E9]];
    CONST robtarget p_DrawLogo_595 := [[1144.99, 40.119, 430.0], [-1.0, 0.0, 0.0, 0.0],[-1.0, 0.0, 1.0, 0.0], [9E+9, 9E+9, 9E9, 9E9, 9E9, 9E9]];
    CONST robtarget p_DrawLogo_596 := [[1144.992, 40.68600000000001, 430.0], [-1.0, 0.0, 0.0, 0.0],[-1.0, 0.0, 1.0, 0.0], [9E+9, 9E+9, 9E9, 9E9, 9E9, 9E9]];
    CONST robtarget p_DrawLogo_597 := [[1143.768, 39.462999999999994, 430.0], [-1.0, 0.0, 0.0, 0.0],[-1.0, 0.0, 1.0, 0.0], [9E+9, 9E+9, 9E9, 9E9, 9E9, 9E9]];
    CONST robtarget p_DrawLogo_598 := [[1143.204, 39.464, 430.0], [-1.0, 0.0, 0.0, 0.0],[-1.0, 0.0, 1.0, 0.0], [9E+9, 9E+9, 9E9, 9E9, 9E9, 9E9]];
    CONST robtarget p_DrawLogo_599 := [[1144.992, 41.251999999999995, 430.0], [-1.0, 0.0, 0.0, 0.0],[-1.0, 0.0, 1.0, 0.0], [9E+9, 9E+9, 9E9, 9E9, 9E9, 9E9]];
    CONST robtarget p_DrawLogo_600 := [[1144.993, 41.819, 430.0], [-1.0, 0.0, 0.0, 0.0],[-1.0, 0.0, 1.0, 0.0], [9E+9, 9E+9, 9E9, 9E9, 9E9, 9E9]];
    CONST robtarget p_DrawLogo_601 := [[1142.6399999999999, 39.465, 430.0], [-1.0, 0.0, 0.0, 0.0],[-1.0, 0.0, 1.0, 0.0], [9E+9, 9E+9, 9E9, 9E9, 9E9, 9E9]];
    CONST robtarget p_DrawLogo_602 := [[1142.076, 39.467, 430.0], [-1.0, 0.0, 0.0, 0.0],[-1.0, 0.0, 1.0, 0.0], [9E+9, 9E+9, 9E9, 9E9, 9E9, 9E9]];
    CONST robtarget p_DrawLogo_603 := [[1144.995, 42.385999999999996, 430.0], [-1.0, 0.0, 0.0, 0.0],[-1.0, 0.0, 1.0, 0.0], [9E+9, 9E+9, 9E9, 9E9, 9E9, 9E9]];
    CONST robtarget p_DrawLogo_604 := [[1144.995, 42.952, 430.0], [-1.0, 0.0, 0.0, 0.0],[-1.0, 0.0, 1.0, 0.0], [9E+9, 9E+9, 9E9, 9E9, 9E9, 9E9]];
    CONST robtarget p_DrawLogo_605 := [[1141.512, 39.468999999999994, 430.0], [-1.0, 0.0, 0.0, 0.0],[-1.0, 0.0, 1.0, 0.0], [9E+9, 9E+9, 9E9, 9E9, 9E9, 9E9]];
    CONST robtarget p_DrawLogo_606 := [[1140.948, 39.47, 430.0], [-1.0, 0.0, 0.0, 0.0],[-1.0, 0.0, 1.0, 0.0], [9E+9, 9E+9, 9E9, 9E9, 9E9, 9E9]];
    CONST robtarget p_DrawLogo_607 := [[1144.997, 43.519000000000005, 430.0], [-1.0, 0.0, 0.0, 0.0],[-1.0, 0.0, 1.0, 0.0], [9E+9, 9E+9, 9E9, 9E9, 9E9, 9E9]];
    CONST robtarget p_DrawLogo_608 := [[1144.997, 44.086, 430.0], [-1.0, 0.0, 0.0, 0.0],[-1.0, 0.0, 1.0, 0.0], [9E+9, 9E+9, 9E9, 9E9, 9E9, 9E9]];
    CONST robtarget p_DrawLogo_609 := [[1140.384, 39.471999999999994, 430.0], [-1.0, 0.0, 0.0, 0.0],[-1.0, 0.0, 1.0, 0.0], [9E+9, 9E+9, 9E9, 9E9, 9E9, 9E9]];
    CONST robtarget p_DrawLogo_610 := [[1139.82, 39.474000000000004, 430.0], [-1.0, 0.0, 0.0, 0.0],[-1.0, 0.0, 1.0, 0.0], [9E+9, 9E+9, 9E9, 9E9, 9E9, 9E9]];
    CONST robtarget p_DrawLogo_611 := [[1144.999, 44.653000000000006, 430.0], [-1.0, 0.0, 0.0, 0.0],[-1.0, 0.0, 1.0, 0.0], [9E+9, 9E+9, 9E9, 9E9, 9E9, 9E9]];
    CONST robtarget p_DrawLogo_612 := [[1145.0, 45.218999999999994, 430.0], [-1.0, 0.0, 0.0, 0.0],[-1.0, 0.0, 1.0, 0.0], [9E+9, 9E+9, 9E9, 9E9, 9E9, 9E9]];
    CONST robtarget p_DrawLogo_613 := [[1139.256, 39.474999999999994, 430.0], [-1.0, 0.0, 0.0, 0.0],[-1.0, 0.0, 1.0, 0.0], [9E+9, 9E+9, 9E9, 9E9, 9E9, 9E9]];
    CONST robtarget p_DrawLogo_614 := [[1138.691, 39.477000000000004, 430.0], [-1.0, 0.0, 0.0, 0.0],[-1.0, 0.0, 1.0, 0.0], [9E+9, 9E+9, 9E9, 9E9, 9E9, 9E9]];
    CONST robtarget p_DrawLogo_615 := [[1145.0, 45.786, 430.0], [-1.0, 0.0, 0.0, 0.0],[-1.0, 0.0, 1.0, 0.0], [9E+9, 9E+9, 9E9, 9E9, 9E9, 9E9]];
    CONST robtarget p_DrawLogo_616 := [[1145.002, 46.352999999999994, 430.0], [-1.0, 0.0, 0.0, 0.0],[-1.0, 0.0, 1.0, 0.0], [9E+9, 9E+9, 9E9, 9E9, 9E9, 9E9]];
    CONST robtarget p_DrawLogo_617 := [[1138.128, 39.479, 430.0], [-1.0, 0.0, 0.0, 0.0],[-1.0, 0.0, 1.0, 0.0], [9E+9, 9E+9, 9E9, 9E9, 9E9, 9E9]];
    CONST robtarget p_DrawLogo_618 := [[1137.564, 39.480000000000004, 430.0], [-1.0, 0.0, 0.0, 0.0],[-1.0, 0.0, 1.0, 0.0], [9E+9, 9E+9, 9E9, 9E9, 9E9, 9E9]];
    CONST robtarget p_DrawLogo_619 := [[1145.002, 46.919, 430.0], [-1.0, 0.0, 0.0, 0.0],[-1.0, 0.0, 1.0, 0.0], [9E+9, 9E+9, 9E9, 9E9, 9E9, 9E9]];
    CONST robtarget p_DrawLogo_620 := [[1145.004, 47.486000000000004, 430.0], [-1.0, 0.0, 0.0, 0.0],[-1.0, 0.0, 1.0, 0.0], [9E+9, 9E+9, 9E9, 9E9, 9E9, 9E9]];
    CONST robtarget p_DrawLogo_621 := [[1137.453, 39.935, 430.0], [-1.0, 0.0, 0.0, 0.0],[-1.0, 0.0, 1.0, 0.0], [9E+9, 9E+9, 9E9, 9E9, 9E9, 9E9]];
    CONST robtarget p_DrawLogo_622 := [[1137.453, 40.501000000000005, 430.0], [-1.0, 0.0, 0.0, 0.0],[-1.0, 0.0, 1.0, 0.0], [9E+9, 9E+9, 9E9, 9E9, 9E9, 9E9]];
    CONST robtarget p_DrawLogo_623 := [[1145.004, 48.053, 430.0], [-1.0, 0.0, 0.0, 0.0],[-1.0, 0.0, 1.0, 0.0], [9E+9, 9E+9, 9E9, 9E9, 9E9, 9E9]];
    CONST robtarget p_DrawLogo_624 := [[1145.006, 48.620000000000005, 430.0], [-1.0, 0.0, 0.0, 0.0],[-1.0, 0.0, 1.0, 0.0], [9E+9, 9E+9, 9E9, 9E9, 9E9, 9E9]];
    CONST robtarget p_DrawLogo_625 := [[1137.453, 41.066, 430.0], [-1.0, 0.0, 0.0, 0.0],[-1.0, 0.0, 1.0, 0.0], [9E+9, 9E+9, 9E9, 9E9, 9E9, 9E9]];
    CONST robtarget p_DrawLogo_626 := [[1137.453, 41.632000000000005, 430.0], [-1.0, 0.0, 0.0, 0.0],[-1.0, 0.0, 1.0, 0.0], [9E+9, 9E+9, 9E9, 9E9, 9E9, 9E9]];
    CONST robtarget p_DrawLogo_627 := [[1145.007, 49.18600000000001, 430.0], [-1.0, 0.0, 0.0, 0.0],[-1.0, 0.0, 1.0, 0.0], [9E+9, 9E+9, 9E9, 9E9, 9E9, 9E9]];
    CONST robtarget p_DrawLogo_628 := [[1145.007, 49.751999999999995, 430.0], [-1.0, 0.0, 0.0, 0.0],[-1.0, 0.0, 1.0, 0.0], [9E+9, 9E+9, 9E9, 9E9, 9E9, 9E9]];
    CONST robtarget p_DrawLogo_629 := [[1137.453, 42.19799999999999, 430.0], [-1.0, 0.0, 0.0, 0.0],[-1.0, 0.0, 1.0, 0.0], [9E+9, 9E+9, 9E9, 9E9, 9E9, 9E9]];
    CONST robtarget p_DrawLogo_630 := [[1137.453, 42.763000000000005, 430.0], [-1.0, 0.0, 0.0, 0.0],[-1.0, 0.0, 1.0, 0.0], [9E+9, 9E+9, 9E9, 9E9, 9E9, 9E9]];
    CONST robtarget p_DrawLogo_631 := [[1145.009, 50.31999999999999, 430.0], [-1.0, 0.0, 0.0, 0.0],[-1.0, 0.0, 1.0, 0.0], [9E+9, 9E+9, 9E9, 9E9, 9E9, 9E9]];
    CONST robtarget p_DrawLogo_632 := [[1145.009, 50.885999999999996, 430.0], [-1.0, 0.0, 0.0, 0.0],[-1.0, 0.0, 1.0, 0.0], [9E+9, 9E+9, 9E9, 9E9, 9E9, 9E9]];
    CONST robtarget p_DrawLogo_633 := [[1137.453, 43.32899999999999, 430.0], [-1.0, 0.0, 0.0, 0.0],[-1.0, 0.0, 1.0, 0.0], [9E+9, 9E+9, 9E9, 9E9, 9E9, 9E9]];
    CONST robtarget p_DrawLogo_634 := [[1137.453, 43.894999999999996, 430.0], [-1.0, 0.0, 0.0, 0.0],[-1.0, 0.0, 1.0, 0.0], [9E+9, 9E+9, 9E9, 9E9, 9E9, 9E9]];
    CONST robtarget p_DrawLogo_635 := [[1145.011, 51.453, 430.0], [-1.0, 0.0, 0.0, 0.0],[-1.0, 0.0, 1.0, 0.0], [9E+9, 9E+9, 9E9, 9E9, 9E9, 9E9]];
    CONST robtarget p_DrawLogo_636 := [[1145.012, 52.019000000000005, 430.0], [-1.0, 0.0, 0.0, 0.0],[-1.0, 0.0, 1.0, 0.0], [9E+9, 9E+9, 9E9, 9E9, 9E9, 9E9]];
    CONST robtarget p_DrawLogo_637 := [[1137.453, 44.459999999999994, 430.0], [-1.0, 0.0, 0.0, 0.0],[-1.0, 0.0, 1.0, 0.0], [9E+9, 9E+9, 9E9, 9E9, 9E9, 9E9]];
    CONST robtarget p_DrawLogo_638 := [[1137.452, 45.025000000000006, 430.0], [-1.0, 0.0, 0.0, 0.0],[-1.0, 0.0, 1.0, 0.0], [9E+9, 9E+9, 9E9, 9E9, 9E9, 9E9]];
    CONST robtarget p_DrawLogo_639 := [[1145.013, 52.587, 430.0], [-1.0, 0.0, 0.0, 0.0],[-1.0, 0.0, 1.0, 0.0], [9E+9, 9E+9, 9E9, 9E9, 9E9, 9E9]];
    CONST robtarget p_DrawLogo_640 := [[1145.0140000000001, 53.153000000000006, 430.0], [-1.0, 0.0, 0.0, 0.0],[-1.0, 0.0, 1.0, 0.0], [9E+9, 9E+9, 9E9, 9E9, 9E9, 9E9]];
    CONST robtarget p_DrawLogo_641 := [[1137.452, 45.590999999999994, 430.0], [-1.0, 0.0, 0.0, 0.0],[-1.0, 0.0, 1.0, 0.0], [9E+9, 9E+9, 9E9, 9E9, 9E9, 9E9]];
    CONST robtarget p_DrawLogo_642 := [[1137.452, 46.157, 430.0], [-1.0, 0.0, 0.0, 0.0],[-1.0, 0.0, 1.0, 0.0], [9E+9, 9E+9, 9E9, 9E9, 9E9, 9E9]];
    CONST robtarget p_DrawLogo_643 := [[1145.0140000000001, 53.718999999999994, 430.0], [-1.0, 0.0, 0.0, 0.0],[-1.0, 0.0, 1.0, 0.0], [9E+9, 9E+9, 9E9, 9E9, 9E9, 9E9]];
    CONST robtarget p_DrawLogo_644 := [[1145.016, 54.286, 430.0], [-1.0, 0.0, 0.0, 0.0],[-1.0, 0.0, 1.0, 0.0], [9E+9, 9E+9, 9E9, 9E9, 9E9, 9E9]];
    CONST robtarget p_DrawLogo_645 := [[1137.452, 46.723, 430.0], [-1.0, 0.0, 0.0, 0.0],[-1.0, 0.0, 1.0, 0.0], [9E+9, 9E+9, 9E9, 9E9, 9E9, 9E9]];
    CONST robtarget p_DrawLogo_646 := [[1137.452, 47.288, 430.0], [-1.0, 0.0, 0.0, 0.0],[-1.0, 0.0, 1.0, 0.0], [9E+9, 9E+9, 9E9, 9E9, 9E9, 9E9]];
    CONST robtarget p_DrawLogo_647 := [[1145.016, 54.852999999999994, 430.0], [-1.0, 0.0, 0.0, 0.0],[-1.0, 0.0, 1.0, 0.0], [9E+9, 9E+9, 9E9, 9E9, 9E9, 9E9]];
    CONST robtarget p_DrawLogo_648 := [[1145.018, 55.42, 430.0], [-1.0, 0.0, 0.0, 0.0],[-1.0, 0.0, 1.0, 0.0], [9E+9, 9E+9, 9E9, 9E9, 9E9, 9E9]];
    CONST robtarget p_DrawLogo_649 := [[1137.452, 47.854, 430.0], [-1.0, 0.0, 0.0, 0.0],[-1.0, 0.0, 1.0, 0.0], [9E+9, 9E+9, 9E9, 9E9, 9E9, 9E9]];
    CONST robtarget p_DrawLogo_650 := [[1137.452, 48.42, 430.0], [-1.0, 0.0, 0.0, 0.0],[-1.0, 0.0, 1.0, 0.0], [9E+9, 9E+9, 9E9, 9E9, 9E9, 9E9]];
    CONST robtarget p_DrawLogo_651 := [[1145.019, 55.986000000000004, 430.0], [-1.0, 0.0, 0.0, 0.0],[-1.0, 0.0, 1.0, 0.0], [9E+9, 9E+9, 9E9, 9E9, 9E9, 9E9]];
    CONST robtarget p_DrawLogo_652 := [[1145.019, 56.553, 430.0], [-1.0, 0.0, 0.0, 0.0],[-1.0, 0.0, 1.0, 0.0], [9E+9, 9E+9, 9E9, 9E9, 9E9, 9E9]];
    CONST robtarget p_DrawLogo_653 := [[1137.452, 48.985, 430.0], [-1.0, 0.0, 0.0, 0.0],[-1.0, 0.0, 1.0, 0.0], [9E+9, 9E+9, 9E9, 9E9, 9E9, 9E9]];
    CONST robtarget p_DrawLogo_654 := [[1137.452, 49.551, 430.0], [-1.0, 0.0, 0.0, 0.0],[-1.0, 0.0, 1.0, 0.0], [9E+9, 9E+9, 9E9, 9E9, 9E9, 9E9]];
    CONST robtarget p_DrawLogo_655 := [[1145.021, 57.120000000000005, 430.0], [-1.0, 0.0, 0.0, 0.0],[-1.0, 0.0, 1.0, 0.0], [9E+9, 9E+9, 9E9, 9E9, 9E9, 9E9]];
    CONST robtarget p_DrawLogo_656 := [[1145.021, 57.68600000000001, 430.0], [-1.0, 0.0, 0.0, 0.0],[-1.0, 0.0, 1.0, 0.0], [9E+9, 9E+9, 9E9, 9E9, 9E9, 9E9]];
    CONST robtarget p_DrawLogo_657 := [[1137.452, 50.117000000000004, 430.0], [-1.0, 0.0, 0.0, 0.0],[-1.0, 0.0, 1.0, 0.0], [9E+9, 9E+9, 9E9, 9E9, 9E9, 9E9]];
    CONST robtarget p_DrawLogo_658 := [[1137.451, 50.682, 430.0], [-1.0, 0.0, 0.0, 0.0],[-1.0, 0.0, 1.0, 0.0], [9E+9, 9E+9, 9E9, 9E9, 9E9, 9E9]];
    CONST robtarget p_DrawLogo_659 := [[1145.023, 58.253, 430.0], [-1.0, 0.0, 0.0, 0.0],[-1.0, 0.0, 1.0, 0.0], [9E+9, 9E+9, 9E9, 9E9, 9E9, 9E9]];
    CONST robtarget p_DrawLogo_660 := [[1145.024, 58.81999999999999, 430.0], [-1.0, 0.0, 0.0, 0.0],[-1.0, 0.0, 1.0, 0.0], [9E+9, 9E+9, 9E9, 9E9, 9E9, 9E9]];
    CONST robtarget p_DrawLogo_661 := [[1137.451, 51.247, 430.0], [-1.0, 0.0, 0.0, 0.0],[-1.0, 0.0, 1.0, 0.0], [9E+9, 9E+9, 9E9, 9E9, 9E9, 9E9]];
