CONST robtarget p0:= [[0.0,0.0,0.0], [-1, 0, 0, 0],[-1, 0, 1, 0], [ 9E+9,9E+9, 9E9, 9E9, 9E9, 9E9]];
CONST robtarget p1:= [[117.919,142.247,0.2], [-1, 0, 0, 0],[-1, 0, 1, 0], [ 9E+9,9E+9, 9E9, 9E9, 9E9, 9E9]];
CONST robtarget p2:= [[117.919,142.247,0.2], [-1, 0, 0, 0],[-1, 0, 1, 0], [ 9E+9,9E+9, 9E9, 9E9, 9E9, 9E9]];
CONST robtarget p3:= [[117.111,142.24,0.2], [-1, 0, 0, 0],[-1, 0, 1, 0], [ 9E+9,9E+9, 9E9, 9E9, 9E9, 9E9]];
CONST robtarget p4:= [[116.27,142.22,0.2], [-1, 0, 0, 0],[-1, 0, 1, 0], [ 9E+9,9E+9, 9E9, 9E9, 9E9, 9E9]];
CONST robtarget p5:= [[115.435,142.157,0.2], [-1, 0, 0, 0],[-1, 0, 1, 0], [ 9E+9,9E+9, 9E9, 9E9, 9E9, 9E9]];
CONST robtarget p6:= [[114.661,142.086,0.2], [-1, 0, 0, 0],[-1, 0, 1, 0], [ 9E+9,9E+9, 9E9, 9E9, 9E9, 9E9]];
CONST robtarget p7:= [[113.767,141.959,0.2], [-1, 0, 0, 0],[-1, 0, 1, 0], [ 9E+9,9E+9, 9E9, 9E9, 9E9, 9E9]];
CONST robtarget p8:= [[113.038,141.843,0.2], [-1, 0, 0, 0],[-1, 0, 1, 0], [ 9E+9,9E+9, 9E9, 9E9, 9E9, 9E9]];
CONST robtarget p9:= [[112.134,141.652,0.2], [-1, 0, 0, 0],[-1, 0, 1, 0], [ 9E+9,9E+9, 9E9, 9E9, 9E9, 9E9]];
CONST robtarget p10:= [[111.449,141.496,0.2], [-1, 0, 0, 0],[-1, 0, 1, 0], [ 9E+9,9E+9, 9E9, 9E9, 9E9, 9E9]];
CONST robtarget p11:= [[110.506,141.232,0.2], [-1, 0, 0, 0],[-1, 0, 1, 0], [ 9E+9,9E+9, 9E9, 9E9, 9E9, 9E9]];
CONST robtarget p12:= [[109.856,141.037,0.2], [-1, 0, 0, 0],[-1, 0, 1, 0], [ 9E+9,9E+9, 9E9, 9E9, 9E9, 9E9]];
CONST robtarget p13:= [[108.915,140.706,0.2], [-1, 0, 0, 0],[-1, 0, 1, 0], [ 9E+9,9E+9, 9E9, 9E9, 9E9, 9E9]];
CONST robtarget p14:= [[108.327,140.485,0.2], [-1, 0, 0, 0],[-1, 0, 1, 0], [ 9E+9,9E+9, 9E9, 9E9, 9E9, 9E9]];
CONST robtarget p15:= [[107.383,140.078,0.2], [-1, 0, 0, 0],[-1, 0, 1, 0], [ 9E+9,9E+9, 9E9, 9E9, 9E9, 9E9]];
CONST robtarget p16:= [[106.818,139.823,0.2], [-1, 0, 0, 0],[-1, 0, 1, 0], [ 9E+9,9E+9, 9E9, 9E9, 9E9, 9E9]];
CONST robtarget p17:= [[105.89,139.348,0.2], [-1, 0, 0, 0],[-1, 0, 1, 0], [ 9E+9,9E+9, 9E9, 9E9, 9E9, 9E9]];
CONST robtarget p18:= [[105.386,139.079,0.2], [-1, 0, 0, 0],[-1, 0, 1, 0], [ 9E+9,9E+9, 9E9, 9E9, 9E9, 9E9]];
CONST robtarget p19:= [[103.967,138.218,0.2], [-1, 0, 0, 0],[-1, 0, 1, 0], [ 9E+9,9E+9, 9E9, 9E9, 9E9, 9E9]];
CONST robtarget p20:= [[102.625,137.277,0.2], [-1, 0, 0, 0],[-1, 0, 1, 0], [ 9E+9,9E+9, 9E9, 9E9, 9E9, 9E9]];
CONST robtarget p21:= [[101.353,136.251,0.2], [-1, 0, 0, 0],[-1, 0, 1, 0], [ 9E+9,9E+9, 9E9, 9E9, 9E9, 9E9]];
CONST robtarget p22:= [[100.157,135.151,0.2], [-1, 0, 0, 0],[-1, 0, 1, 0], [ 9E+9,9E+9, 9E9, 9E9, 9E9, 9E9]];
CONST robtarget p23:= [[99.028,133.966,0.2], [-1, 0, 0, 0],[-1, 0, 1, 0], [ 9E+9,9E+9, 9E9, 9E9, 9E9, 9E9]];
CONST robtarget p24:= [[97.973,132.7,0.2], [-1, 0, 0, 0],[-1, 0, 1, 0], [ 9E+9,9E+9, 9E9, 9E9, 9E9, 9E9]];
CONST robtarget p25:= [[97.018,131.384,0.2], [-1, 0, 0, 0],[-1, 0, 1, 0], [ 9E+9,9E+9, 9E9, 9E9, 9E9, 9E9]];
CONST robtarget p26:= [[96.139,129.992,0.2], [-1, 0, 0, 0],[-1, 0, 1, 0], [ 9E+9,9E+9, 9E9, 9E9, 9E9, 9E9]];
CONST robtarget p27:= [[95.37,128.57,0.2], [-1, 0, 0, 0],[-1, 0, 1, 0], [ 9E+9,9E+9, 9E9, 9E9, 9E9, 9E9]];
CONST robtarget p28:= [[94.676,127.063,0.2], [-1, 0, 0, 0],[-1, 0, 1, 0], [ 9E+9,9E+9, 9E9, 9E9, 9E9, 9E9]];
CONST robtarget p29:= [[94.1,125.55,0.2], [-1, 0, 0, 0],[-1, 0, 1, 0], [ 9E+9,9E+9, 9E9, 9E9, 9E9, 9E9]];
CONST robtarget p30:= [[93.621,123.988,0.2], [-1, 0, 0, 0],[-1, 0, 1, 0], [ 9E+9,9E+9, 9E9, 9E9, 9E9, 9E9]];
CONST robtarget p31:= [[93.239,122.376,0.2], [-1, 0, 0, 0],[-1, 0, 1, 0], [ 9E+9,9E+9, 9E9, 9E9, 9E9, 9E9]];
CONST robtarget p32:= [[92.97,120.762,0.2], [-1, 0, 0, 0],[-1, 0, 1, 0], [ 9E+9,9E+9, 9E9, 9E9, 9E9, 9E9]];
CONST robtarget p33:= [[92.809,119.153,0.2], [-1, 0, 0, 0],[-1, 0, 1, 0], [ 9E+9,9E+9, 9E9, 9E9, 9E9, 9E9]];
CONST robtarget p34:= [[92.754,117.525,0.2], [-1, 0, 0, 0],[-1, 0, 1, 0], [ 9E+9,9E+9, 9E9, 9E9, 9E9, 9E9]];
CONST robtarget p35:= [[92.808,115.862,0.2], [-1, 0, 0, 0],[-1, 0, 1, 0], [ 9E+9,9E+9, 9E9, 9E9, 9E9, 9E9]];
CONST robtarget p36:= [[92.969,114.245,0.2], [-1, 0, 0, 0],[-1, 0, 1, 0], [ 9E+9,9E+9, 9E9, 9E9, 9E9, 9E9]];
CONST robtarget p37:= [[93.237,112.64,0.2], [-1, 0, 0, 0],[-1, 0, 1, 0], [ 9E+9,9E+9, 9E9, 9E9, 9E9, 9E9]];
CONST robtarget p38:= [[93.617,111.025,0.2], [-1, 0, 0, 0],[-1, 0, 1, 0], [ 9E+9,9E+9, 9E9, 9E9, 9E9, 9E9]];
CONST robtarget p39:= [[94.098,109.459,0.2], [-1, 0, 0, 0],[-1, 0, 1, 0], [ 9E+9,9E+9, 9E9, 9E9, 9E9, 9E9]];
CONST robtarget p40:= [[94.67,107.951,0.2], [-1, 0, 0, 0],[-1, 0, 1, 0], [ 9E+9,9E+9, 9E9, 9E9, 9E9, 9E9]];
CONST robtarget p41:= [[95.363,106.444,0.2], [-1, 0, 0, 0],[-1, 0, 1, 0], [ 9E+9,9E+9, 9E9, 9E9, 9E9, 9E9]];
CONST robtarget p42:= [[96.131,105.022,0.2], [-1, 0, 0, 0],[-1, 0, 1, 0], [ 9E+9,9E+9, 9E9, 9E9, 9E9, 9E9]];
CONST robtarget p43:= [[97.01,103.628,0.2], [-1, 0, 0, 0],[-1, 0, 1, 0], [ 9E+9,9E+9, 9E9, 9E9, 9E9, 9E9]];
CONST robtarget p44:= [[97.964,102.313,0.2], [-1, 0, 0, 0],[-1, 0, 1, 0], [ 9E+9,9E+9, 9E9, 9E9, 9E9, 9E9]];
CONST robtarget p45:= [[99.018,101.046,0.2], [-1, 0, 0, 0],[-1, 0, 1, 0], [ 9E+9,9E+9, 9E9, 9E9, 9E9, 9E9]];
CONST robtarget p46:= [[100.146,99.86,0.2], [-1, 0, 0, 0],[-1, 0, 1, 0], [ 9E+9,9E+9, 9E9, 9E9, 9E9, 9E9]];
CONST robtarget p47:= [[101.342,98.759,0.2], [-1, 0, 0, 0],[-1, 0, 1, 0], [ 9E+9,9E+9, 9E9, 9E9, 9E9, 9E9]];
CONST robtarget p48:= [[102.619,97.728,0.2], [-1, 0, 0, 0],[-1, 0, 1, 0], [ 9E+9,9E+9, 9E9, 9E9, 9E9, 9E9]];
CONST robtarget p49:= [[103.954,96.791,0.2], [-1, 0, 0, 0],[-1, 0, 1, 0], [ 9E+9,9E+9, 9E9, 9E9, 9E9, 9E9]];
CONST robtarget p50:= [[104.406,96.509,0.2], [-1, 0, 0, 0],[-1, 0, 1, 0], [ 9E+9,9E+9, 9E9, 9E9, 9E9, 9E9]];
CONST robtarget p51:= [[105.373,95.929,0.2], [-1, 0, 0, 0],[-1, 0, 1, 0], [ 9E+9,9E+9, 9E9, 9E9, 9E9, 9E9]];
CONST robtarget p52:= [[105.881,95.656,0.2], [-1, 0, 0, 0],[-1, 0, 1, 0], [ 9E+9,9E+9, 9E9, 9E9, 9E9, 9E9]];
CONST robtarget p53:= [[106.804,95.183,0.2], [-1, 0, 0, 0],[-1, 0, 1, 0], [ 9E+9,9E+9, 9E9, 9E9, 9E9, 9E9]];
CONST robtarget p54:= [[107.371,94.926,0.2], [-1, 0, 0, 0],[-1, 0, 1, 0], [ 9E+9,9E+9, 9E9, 9E9, 9E9, 9E9]];
CONST robtarget p55:= [[108.312,94.521,0.2], [-1, 0, 0, 0],[-1, 0, 1, 0], [ 9E+9,9E+9, 9E9, 9E9, 9E9, 9E9]];
CONST robtarget p56:= [[108.898,94.302,0.2], [-1, 0, 0, 0],[-1, 0, 1, 0], [ 9E+9,9E+9, 9E9, 9E9, 9E9, 9E9]];
CONST robtarget p57:= [[109.841,93.968,0.2], [-1, 0, 0, 0],[-1, 0, 1, 0], [ 9E+9,9E+9, 9E9, 9E9, 9E9, 9E9]];
CONST robtarget p58:= [[110.488,93.774,0.2], [-1, 0, 0, 0],[-1, 0, 1, 0], [ 9E+9,9E+9, 9E9, 9E9, 9E9, 9E9]];
CONST robtarget p59:= [[111.435,93.508,0.2], [-1, 0, 0, 0],[-1, 0, 1, 0], [ 9E+9,9E+9, 9E9, 9E9, 9E9, 9E9]];
CONST robtarget p60:= [[112.102,93.354,0.2], [-1, 0, 0, 0],[-1, 0, 1, 0], [ 9E+9,9E+9, 9E9, 9E9, 9E9, 9E9]];
CONST robtarget p61:= [[113.022,93.159,0.2], [-1, 0, 0, 0],[-1, 0, 1, 0], [ 9E+9,9E+9, 9E9, 9E9, 9E9, 9E9]];
CONST robtarget p62:= [[113.736,93.045,0.2], [-1, 0, 0, 0],[-1, 0, 1, 0], [ 9E+9,9E+9, 9E9, 9E9, 9E9, 9E9]];
CONST robtarget p63:= [[114.645,92.916,0.2], [-1, 0, 0, 0],[-1, 0, 1, 0], [ 9E+9,9E+9, 9E9, 9E9, 9E9, 9E9]];
CONST robtarget p64:= [[115.401,92.845,0.2], [-1, 0, 0, 0],[-1, 0, 1, 0], [ 9E+9,9E+9, 9E9, 9E9, 9E9, 9E9]];
CONST robtarget p65:= [[116.262,92.781,0.2], [-1, 0, 0, 0],[-1, 0, 1, 0], [ 9E+9,9E+9, 9E9, 9E9, 9E9, 9E9]];
CONST robtarget p66:= [[117.077,92.76,0.2], [-1, 0, 0, 0],[-1, 0, 1, 0], [ 9E+9,9E+9, 9E9, 9E9, 9E9, 9E9]];
CONST robtarget p67:= [[117.903,92.754,0.2], [-1, 0, 0, 0],[-1, 0, 1, 0], [ 9E+9,9E+9, 9E9, 9E9, 9E9, 9E9]];
CONST robtarget p68:= [[118.741,92.788,0.2], [-1, 0, 0, 0],[-1, 0, 1, 0], [ 9E+9,9E+9, 9E9, 9E9, 9E9, 9E9]];
CONST robtarget p69:= [[119.546,92.836,0.2], [-1, 0, 0, 0],[-1, 0, 1, 0], [ 9E+9,9E+9, 9E9, 9E9, 9E9, 9E9]];
CONST robtarget p70:= [[120.413,92.929,0.2], [-1, 0, 0, 0],[-1, 0, 1, 0], [ 9E+9,9E+9, 9E9, 9E9, 9E9, 9E9]];
CONST robtarget p71:= [[121.187,93.025,0.2], [-1, 0, 0, 0],[-1, 0, 1, 0], [ 9E+9,9E+9, 9E9, 9E9, 9E9, 9E9]];
CONST robtarget p72:= [[122.058,93.179,0.2], [-1, 0, 0, 0],[-1, 0, 1, 0], [ 9E+9,9E+9, 9E9, 9E9, 9E9, 9E9]];
CONST robtarget p73:= [[122.766,93.316,0.2], [-1, 0, 0, 0],[-1, 0, 1, 0], [ 9E+9,9E+9, 9E9, 9E9, 9E9, 9E9]];
CONST robtarget p74:= [[123.684,93.541,0.2], [-1, 0, 0, 0],[-1, 0, 1, 0], [ 9E+9,9E+9, 9E9, 9E9, 9E9, 9E9]];
CONST robtarget p75:= [[124.367,93.721,0.2], [-1, 0, 0, 0],[-1, 0, 1, 0], [ 9E+9,9E+9, 9E9, 9E9, 9E9, 9E9]];
CONST robtarget p76:= [[125.305,94.018,0.2], [-1, 0, 0, 0],[-1, 0, 1, 0], [ 9E+9,9E+9, 9E9, 9E9, 9E9, 9E9]];
CONST robtarget p77:= [[125.939,94.231,0.2], [-1, 0, 0, 0],[-1, 0, 1, 0], [ 9E+9,9E+9, 9E9, 9E9, 9E9, 9E9]];
CONST robtarget p78:= [[126.872,94.596,0.2], [-1, 0, 0, 0],[-1, 0, 1, 0], [ 9E+9,9E+9, 9E9, 9E9, 9E9, 9E9]];
CONST robtarget p79:= [[127.433,94.828,0.2], [-1, 0, 0, 0],[-1, 0, 1, 0], [ 9E+9,9E+9, 9E9, 9E9, 9E9, 9E9]];
CONST robtarget p80:= [[128.908,95.533,0.2], [-1, 0, 0, 0],[-1, 0, 1, 0], [ 9E+9,9E+9, 9E9, 9E9, 9E9, 9E9]];
CONST robtarget p81:= [[129.867,96.063,0.2], [-1, 0, 0, 0],[-1, 0, 1, 0], [ 9E+9,9E+9, 9E9, 9E9, 9E9, 9E9]];
CONST robtarget p82:= [[130.354,96.346,0.2], [-1, 0, 0, 0],[-1, 0, 1, 0], [ 9E+9,9E+9, 9E9, 9E9, 9E9, 9E9]];
CONST robtarget p83:= [[131.28,96.943,0.2], [-1, 0, 0, 0],[-1, 0, 1, 0], [ 9E+9,9E+9, 9E9, 9E9, 9E9, 9E9]];
CONST robtarget p84:= [[131.706,97.229,0.2], [-1, 0, 0, 0],[-1, 0, 1, 0], [ 9E+9,9E+9, 9E9, 9E9, 9E9, 9E9]];
CONST robtarget p85:= [[133.014,98.211,0.2], [-1, 0, 0, 0],[-1, 0, 1, 0], [ 9E+9,9E+9, 9E9, 9E9, 9E9, 9E9]];
CONST robtarget p86:= [[134.256,99.278,0.2], [-1, 0, 0, 0],[-1, 0, 1, 0], [ 9E+9,9E+9, 9E9, 9E9, 9E9, 9E9]];
CONST robtarget p87:= [[135.444,100.446,0.2], [-1, 0, 0, 0],[-1, 0, 1, 0], [ 9E+9,9E+9, 9E9, 9E9, 9E9, 9E9]];
CONST robtarget p88:= [[136.528,101.664,0.2], [-1, 0, 0, 0],[-1, 0, 1, 0], [ 9E+9,9E+9, 9E9, 9E9, 9E9, 9E9]];
CONST robtarget p89:= [[137.507,102.92,0.2], [-1, 0, 0, 0],[-1, 0, 1, 0], [ 9E+9,9E+9, 9E9, 9E9, 9E9, 9E9]];
CONST robtarget p90:= [[138.466,104.335,0.2], [-1, 0, 0, 0],[-1, 0, 1, 0], [ 9E+9,9E+9, 9E9, 9E9, 9E9, 9E9]];
CONST robtarget p91:= [[139.252,105.68,0.2], [-1, 0, 0, 0],[-1, 0, 1, 0], [ 9E+9,9E+9, 9E9, 9E9, 9E9, 9E9]];
CONST robtarget p92:= [[140.007,107.187,0.2], [-1, 0, 0, 0],[-1, 0, 1, 0], [ 9E+9,9E+9, 9E9, 9E9, 9E9, 9E9]];
CONST robtarget p93:= [[140.633,108.677,0.2], [-1, 0, 0, 0],[-1, 0, 1, 0], [ 9E+9,9E+9, 9E9, 9E9, 9E9, 9E9]];
CONST robtarget p94:= [[141.172,110.245,0.2], [-1, 0, 0, 0],[-1, 0, 1, 0], [ 9E+9,9E+9, 9E9, 9E9, 9E9, 9E9]];
CONST robtarget p95:= [[141.593,111.804,0.2], [-1, 0, 0, 0],[-1, 0, 1, 0], [ 9E+9,9E+9, 9E9, 9E9, 9E9, 9E9]];
CONST robtarget p96:= [[141.918,113.409,0.2], [-1, 0, 0, 0],[-1, 0, 1, 0], [ 9E+9,9E+9, 9E9, 9E9, 9E9, 9E9]];
CONST robtarget p97:= [[142.136,115.031,0.2], [-1, 0, 0, 0],[-1, 0, 1, 0], [ 9E+9,9E+9, 9E9, 9E9, 9E9, 9E9]];
CONST robtarget p98:= [[142.247,116.701,0.2], [-1, 0, 0, 0],[-1, 0, 1, 0], [ 9E+9,9E+9, 9E9, 9E9, 9E9, 9E9]];
CONST robtarget p99:= [[142.247,118.299,0.2], [-1, 0, 0, 0],[-1, 0, 1, 0], [ 9E+9,9E+9, 9E9, 9E9, 9E9, 9E9]];
CONST robtarget p100:= [[142.139,119.94,0.2], [-1, 0, 0, 0],[-1, 0, 1, 0], [ 9E+9,9E+9, 9E9, 9E9, 9E9, 9E9]];
CONST robtarget p101:= [[141.921,121.571,0.2], [-1, 0, 0, 0],[-1, 0, 1, 0], [ 9E+9,9E+9, 9E9, 9E9, 9E9, 9E9]];
CONST robtarget p102:= [[141.597,123.181,0.2], [-1, 0, 0, 0],[-1, 0, 1, 0], [ 9E+9,9E+9, 9E9, 9E9, 9E9, 9E9]];
CONST robtarget p103:= [[141.176,124.74,0.2], [-1, 0, 0, 0],[-1, 0, 1, 0], [ 9E+9,9E+9, 9E9, 9E9, 9E9, 9E9]];
CONST robtarget p104:= [[140.641,126.302,0.2], [-1, 0, 0, 0],[-1, 0, 1, 0], [ 9E+9,9E+9, 9E9, 9E9, 9E9, 9E9]];
CONST robtarget p105:= [[140.013,127.799,0.2], [-1, 0, 0, 0],[-1, 0, 1, 0], [ 9E+9,9E+9, 9E9, 9E9, 9E9, 9E9]];
CONST robtarget p106:= [[139.26,129.307,0.2], [-1, 0, 0, 0],[-1, 0, 1, 0], [ 9E+9,9E+9, 9E9, 9E9, 9E9, 9E9]];
CONST robtarget p107:= [[138.474,130.652,0.2], [-1, 0, 0, 0],[-1, 0, 1, 0], [ 9E+9,9E+9, 9E9, 9E9, 9E9, 9E9]];
CONST robtarget p108:= [[137.512,132.074,0.2], [-1, 0, 0, 0],[-1, 0, 1, 0], [ 9E+9,9E+9, 9E9, 9E9, 9E9, 9E9]];
CONST robtarget p109:= [[136.537,133.324,0.2], [-1, 0, 0, 0],[-1, 0, 1, 0], [ 9E+9,9E+9, 9E9, 9E9, 9E9, 9E9]];
CONST robtarget p110:= [[135.449,134.548,0.2], [-1, 0, 0, 0],[-1, 0, 1, 0], [ 9E+9,9E+9, 9E9, 9E9, 9E9, 9E9]];
CONST robtarget p111:= [[134.27,135.709,0.2], [-1, 0, 0, 0],[-1, 0, 1, 0], [ 9E+9,9E+9, 9E9, 9E9, 9E9, 9E9]];
CONST robtarget p112:= [[133.03,136.776,0.2], [-1, 0, 0, 0],[-1, 0, 1, 0], [ 9E+9,9E+9, 9E9, 9E9, 9E9, 9E9]];
CONST robtarget p113:= [[132.663,137.06,0.2], [-1, 0, 0, 0],[-1, 0, 1, 0], [ 9E+9,9E+9, 9E9, 9E9, 9E9, 9E9]];
CONST robtarget p114:= [[131.721,137.76,0.2], [-1, 0, 0, 0],[-1, 0, 1, 0], [ 9E+9,9E+9, 9E9, 9E9, 9E9, 9E9]];
CONST robtarget p115:= [[131.28,138.057,0.2], [-1, 0, 0, 0],[-1, 0, 1, 0], [ 9E+9,9E+9, 9E9, 9E9, 9E9, 9E9]];
CONST robtarget p116:= [[130.367,138.646,0.2], [-1, 0, 0, 0],[-1, 0, 1, 0], [ 9E+9,9E+9, 9E9, 9E9, 9E9, 9E9]];
CONST robtarget p117:= [[129.868,138.936,0.2], [-1, 0, 0, 0],[-1, 0, 1, 0], [ 9E+9,9E+9, 9E9, 9E9, 9E9, 9E9]];
CONST robtarget p118:= [[128.928,139.458,0.2], [-1, 0, 0, 0],[-1, 0, 1, 0], [ 9E+9,9E+9, 9E9, 9E9, 9E9, 9E9]];
CONST robtarget p119:= [[128.419,139.708,0.2], [-1, 0, 0, 0],[-1, 0, 1, 0], [ 9E+9,9E+9, 9E9, 9E9, 9E9, 9E9]];
CONST robtarget p120:= [[127.447,140.166,0.2], [-1, 0, 0, 0],[-1, 0, 1, 0], [ 9E+9,9E+9, 9E9, 9E9, 9E9, 9E9]];
CONST robtarget p121:= [[126.859,140.408,0.2], [-1, 0, 0, 0],[-1, 0, 1, 0], [ 9E+9,9E+9, 9E9, 9E9, 9E9, 9E9]];
CONST robtarget p122:= [[125.946,140.766,0.2], [-1, 0, 0, 0],[-1, 0, 1, 0], [ 9E+9,9E+9, 9E9, 9E9, 9E9, 9E9]];
CONST robtarget p123:= [[125.336,140.972,0.2], [-1, 0, 0, 0],[-1, 0, 1, 0], [ 9E+9,9E+9, 9E9, 9E9, 9E9, 9E9]];
CONST robtarget p124:= [[124.383,141.275,0.2], [-1, 0, 0, 0],[-1, 0, 1, 0], [ 9E+9,9E+9, 9E9, 9E9, 9E9, 9E9]];
CONST robtarget p125:= [[123.716,141.451,0.2], [-1, 0, 0, 0],[-1, 0, 1, 0], [ 9E+9,9E+9, 9E9, 9E9, 9E9, 9E9]];
CONST robtarget p126:= [[122.781,141.682,0.2], [-1, 0, 0, 0],[-1, 0, 1, 0], [ 9E+9,9E+9, 9E9, 9E9, 9E9, 9E9]];
CONST robtarget p127:= [[122.091,141.815,0.2], [-1, 0, 0, 0],[-1, 0, 1, 0], [ 9E+9,9E+9, 9E9, 9E9, 9E9, 9E9]];
CONST robtarget p128:= [[121.195,141.973,0.2], [-1, 0, 0, 0],[-1, 0, 1, 0], [ 9E+9,9E+9, 9E9, 9E9, 9E9, 9E9]];
CONST robtarget p129:= [[120.446,142.068,0.2], [-1, 0, 0, 0],[-1, 0, 1, 0], [ 9E+9,9E+9, 9E9, 9E9, 9E9, 9E9]];
CONST robtarget p130:= [[119.561,142.164,0.2], [-1, 0, 0, 0],[-1, 0, 1, 0], [ 9E+9,9E+9, 9E9, 9E9, 9E9, 9E9]];
CONST robtarget p131:= [[118.773,142.211,0.2], [-1, 0, 0, 0],[-1, 0, 1, 0], [ 9E+9,9E+9, 9E9, 9E9, 9E9, 9E9]];
CONST robtarget p132:= [[118.353,142.229,0.2], [-1, 0, 0, 0],[-1, 0, 1, 0], [ 9E+9,9E+9, 9E9, 9E9, 9E9, 9E9]];
CONST robtarget p133:= [[117.919,142.247,0.2], [-1, 0, 0, 0],[-1, 0, 1, 0], [ 9E+9,9E+9, 9E9, 9E9, 9E9, 9E9]];
CONST robtarget p134:= [[117.101,141.747,0.2], [-1, 0, 0, 0],[-1, 0, 1, 0], [ 9E+9,9E+9, 9E9, 9E9, 9E9, 9E9]];
CONST robtarget p135:= [[117.903,141.739,0.2], [-1, 0, 0, 0],[-1, 0, 1, 0], [ 9E+9,9E+9, 9E9, 9E9, 9E9, 9E9]];
CONST robtarget p136:= [[118.725,141.718,0.2], [-1, 0, 0, 0],[-1, 0, 1, 0], [ 9E+9,9E+9, 9E9, 9E9, 9E9, 9E9]];
CONST robtarget p137:= [[119.512,141.66,0.2], [-1, 0, 0, 0],[-1, 0, 1, 0], [ 9E+9,9E+9, 9E9, 9E9, 9E9, 9E9]];
CONST robtarget p138:= [[120.372,141.581,0.2], [-1, 0, 0, 0],[-1, 0, 1, 0], [ 9E+9,9E+9, 9E9, 9E9, 9E9, 9E9]];
CONST robtarget p139:= [[121.977,141.334,0.2], [-1, 0, 0, 0],[-1, 0, 1, 0], [ 9E+9,9E+9, 9E9, 9E9, 9E9, 9E9]];
CONST robtarget p140:= [[122.665,141.188,0.2], [-1, 0, 0, 0],[-1, 0, 1, 0], [ 9E+9,9E+9, 9E9, 9E9, 9E9, 9E9]];
CONST robtarget p141:= [[123.57,140.98,0.2], [-1, 0, 0, 0],[-1, 0, 1, 0], [ 9E+9,9E+9, 9E9, 9E9, 9E9, 9E9]];
CONST robtarget p142:= [[124.234,140.791,0.2], [-1, 0, 0, 0],[-1, 0, 1, 0], [ 9E+9,9E+9, 9E9, 9E9, 9E9, 9E9]];
CONST robtarget p143:= [[125.159,140.512,0.2], [-1, 0, 0, 0],[-1, 0, 1, 0], [ 9E+9,9E+9, 9E9, 9E9, 9E9, 9E9]];
CONST robtarget p144:= [[125.766,140.294,0.2], [-1, 0, 0, 0],[-1, 0, 1, 0], [ 9E+9,9E+9, 9E9, 9E9, 9E9, 9E9]];
CONST robtarget p145:= [[126.683,139.948,0.2], [-1, 0, 0, 0],[-1, 0, 1, 0], [ 9E+9,9E+9, 9E9, 9E9, 9E9, 9E9]];
CONST robtarget p146:= [[127.236,139.707,0.2], [-1, 0, 0, 0],[-1, 0, 1, 0], [ 9E+9,9E+9, 9E9, 9E9, 9E9, 9E9]];
CONST robtarget p147:= [[128.183,139.275,0.2], [-1, 0, 0, 0],[-1, 0, 1, 0], [ 9E+9,9E+9, 9E9, 9E9, 9E9, 9E9]];
CONST robtarget p148:= [[129.619,138.509,0.2], [-1, 0, 0, 0],[-1, 0, 1, 0], [ 9E+9,9E+9, 9E9, 9E9, 9E9, 9E9]];
CONST robtarget p149:= [[130.096,138.22,0.2], [-1, 0, 0, 0],[-1, 0, 1, 0], [ 9E+9,9E+9, 9E9, 9E9, 9E9, 9E9]];
CONST robtarget p150:= [[131.014,137.64,0.2], [-1, 0, 0, 0],[-1, 0, 1, 0], [ 9E+9,9E+9, 9E9, 9E9, 9E9, 9E9]];
CONST robtarget p151:= [[131.423,137.353,0.2], [-1, 0, 0, 0],[-1, 0, 1, 0], [ 9E+9,9E+9, 9E9, 9E9, 9E9, 9E9]];
CONST robtarget p152:= [[132.344,136.682,0.2], [-1, 0, 0, 0],[-1, 0, 1, 0], [ 9E+9,9E+9, 9E9, 9E9, 9E9, 9E9]];
CONST robtarget p153:= [[133.614,135.629,0.2], [-1, 0, 0, 0],[-1, 0, 1, 0], [ 9E+9,9E+9, 9E9, 9E9, 9E9, 9E9]];
CONST robtarget p154:= [[134.791,134.511,0.2], [-1, 0, 0, 0],[-1, 0, 1, 0], [ 9E+9,9E+9, 9E9, 9E9, 9E9, 9E9]];
CONST robtarget p155:= [[135.898,133.308,0.2], [-1, 0, 0, 0],[-1, 0, 1, 0], [ 9E+9,9E+9, 9E9, 9E9, 9E9, 9E9]];
CONST robtarget p156:= [[136.924,132.028,0.2], [-1, 0, 0, 0],[-1, 0, 1, 0], [ 9E+9,9E+9, 9E9, 9E9, 9E9, 9E9]];
CONST robtarget p157:= [[137.866,130.678,0.2], [-1, 0, 0, 0],[-1, 0, 1, 0], [ 9E+9,9E+9, 9E9, 9E9, 9E9, 9E9]];
CONST robtarget p158:= [[138.707,129.276,0.2], [-1, 0, 0, 0],[-1, 0, 1, 0], [ 9E+9,9E+9, 9E9, 9E9, 9E9, 9E9]];
CONST robtarget p159:= [[139.458,127.808,0.2], [-1, 0, 0, 0],[-1, 0, 1, 0], [ 9E+9,9E+9, 9E9, 9E9, 9E9, 9E9]];
CONST robtarget p160:= [[140.109,126.296,0.2], [-1, 0, 0, 0],[-1, 0, 1, 0], [ 9E+9,9E+9, 9E9, 9E9, 9E9, 9E9]];
CONST robtarget p161:= [[140.643,124.774,0.2], [-1, 0, 0, 0],[-1, 0, 1, 0], [ 9E+9,9E+9, 9E9, 9E9, 9E9, 9E9]];
CONST robtarget p162:= [[141.086,123.173,0.2], [-1, 0, 0, 0],[-1, 0, 1, 0], [ 9E+9,9E+9, 9E9, 9E9, 9E9, 9E9]];
CONST robtarget p163:= [[141.413,121.587,0.2], [-1, 0, 0, 0],[-1, 0, 1, 0], [ 9E+9,9E+9, 9E9, 9E9, 9E9, 9E9]];
CONST robtarget p164:= [[141.634,119.96,0.2], [-1, 0, 0, 0],[-1, 0, 1, 0], [ 9E+9,9E+9, 9E9, 9E9, 9E9, 9E9]];
CONST robtarget p165:= [[141.745,118.34,0.2], [-1, 0, 0, 0],[-1, 0, 1, 0], [ 9E+9,9E+9, 9E9, 9E9, 9E9, 9E9]];
CONST robtarget p166:= [[141.747,116.701,0.2], [-1, 0, 0, 0],[-1, 0, 1, 0], [ 9E+9,9E+9, 9E9, 9E9, 9E9, 9E9]];
CONST robtarget p167:= [[141.635,115.04,0.2], [-1, 0, 0, 0],[-1, 0, 1, 0], [ 9E+9,9E+9, 9E9, 9E9, 9E9, 9E9]];
CONST robtarget p168:= [[141.416,113.43,0.2], [-1, 0, 0, 0],[-1, 0, 1, 0], [ 9E+9,9E+9, 9E9, 9E9, 9E9, 9E9]];
CONST robtarget p169:= [[141.086,111.827,0.2], [-1, 0, 0, 0],[-1, 0, 1, 0], [ 9E+9,9E+9, 9E9, 9E9, 9E9, 9E9]];
CONST robtarget p170:= [[140.647,110.238,0.2], [-1, 0, 0, 0],[-1, 0, 1, 0], [ 9E+9,9E+9, 9E9, 9E9, 9E9, 9E9]];
CONST robtarget p171:= [[140.109,108.704,0.2], [-1, 0, 0, 0],[-1, 0, 1, 0], [ 9E+9,9E+9, 9E9, 9E9, 9E9, 9E9]];
CONST robtarget p172:= [[139.465,107.207,0.2], [-1, 0, 0, 0],[-1, 0, 1, 0], [ 9E+9,9E+9, 9E9, 9E9, 9E9, 9E9]];
CONST robtarget p173:= [[138.716,105.739,0.2], [-1, 0, 0, 0],[-1, 0, 1, 0], [ 9E+9,9E+9, 9E9, 9E9, 9E9, 9E9]];
CONST robtarget p174:= [[137.876,104.337,0.2], [-1, 0, 0, 0],[-1, 0, 1, 0], [ 9E+9,9E+9, 9E9, 9E9, 9E9, 9E9]];
CONST robtarget p175:= [[136.934,102.985,0.2], [-1, 0, 0, 0],[-1, 0, 1, 0], [ 9E+9,9E+9, 9E9, 9E9, 9E9, 9E9]];
CONST robtarget p176:= [[135.909,101.705,0.2], [-1, 0, 0, 0],[-1, 0, 1, 0], [ 9E+9,9E+9, 9E9, 9E9, 9E9, 9E9]];
CONST robtarget p177:= [[134.803,100.501,0.2], [-1, 0, 0, 0],[-1, 0, 1, 0], [ 9E+9,9E+9, 9E9, 9E9, 9E9, 9E9]];
CONST robtarget p178:= [[133.627,99.382,0.2], [-1, 0, 0, 0],[-1, 0, 1, 0], [ 9E+9,9E+9, 9E9, 9E9, 9E9, 9E9]];
CONST robtarget p179:= [[132.357,98.328,0.2], [-1, 0, 0, 0],[-1, 0, 1, 0], [ 9E+9,9E+9, 9E9, 9E9, 9E9, 9E9]];
CONST robtarget p180:= [[131.028,97.369,0.2], [-1, 0, 0, 0],[-1, 0, 1, 0], [ 9E+9,9E+9, 9E9, 9E9, 9E9, 9E9]];
CONST robtarget p181:= [[129.625,96.493,0.2], [-1, 0, 0, 0],[-1, 0, 1, 0], [ 9E+9,9E+9, 9E9, 9E9, 9E9, 9E9]];
CONST robtarget p182:= [[128.68,95.983,0.2], [-1, 0, 0, 0],[-1, 0, 1, 0], [ 9E+9,9E+9, 9E9, 9E9, 9E9, 9E9]];
CONST robtarget p183:= [[128.197,95.733,0.2], [-1, 0, 0, 0],[-1, 0, 1, 0], [ 9E+9,9E+9, 9E9, 9E9, 9E9, 9E9]];
CONST robtarget p184:= [[127.235,95.292,0.2], [-1, 0, 0, 0],[-1, 0, 1, 0], [ 9E+9,9E+9, 9E9, 9E9, 9E9, 9E9]];
CONST robtarget p185:= [[126.689,95.053,0.2], [-1, 0, 0, 0],[-1, 0, 1, 0], [ 9E+9,9E+9, 9E9, 9E9, 9E9, 9E9]];
CONST robtarget p186:= [[125.166,94.49,0.2], [-1, 0, 0, 0],[-1, 0, 1, 0], [ 9E+9,9E+9, 9E9, 9E9, 9E9, 9E9]];
CONST robtarget p187:= [[124.233,94.208,0.2], [-1, 0, 0, 0],[-1, 0, 1, 0], [ 9E+9,9E+9, 9E9, 9E9, 9E9, 9E9]];
CONST robtarget p188:= [[123.586,94.024,0.2], [-1, 0, 0, 0],[-1, 0, 1, 0], [ 9E+9,9E+9, 9E9, 9E9, 9E9, 9E9]];
CONST robtarget p189:= [[122.665,93.811,0.2], [-1, 0, 0, 0],[-1, 0, 1, 0], [ 9E+9,9E+9, 9E9, 9E9, 9E9, 9E9]];
CONST robtarget p190:= [[121.993,93.669,0.2], [-1, 0, 0, 0],[-1, 0, 1, 0], [ 9E+9,9E+9, 9E9, 9E9, 9E9, 9E9]];
CONST robtarget p191:= [[121.111,93.526,0.2], [-1, 0, 0, 0],[-1, 0, 1, 0], [ 9E+9,9E+9, 9E9, 9E9, 9E9, 9E9]];
CONST robtarget p192:= [[120.372,93.419,0.2], [-1, 0, 0, 0],[-1, 0, 1, 0], [ 9E+9,9E+9, 9E9, 9E9, 9E9, 9E9]];
CONST robtarget p193:= [[119.512,93.34,0.2], [-1, 0, 0, 0],[-1, 0, 1, 0], [ 9E+9,9E+9, 9E9, 9E9, 9E9, 9E9]];
CONST robtarget p194:= [[118.733,93.281,0.2], [-1, 0, 0, 0],[-1, 0, 1, 0], [ 9E+9,9E+9, 9E9, 9E9, 9E9, 9E9]];
CONST robtarget p195:= [[117.903,93.26,0.2], [-1, 0, 0, 0],[-1, 0, 1, 0], [ 9E+9,9E+9, 9E9, 9E9, 9E9, 9E9]];
CONST robtarget p196:= [[117.101,93.253,0.2], [-1, 0, 0, 0],[-1, 0, 1, 0], [ 9E+9,9E+9, 9E9, 9E9, 9E9, 9E9]];
CONST robtarget p197:= [[116.294,93.287,0.2], [-1, 0, 0, 0],[-1, 0, 1, 0], [ 9E+9,9E+9, 9E9, 9E9, 9E9, 9E9]];
CONST robtarget p198:= [[115.467,93.336,0.2], [-1, 0, 0, 0],[-1, 0, 1, 0], [ 9E+9,9E+9, 9E9, 9E9, 9E9, 9E9]];
CONST robtarget p199:= [[114.712,93.419,0.2], [-1, 0, 0, 0],[-1, 0, 1, 0], [ 9E+9,9E+9, 9E9, 9E9, 9E9, 9E9]];
CONST robtarget p200:= [[113.833,93.53,0.2], [-1, 0, 0, 0],[-1, 0, 1, 0], [ 9E+9,9E+9, 9E9, 9E9, 9E9, 9E9]];
CONST robtarget p201:= [[113.122,93.656,0.2], [-1, 0, 0, 0],[-1, 0, 1, 0], [ 9E+9,9E+9, 9E9, 9E9, 9E9, 9E9]];
CONST robtarget p202:= [[112.232,93.83,0.2], [-1, 0, 0, 0],[-1, 0, 1, 0], [ 9E+9,9E+9, 9E9, 9E9, 9E9, 9E9]];
CONST robtarget p203:= [[110.642,94.241,0.2], [-1, 0, 0, 0],[-1, 0, 1, 0], [ 9E+9,9E+9, 9E9, 9E9, 9E9, 9E9]];
CONST robtarget p204:= [[109.09,94.756,0.2], [-1, 0, 0, 0],[-1, 0, 1, 0], [ 9E+9,9E+9, 9E9, 9E9, 9E9, 9E9]];
CONST robtarget p205:= [[107.575,95.375,0.2], [-1, 0, 0, 0],[-1, 0, 1, 0], [ 9E+9,9E+9, 9E9, 9E9, 9E9, 9E9]];
CONST robtarget p206:= [[106.108,96.093,0.2], [-1, 0, 0, 0],[-1, 0, 1, 0], [ 9E+9,9E+9, 9E9, 9E9, 9E9, 9E9]];
CONST robtarget p207:= [[104.68,96.919,0.2], [-1, 0, 0, 0],[-1, 0, 1, 0], [ 9E+9,9E+9, 9E9, 9E9, 9E9, 9E9]];
CONST robtarget p208:= [[103.325,97.828,0.2], [-1, 0, 0, 0],[-1, 0, 1, 0], [ 9E+9,9E+9, 9E9, 9E9, 9E9, 9E9]];
CONST robtarget p209:= [[102.931,98.125,0.2], [-1, 0, 0, 0],[-1, 0, 1, 0], [ 9E+9,9E+9, 9E9, 9E9, 9E9, 9E9]];
CONST robtarget p210:= [[102.032,98.83,0.2], [-1, 0, 0, 0],[-1, 0, 1, 0], [ 9E+9,9E+9, 9E9, 9E9, 9E9, 9E9]];
CONST robtarget p211:= [[100.783,99.936,0.2], [-1, 0, 0, 0],[-1, 0, 1, 0], [ 9E+9,9E+9, 9E9, 9E9, 9E9, 9E9]];
CONST robtarget p212:= [[99.657,101.082,0.2], [-1, 0, 0, 0],[-1, 0, 1, 0], [ 9E+9,9E+9, 9E9, 9E9, 9E9, 9E9]];
CONST robtarget p213:= [[98.584,102.332,0.2], [-1, 0, 0, 0],[-1, 0, 1, 0], [ 9E+9,9E+9, 9E9, 9E9, 9E9, 9E9]];
CONST robtarget p214:= [[97.613,103.631,0.2], [-1, 0, 0, 0],[-1, 0, 1, 0], [ 9E+9,9E+9, 9E9, 9E9, 9E9, 9E9]];
CONST robtarget p215:= [[96.722,105.004,0.2], [-1, 0, 0, 0],[-1, 0, 1, 0], [ 9E+9,9E+9, 9E9, 9E9, 9E9, 9E9]];
CONST robtarget p216:= [[95.92,106.449,0.2], [-1, 0, 0, 0],[-1, 0, 1, 0], [ 9E+9,9E+9, 9E9, 9E9, 9E9, 9E9]];
CONST robtarget p217:= [[95.219,107.938,0.2], [-1, 0, 0, 0],[-1, 0, 1, 0], [ 9E+9,9E+9, 9E9, 9E9, 9E9, 9E9]];
CONST robtarget p218:= [[94.631,109.443,0.2], [-1, 0, 0, 0],[-1, 0, 1, 0], [ 9E+9,9E+9, 9E9, 9E9, 9E9, 9E9]];
CONST robtarget p219:= [[94.137,111.018,0.2], [-1, 0, 0, 0],[-1, 0, 1, 0], [ 9E+9,9E+9, 9E9, 9E9, 9E9, 9E9]];
CONST robtarget p220:= [[93.75,112.62,0.2], [-1, 0, 0, 0],[-1, 0, 1, 0], [ 9E+9,9E+9, 9E9, 9E9, 9E9, 9E9]];
CONST robtarget p221:= [[93.475,114.226,0.2], [-1, 0, 0, 0],[-1, 0, 1, 0], [ 9E+9,9E+9, 9E9, 9E9, 9E9, 9E9]];
CONST robtarget p222:= [[93.31,115.843,0.2], [-1, 0, 0, 0],[-1, 0, 1, 0], [ 9E+9,9E+9, 9E9, 9E9, 9E9, 9E9]];
CONST robtarget p223:= [[93.254,117.491,0.2], [-1, 0, 0, 0],[-1, 0, 1, 0], [ 9E+9,9E+9, 9E9, 9E9, 9E9, 9E9]];
CONST robtarget p224:= [[93.308,119.121,0.2], [-1, 0, 0, 0],[-1, 0, 1, 0], [ 9E+9,9E+9, 9E9, 9E9, 9E9, 9E9]];
CONST robtarget p225:= [[93.473,120.757,0.2], [-1, 0, 0, 0],[-1, 0, 1, 0], [ 9E+9,9E+9, 9E9, 9E9, 9E9, 9E9]];
CONST robtarget p226:= [[93.746,122.363,0.2], [-1, 0, 0, 0],[-1, 0, 1, 0], [ 9E+9,9E+9, 9E9, 9E9, 9E9, 9E9]];
CONST robtarget p227:= [[94.133,123.966,0.2], [-1, 0, 0, 0],[-1, 0, 1, 0], [ 9E+9,9E+9, 9E9, 9E9, 9E9, 9E9]];
CONST robtarget p228:= [[94.624,125.538,0.2], [-1, 0, 0, 0],[-1, 0, 1, 0], [ 9E+9,9E+9, 9E9, 9E9, 9E9, 9E9]];
CONST robtarget p229:= [[95.212,127.047,0.2], [-1, 0, 0, 0],[-1, 0, 1, 0], [ 9E+9,9E+9, 9E9, 9E9, 9E9, 9E9]];
CONST robtarget p230:= [[95.912,128.536,0.2], [-1, 0, 0, 0],[-1, 0, 1, 0], [ 9E+9,9E+9, 9E9, 9E9, 9E9, 9E9]];
CONST robtarget p231:= [[96.711,129.978,0.2], [-1, 0, 0, 0],[-1, 0, 1, 0], [ 9E+9,9E+9, 9E9, 9E9, 9E9, 9E9]];
CONST robtarget p232:= [[97.601,131.352,0.2], [-1, 0, 0, 0],[-1, 0, 1, 0], [ 9E+9,9E+9, 9E9, 9E9, 9E9, 9E9]];
CONST robtarget p233:= [[98.573,132.655,0.2], [-1, 0, 0, 0],[-1, 0, 1, 0], [ 9E+9,9E+9, 9E9, 9E9, 9E9, 9E9]];
CONST robtarget p234:= [[99.657,133.918,0.2], [-1, 0, 0, 0],[-1, 0, 1, 0], [ 9E+9,9E+9, 9E9, 9E9, 9E9, 9E9]];
CONST robtarget p235:= [[100.783,135.064,0.2], [-1, 0, 0, 0],[-1, 0, 1, 0], [ 9E+9,9E+9, 9E9, 9E9, 9E9, 9E9]];
CONST robtarget p236:= [[102.02,136.16,0.2], [-1, 0, 0, 0],[-1, 0, 1, 0], [ 9E+9,9E+9, 9E9, 9E9, 9E9, 9E9]];
CONST robtarget p237:= [[103.32,137.17,0.2], [-1, 0, 0, 0],[-1, 0, 1, 0], [ 9E+9,9E+9, 9E9, 9E9, 9E9, 9E9]];
CONST robtarget p238:= [[104.671,138.075,0.2], [-1, 0, 0, 0],[-1, 0, 1, 0], [ 9E+9,9E+9, 9E9, 9E9, 9E9, 9E9]];
CONST robtarget p239:= [[105.63,138.637,0.2], [-1, 0, 0, 0],[-1, 0, 1, 0], [ 9E+9,9E+9, 9E9, 9E9, 9E9, 9E9]];
CONST robtarget p240:= [[106.097,138.9,0.2], [-1, 0, 0, 0],[-1, 0, 1, 0], [ 9E+9,9E+9, 9E9, 9E9, 9E9, 9E9]];
CONST robtarget p241:= [[107.569,139.623,0.2], [-1, 0, 0, 0],[-1, 0, 1, 0], [ 9E+9,9E+9, 9E9, 9E9, 9E9, 9E9]];
CONST robtarget p242:= [[109.074,140.238,0.2], [-1, 0, 0, 0],[-1, 0, 1, 0], [ 9E+9,9E+9, 9E9, 9E9, 9E9, 9E9]];
CONST robtarget p243:= [[110.006,140.554,0.2], [-1, 0, 0, 0],[-1, 0, 1, 0], [ 9E+9,9E+9, 9E9, 9E9, 9E9, 9E9]];
CONST robtarget p244:= [[110.633,140.755,0.2], [-1, 0, 0, 0],[-1, 0, 1, 0], [ 9E+9,9E+9, 9E9, 9E9, 9E9, 9E9]];
CONST robtarget p245:= [[111.568,141.005,0.2], [-1, 0, 0, 0],[-1, 0, 1, 0], [ 9E+9,9E+9, 9E9, 9E9, 9E9, 9E9]];
CONST robtarget p246:= [[112.225,141.169,0.2], [-1, 0, 0, 0],[-1, 0, 1, 0], [ 9E+9,9E+9, 9E9, 9E9, 9E9, 9E9]];
CONST robtarget p247:= [[113.123,141.344,0.2], [-1, 0, 0, 0],[-1, 0, 1, 0], [ 9E+9,9E+9, 9E9, 9E9, 9E9, 9E9]];
CONST robtarget p248:= [[113.817,141.467,0.2], [-1, 0, 0, 0],[-1, 0, 1, 0], [ 9E+9,9E+9, 9E9, 9E9, 9E9, 9E9]];
CONST robtarget p249:= [[114.712,141.582,0.2], [-1, 0, 0, 0],[-1, 0, 1, 0], [ 9E+9,9E+9, 9E9, 9E9, 9E9, 9E9]];
CONST robtarget p250:= [[115.459,141.665,0.2], [-1, 0, 0, 0],[-1, 0, 1, 0], [ 9E+9,9E+9, 9E9, 9E9, 9E9, 9E9]];
CONST robtarget p251:= [[116.295,141.713,0.2], [-1, 0, 0, 0],[-1, 0, 1, 0], [ 9E+9,9E+9, 9E9, 9E9, 9E9, 9E9]];
CONST robtarget p252:= [[117.101,141.747,0.2], [-1, 0, 0, 0],[-1, 0, 1, 0], [ 9E+9,9E+9, 9E9, 9E9, 9E9, 9E9]];
CONST robtarget p253:= [[117.101,141.747,0.4], [-1, 0, 0, 0],[-1, 0, 1, 0], [ 9E+9,9E+9, 9E9, 9E9, 9E9, 9E9]];
CONST robtarget p254:= [[117.919,142.247,0.4], [-1, 0, 0, 0],[-1, 0, 1, 0], [ 9E+9,9E+9, 9E9, 9E9, 9E9, 9E9]];
CONST robtarget p255:= [[117.111,142.24,0.4], [-1, 0, 0, 0],[-1, 0, 1, 0], [ 9E+9,9E+9, 9E9, 9E9, 9E9, 9E9]];
CONST robtarget p256:= [[116.27,142.22,0.4], [-1, 0, 0, 0],[-1, 0, 1, 0], [ 9E+9,9E+9, 9E9, 9E9, 9E9, 9E9]];
CONST robtarget p257:= [[115.435,142.157,0.4], [-1, 0, 0, 0],[-1, 0, 1, 0], [ 9E+9,9E+9, 9E9, 9E9, 9E9, 9E9]];
CONST robtarget p258:= [[114.661,142.086,0.4], [-1, 0, 0, 0],[-1, 0, 1, 0], [ 9E+9,9E+9, 9E9, 9E9, 9E9, 9E9]];
CONST robtarget p259:= [[113.767,141.959,0.4], [-1, 0, 0, 0],[-1, 0, 1, 0], [ 9E+9,9E+9, 9E9, 9E9, 9E9, 9E9]];
CONST robtarget p260:= [[113.038,141.843,0.4], [-1, 0, 0, 0],[-1, 0, 1, 0], [ 9E+9,9E+9, 9E9, 9E9, 9E9, 9E9]];
CONST robtarget p261:= [[112.134,141.652,0.4], [-1, 0, 0, 0],[-1, 0, 1, 0], [ 9E+9,9E+9, 9E9, 9E9, 9E9, 9E9]];
CONST robtarget p262:= [[111.449,141.496,0.4], [-1, 0, 0, 0],[-1, 0, 1, 0], [ 9E+9,9E+9, 9E9, 9E9, 9E9, 9E9]];
CONST robtarget p263:= [[110.506,141.232,0.4], [-1, 0, 0, 0],[-1, 0, 1, 0], [ 9E+9,9E+9, 9E9, 9E9, 9E9, 9E9]];
CONST robtarget p264:= [[109.856,141.037,0.4], [-1, 0, 0, 0],[-1, 0, 1, 0], [ 9E+9,9E+9, 9E9, 9E9, 9E9, 9E9]];
CONST robtarget p265:= [[108.915,140.706,0.4], [-1, 0, 0, 0],[-1, 0, 1, 0], [ 9E+9,9E+9, 9E9, 9E9, 9E9, 9E9]];
CONST robtarget p266:= [[108.327,140.485,0.4], [-1, 0, 0, 0],[-1, 0, 1, 0], [ 9E+9,9E+9, 9E9, 9E9, 9E9, 9E9]];
CONST robtarget p267:= [[107.383,140.078,0.4], [-1, 0, 0, 0],[-1, 0, 1, 0], [ 9E+9,9E+9, 9E9, 9E9, 9E9, 9E9]];
CONST robtarget p268:= [[106.818,139.823,0.4], [-1, 0, 0, 0],[-1, 0, 1, 0], [ 9E+9,9E+9, 9E9, 9E9, 9E9, 9E9]];
CONST robtarget p269:= [[105.89,139.348,0.4], [-1, 0, 0, 0],[-1, 0, 1, 0], [ 9E+9,9E+9, 9E9, 9E9, 9E9, 9E9]];
CONST robtarget p270:= [[105.386,139.079,0.4], [-1, 0, 0, 0],[-1, 0, 1, 0], [ 9E+9,9E+9, 9E9, 9E9, 9E9, 9E9]];
CONST robtarget p271:= [[103.967,138.218,0.4], [-1, 0, 0, 0],[-1, 0, 1, 0], [ 9E+9,9E+9, 9E9, 9E9, 9E9, 9E9]];
CONST robtarget p272:= [[102.625,137.277,0.4], [-1, 0, 0, 0],[-1, 0, 1, 0], [ 9E+9,9E+9, 9E9, 9E9, 9E9, 9E9]];
CONST robtarget p273:= [[101.353,136.251,0.4], [-1, 0, 0, 0],[-1, 0, 1, 0], [ 9E+9,9E+9, 9E9, 9E9, 9E9, 9E9]];
CONST robtarget p274:= [[100.157,135.151,0.4], [-1, 0, 0, 0],[-1, 0, 1, 0], [ 9E+9,9E+9, 9E9, 9E9, 9E9, 9E9]];
CONST robtarget p275:= [[99.028,133.966,0.4], [-1, 0, 0, 0],[-1, 0, 1, 0], [ 9E+9,9E+9, 9E9, 9E9, 9E9, 9E9]];
CONST robtarget p276:= [[97.973,132.7,0.4], [-1, 0, 0, 0],[-1, 0, 1, 0], [ 9E+9,9E+9, 9E9, 9E9, 9E9, 9E9]];
CONST robtarget p277:= [[97.018,131.384,0.4], [-1, 0, 0, 0],[-1, 0, 1, 0], [ 9E+9,9E+9, 9E9, 9E9, 9E9, 9E9]];
CONST robtarget p278:= [[96.139,129.992,0.4], [-1, 0, 0, 0],[-1, 0, 1, 0], [ 9E+9,9E+9, 9E9, 9E9, 9E9, 9E9]];
CONST robtarget p279:= [[95.37,128.57,0.4], [-1, 0, 0, 0],[-1, 0, 1, 0], [ 9E+9,9E+9, 9E9, 9E9, 9E9, 9E9]];
CONST robtarget p280:= [[94.676,127.063,0.4], [-1, 0, 0, 0],[-1, 0, 1, 0], [ 9E+9,9E+9, 9E9, 9E9, 9E9, 9E9]];
CONST robtarget p281:= [[94.1,125.55,0.4], [-1, 0, 0, 0],[-1, 0, 1, 0], [ 9E+9,9E+9, 9E9, 9E9, 9E9, 9E9]];
CONST robtarget p282:= [[93.621,123.988,0.4], [-1, 0, 0, 0],[-1, 0, 1, 0], [ 9E+9,9E+9, 9E9, 9E9, 9E9, 9E9]];
CONST robtarget p283:= [[93.239,122.376,0.4], [-1, 0, 0, 0],[-1, 0, 1, 0], [ 9E+9,9E+9, 9E9, 9E9, 9E9, 9E9]];
CONST robtarget p284:= [[92.97,120.762,0.4], [-1, 0, 0, 0],[-1, 0, 1, 0], [ 9E+9,9E+9, 9E9, 9E9, 9E9, 9E9]];
CONST robtarget p285:= [[92.809,119.153,0.4], [-1, 0, 0, 0],[-1, 0, 1, 0], [ 9E+9,9E+9, 9E9, 9E9, 9E9, 9E9]];
CONST robtarget p286:= [[92.754,117.525,0.4], [-1, 0, 0, 0],[-1, 0, 1, 0], [ 9E+9,9E+9, 9E9, 9E9, 9E9, 9E9]];
CONST robtarget p287:= [[92.808,115.862,0.4], [-1, 0, 0, 0],[-1, 0, 1, 0], [ 9E+9,9E+9, 9E9, 9E9, 9E9, 9E9]];
CONST robtarget p288:= [[92.969,114.245,0.4], [-1, 0, 0, 0],[-1, 0, 1, 0], [ 9E+9,9E+9, 9E9, 9E9, 9E9, 9E9]];
CONST robtarget p289:= [[93.237,112.64,0.4], [-1, 0, 0, 0],[-1, 0, 1, 0], [ 9E+9,9E+9, 9E9, 9E9, 9E9, 9E9]];
CONST robtarget p290:= [[93.617,111.025,0.4], [-1, 0, 0, 0],[-1, 0, 1, 0], [ 9E+9,9E+9, 9E9, 9E9, 9E9, 9E9]];
CONST robtarget p291:= [[94.098,109.459,0.4], [-1, 0, 0, 0],[-1, 0, 1, 0], [ 9E+9,9E+9, 9E9, 9E9, 9E9, 9E9]];
CONST robtarget p292:= [[94.67,107.951,0.4], [-1, 0, 0, 0],[-1, 0, 1, 0], [ 9E+9,9E+9, 9E9, 9E9, 9E9, 9E9]];
CONST robtarget p293:= [[95.363,106.444,0.4], [-1, 0, 0, 0],[-1, 0, 1, 0], [ 9E+9,9E+9, 9E9, 9E9, 9E9, 9E9]];
CONST robtarget p294:= [[96.131,105.022,0.4], [-1, 0, 0, 0],[-1, 0, 1, 0], [ 9E+9,9E+9, 9E9, 9E9, 9E9, 9E9]];
CONST robtarget p295:= [[97.01,103.628,0.4], [-1, 0, 0, 0],[-1, 0, 1, 0], [ 9E+9,9E+9, 9E9, 9E9, 9E9, 9E9]];
CONST robtarget p296:= [[97.964,102.313,0.4], [-1, 0, 0, 0],[-1, 0, 1, 0], [ 9E+9,9E+9, 9E9, 9E9, 9E9, 9E9]];
CONST robtarget p297:= [[99.018,101.046,0.4], [-1, 0, 0, 0],[-1, 0, 1, 0], [ 9E+9,9E+9, 9E9, 9E9, 9E9, 9E9]];
CONST robtarget p298:= [[100.146,99.86,0.4], [-1, 0, 0, 0],[-1, 0, 1, 0], [ 9E+9,9E+9, 9E9, 9E9, 9E9, 9E9]];
CONST robtarget p299:= [[101.342,98.759,0.4], [-1, 0, 0, 0],[-1, 0, 1, 0], [ 9E+9,9E+9, 9E9, 9E9, 9E9, 9E9]];
CONST robtarget p300:= [[102.619,97.728,0.4], [-1, 0, 0, 0],[-1, 0, 1, 0], [ 9E+9,9E+9, 9E9, 9E9, 9E9, 9E9]];
CONST robtarget p301:= [[103.954,96.791,0.4], [-1, 0, 0, 0],[-1, 0, 1, 0], [ 9E+9,9E+9, 9E9, 9E9, 9E9, 9E9]];
CONST robtarget p302:= [[104.406,96.509,0.4], [-1, 0, 0, 0],[-1, 0, 1, 0], [ 9E+9,9E+9, 9E9, 9E9, 9E9, 9E9]];
CONST robtarget p303:= [[105.373,95.929,0.4], [-1, 0, 0, 0],[-1, 0, 1, 0], [ 9E+9,9E+9, 9E9, 9E9, 9E9, 9E9]];
CONST robtarget p304:= [[105.881,95.656,0.4], [-1, 0, 0, 0],[-1, 0, 1, 0], [ 9E+9,9E+9, 9E9, 9E9, 9E9, 9E9]];
CONST robtarget p305:= [[106.804,95.183,0.4], [-1, 0, 0, 0],[-1, 0, 1, 0], [ 9E+9,9E+9, 9E9, 9E9, 9E9, 9E9]];
CONST robtarget p306:= [[107.371,94.926,0.4], [-1, 0, 0, 0],[-1, 0, 1, 0], [ 9E+9,9E+9, 9E9, 9E9, 9E9, 9E9]];
CONST robtarget p307:= [[108.312,94.521,0.4], [-1, 0, 0, 0],[-1, 0, 1, 0], [ 9E+9,9E+9, 9E9, 9E9, 9E9, 9E9]];
CONST robtarget p308:= [[108.898,94.302,0.4], [-1, 0, 0, 0],[-1, 0, 1, 0], [ 9E+9,9E+9, 9E9, 9E9, 9E9, 9E9]];
CONST robtarget p309:= [[109.841,93.968,0.4], [-1, 0, 0, 0],[-1, 0, 1, 0], [ 9E+9,9E+9, 9E9, 9E9, 9E9, 9E9]];
CONST robtarget p310:= [[110.488,93.774,0.4], [-1, 0, 0, 0],[-1, 0, 1, 0], [ 9E+9,9E+9, 9E9, 9E9, 9E9, 9E9]];
CONST robtarget p311:= [[111.435,93.508,0.4], [-1, 0, 0, 0],[-1, 0, 1, 0], [ 9E+9,9E+9, 9E9, 9E9, 9E9, 9E9]];
CONST robtarget p312:= [[112.102,93.354,0.4], [-1, 0, 0, 0],[-1, 0, 1, 0], [ 9E+9,9E+9, 9E9, 9E9, 9E9, 9E9]];
CONST robtarget p313:= [[113.022,93.159,0.4], [-1, 0, 0, 0],[-1, 0, 1, 0], [ 9E+9,9E+9, 9E9, 9E9, 9E9, 9E9]];
CONST robtarget p314:= [[113.736,93.045,0.4], [-1, 0, 0, 0],[-1, 0, 1, 0], [ 9E+9,9E+9, 9E9, 9E9, 9E9, 9E9]];
CONST robtarget p315:= [[114.645,92.916,0.4], [-1, 0, 0, 0],[-1, 0, 1, 0], [ 9E+9,9E+9, 9E9, 9E9, 9E9, 9E9]];
CONST robtarget p316:= [[115.401,92.845,0.4], [-1, 0, 0, 0],[-1, 0, 1, 0], [ 9E+9,9E+9, 9E9, 9E9, 9E9, 9E9]];
CONST robtarget p317:= [[116.262,92.781,0.4], [-1, 0, 0, 0],[-1, 0, 1, 0], [ 9E+9,9E+9, 9E9, 9E9, 9E9, 9E9]];
CONST robtarget p318:= [[117.077,92.76,0.4], [-1, 0, 0, 0],[-1, 0, 1, 0], [ 9E+9,9E+9, 9E9, 9E9, 9E9, 9E9]];
CONST robtarget p319:= [[117.903,92.754,0.4], [-1, 0, 0, 0],[-1, 0, 1, 0], [ 9E+9,9E+9, 9E9, 9E9, 9E9, 9E9]];
CONST robtarget p320:= [[118.741,92.788,0.4], [-1, 0, 0, 0],[-1, 0, 1, 0], [ 9E+9,9E+9, 9E9, 9E9, 9E9, 9E9]];
CONST robtarget p321:= [[119.546,92.836,0.4], [-1, 0, 0, 0],[-1, 0, 1, 0], [ 9E+9,9E+9, 9E9, 9E9, 9E9, 9E9]];
CONST robtarget p322:= [[120.413,92.929,0.4], [-1, 0, 0, 0],[-1, 0, 1, 0], [ 9E+9,9E+9, 9E9, 9E9, 9E9, 9E9]];
CONST robtarget p323:= [[121.187,93.025,0.4], [-1, 0, 0, 0],[-1, 0, 1, 0], [ 9E+9,9E+9, 9E9, 9E9, 9E9, 9E9]];
CONST robtarget p324:= [[122.058,93.179,0.4], [-1, 0, 0, 0],[-1, 0, 1, 0], [ 9E+9,9E+9, 9E9, 9E9, 9E9, 9E9]];
CONST robtarget p325:= [[122.766,93.316,0.4], [-1, 0, 0, 0],[-1, 0, 1, 0], [ 9E+9,9E+9, 9E9, 9E9, 9E9, 9E9]];
CONST robtarget p326:= [[123.684,93.541,0.4], [-1, 0, 0, 0],[-1, 0, 1, 0], [ 9E+9,9E+9, 9E9, 9E9, 9E9, 9E9]];
CONST robtarget p327:= [[124.367,93.721,0.4], [-1, 0, 0, 0],[-1, 0, 1, 0], [ 9E+9,9E+9, 9E9, 9E9, 9E9, 9E9]];
CONST robtarget p328:= [[125.305,94.018,0.4], [-1, 0, 0, 0],[-1, 0, 1, 0], [ 9E+9,9E+9, 9E9, 9E9, 9E9, 9E9]];
CONST robtarget p329:= [[125.939,94.231,0.4], [-1, 0, 0, 0],[-1, 0, 1, 0], [ 9E+9,9E+9, 9E9, 9E9, 9E9, 9E9]];
CONST robtarget p330:= [[127.433,94.828,0.4], [-1, 0, 0, 0],[-1, 0, 1, 0], [ 9E+9,9E+9, 9E9, 9E9, 9E9, 9E9]];
CONST robtarget p331:= [[128.908,95.533,0.4], [-1, 0, 0, 0],[-1, 0, 1, 0], [ 9E+9,9E+9, 9E9, 9E9, 9E9, 9E9]];
CONST robtarget p332:= [[129.867,96.063,0.4], [-1, 0, 0, 0],[-1, 0, 1, 0], [ 9E+9,9E+9, 9E9, 9E9, 9E9, 9E9]];
CONST robtarget p333:= [[130.354,96.346,0.4], [-1, 0, 0, 0],[-1, 0, 1, 0], [ 9E+9,9E+9, 9E9, 9E9, 9E9, 9E9]];
CONST robtarget p334:= [[131.28,96.943,0.4], [-1, 0, 0, 0],[-1, 0, 1, 0], [ 9E+9,9E+9, 9E9, 9E9, 9E9, 9E9]];
CONST robtarget p335:= [[131.706,97.229,0.4], [-1, 0, 0, 0],[-1, 0, 1, 0], [ 9E+9,9E+9, 9E9, 9E9, 9E9, 9E9]];
CONST robtarget p336:= [[133.014,98.211,0.4], [-1, 0, 0, 0],[-1, 0, 1, 0], [ 9E+9,9E+9, 9E9, 9E9, 9E9, 9E9]];
CONST robtarget p337:= [[134.256,99.278,0.4], [-1, 0, 0, 0],[-1, 0, 1, 0], [ 9E+9,9E+9, 9E9, 9E9, 9E9, 9E9]];
CONST robtarget p338:= [[135.444,100.446,0.4], [-1, 0, 0, 0],[-1, 0, 1, 0], [ 9E+9,9E+9, 9E9, 9E9, 9E9, 9E9]];
CONST robtarget p339:= [[136.528,101.664,0.4], [-1, 0, 0, 0],[-1, 0, 1, 0], [ 9E+9,9E+9, 9E9, 9E9, 9E9, 9E9]];
CONST robtarget p340:= [[137.507,102.92,0.4], [-1, 0, 0, 0],[-1, 0, 1, 0], [ 9E+9,9E+9, 9E9, 9E9, 9E9, 9E9]];
CONST robtarget p341:= [[138.466,104.335,0.4], [-1, 0, 0, 0],[-1, 0, 1, 0], [ 9E+9,9E+9, 9E9, 9E9, 9E9, 9E9]];
CONST robtarget p342:= [[139.252,105.68,0.4], [-1, 0, 0, 0],[-1, 0, 1, 0], [ 9E+9,9E+9, 9E9, 9E9, 9E9, 9E9]];
CONST robtarget p343:= [[140.007,107.187,0.4], [-1, 0, 0, 0],[-1, 0, 1, 0], [ 9E+9,9E+9, 9E9, 9E9, 9E9, 9E9]];
CONST robtarget p344:= [[140.633,108.677,0.4], [-1, 0, 0, 0],[-1, 0, 1, 0], [ 9E+9,9E+9, 9E9, 9E9, 9E9, 9E9]];
CONST robtarget p345:= [[141.172,110.245,0.4], [-1, 0, 0, 0],[-1, 0, 1, 0], [ 9E+9,9E+9, 9E9, 9E9, 9E9, 9E9]];
CONST robtarget p346:= [[141.593,111.804,0.4], [-1, 0, 0, 0],[-1, 0, 1, 0], [ 9E+9,9E+9, 9E9, 9E9, 9E9, 9E9]];
CONST robtarget p347:= [[141.918,113.409,0.4], [-1, 0, 0, 0],[-1, 0, 1, 0], [ 9E+9,9E+9, 9E9, 9E9, 9E9, 9E9]];
CONST robtarget p348:= [[142.136,115.031,0.4], [-1, 0, 0, 0],[-1, 0, 1, 0], [ 9E+9,9E+9, 9E9, 9E9, 9E9, 9E9]];
CONST robtarget p349:= [[142.245,116.661,0.4], [-1, 0, 0, 0],[-1, 0, 1, 0], [ 9E+9,9E+9, 9E9, 9E9, 9E9, 9E9]];
CONST robtarget p350:= [[142.247,118.299,0.4], [-1, 0, 0, 0],[-1, 0, 1, 0], [ 9E+9,9E+9, 9E9, 9E9, 9E9, 9E9]];
CONST robtarget p351:= [[142.139,119.94,0.4], [-1, 0, 0, 0],[-1, 0, 1, 0], [ 9E+9,9E+9, 9E9, 9E9, 9E9, 9E9]];
CONST robtarget p352:= [[141.921,121.571,0.4], [-1, 0, 0, 0],[-1, 0, 1, 0], [ 9E+9,9E+9, 9E9, 9E9, 9E9, 9E9]];
CONST robtarget p353:= [[141.597,123.181,0.4], [-1, 0, 0, 0],[-1, 0, 1, 0], [ 9E+9,9E+9, 9E9, 9E9, 9E9, 9E9]];
CONST robtarget p354:= [[141.176,124.74,0.4], [-1, 0, 0, 0],[-1, 0, 1, 0], [ 9E+9,9E+9, 9E9, 9E9, 9E9, 9E9]];
CONST robtarget p355:= [[140.641,126.302,0.4], [-1, 0, 0, 0],[-1, 0, 1, 0], [ 9E+9,9E+9, 9E9, 9E9, 9E9, 9E9]];
CONST robtarget p356:= [[140.013,127.799,0.4], [-1, 0, 0, 0],[-1, 0, 1, 0], [ 9E+9,9E+9, 9E9, 9E9, 9E9, 9E9]];
CONST robtarget p357:= [[139.26,129.307,0.4], [-1, 0, 0, 0],[-1, 0, 1, 0], [ 9E+9,9E+9, 9E9, 9E9, 9E9, 9E9]];
CONST robtarget p358:= [[138.474,130.652,0.4], [-1, 0, 0, 0],[-1, 0, 1, 0], [ 9E+9,9E+9, 9E9, 9E9, 9E9, 9E9]];
CONST robtarget p359:= [[137.512,132.074,0.4], [-1, 0, 0, 0],[-1, 0, 1, 0], [ 9E+9,9E+9, 9E9, 9E9, 9E9, 9E9]];
CONST robtarget p360:= [[136.537,133.324,0.4], [-1, 0, 0, 0],[-1, 0, 1, 0], [ 9E+9,9E+9, 9E9, 9E9, 9E9, 9E9]];
CONST robtarget p361:= [[135.449,134.548,0.4], [-1, 0, 0, 0],[-1, 0, 1, 0], [ 9E+9,9E+9, 9E9, 9E9, 9E9, 9E9]];
CONST robtarget p362:= [[134.27,135.709,0.4], [-1, 0, 0, 0],[-1, 0, 1, 0], [ 9E+9,9E+9, 9E9, 9E9, 9E9, 9E9]];
CONST robtarget p363:= [[133.03,136.776,0.4], [-1, 0, 0, 0],[-1, 0, 1, 0], [ 9E+9,9E+9, 9E9, 9E9, 9E9, 9E9]];
CONST robtarget p364:= [[132.663,137.06,0.4], [-1, 0, 0, 0],[-1, 0, 1, 0], [ 9E+9,9E+9, 9E9, 9E9, 9E9, 9E9]];
CONST robtarget p365:= [[131.721,137.76,0.4], [-1, 0, 0, 0],[-1, 0, 1, 0], [ 9E+9,9E+9, 9E9, 9E9, 9E9, 9E9]];
CONST robtarget p366:= [[131.28,138.057,0.4], [-1, 0, 0, 0],[-1, 0, 1, 0], [ 9E+9,9E+9, 9E9, 9E9, 9E9, 9E9]];
CONST robtarget p367:= [[130.367,138.646,0.4], [-1, 0, 0, 0],[-1, 0, 1, 0], [ 9E+9,9E+9, 9E9, 9E9, 9E9, 9E9]];
CONST robtarget p368:= [[129.868,138.936,0.4], [-1, 0, 0, 0],[-1, 0, 1, 0], [ 9E+9,9E+9, 9E9, 9E9, 9E9, 9E9]];
CONST robtarget p369:= [[128.928,139.458,0.4], [-1, 0, 0, 0],[-1, 0, 1, 0], [ 9E+9,9E+9, 9E9, 9E9, 9E9, 9E9]];
CONST robtarget p370:= [[128.419,139.708,0.4], [-1, 0, 0, 0],[-1, 0, 1, 0], [ 9E+9,9E+9, 9E9, 9E9, 9E9, 9E9]];
CONST robtarget p371:= [[127.447,140.166,0.4], [-1, 0, 0, 0],[-1, 0, 1, 0], [ 9E+9,9E+9, 9E9, 9E9, 9E9, 9E9]];
CONST robtarget p372:= [[126.859,140.408,0.4], [-1, 0, 0, 0],[-1, 0, 1, 0], [ 9E+9,9E+9, 9E9, 9E9, 9E9, 9E9]];
CONST robtarget p373:= [[125.946,140.766,0.4], [-1, 0, 0, 0],[-1, 0, 1, 0], [ 9E+9,9E+9, 9E9, 9E9, 9E9, 9E9]];
CONST robtarget p374:= [[125.336,140.972,0.4], [-1, 0, 0, 0],[-1, 0, 1, 0], [ 9E+9,9E+9, 9E9, 9E9, 9E9, 9E9]];
CONST robtarget p375:= [[124.383,141.275,0.4], [-1, 0, 0, 0],[-1, 0, 1, 0], [ 9E+9,9E+9, 9E9, 9E9, 9E9, 9E9]];
CONST robtarget p376:= [[123.716,141.451,0.4], [-1, 0, 0, 0],[-1, 0, 1, 0], [ 9E+9,9E+9, 9E9, 9E9, 9E9, 9E9]];
CONST robtarget p377:= [[122.781,141.682,0.4], [-1, 0, 0, 0],[-1, 0, 1, 0], [ 9E+9,9E+9, 9E9, 9E9, 9E9, 9E9]];
CONST robtarget p378:= [[122.091,141.815,0.4], [-1, 0, 0, 0],[-1, 0, 1, 0], [ 9E+9,9E+9, 9E9, 9E9, 9E9, 9E9]];
CONST robtarget p379:= [[121.195,141.973,0.4], [-1, 0, 0, 0],[-1, 0, 1, 0], [ 9E+9,9E+9, 9E9, 9E9, 9E9, 9E9]];
CONST robtarget p380:= [[120.446,142.068,0.4], [-1, 0, 0, 0],[-1, 0, 1, 0], [ 9E+9,9E+9, 9E9, 9E9, 9E9, 9E9]];
CONST robtarget p381:= [[119.561,142.164,0.4], [-1, 0, 0, 0],[-1, 0, 1, 0], [ 9E+9,9E+9, 9E9, 9E9, 9E9, 9E9]];
CONST robtarget p382:= [[118.773,142.211,0.4], [-1, 0, 0, 0],[-1, 0, 1, 0], [ 9E+9,9E+9, 9E9, 9E9, 9E9, 9E9]];
CONST robtarget p383:= [[118.353,142.229,0.4], [-1, 0, 0, 0],[-1, 0, 1, 0], [ 9E+9,9E+9, 9E9, 9E9, 9E9, 9E9]];
CONST robtarget p384:= [[117.919,142.247,0.4], [-1, 0, 0, 0],[-1, 0, 1, 0], [ 9E+9,9E+9, 9E9, 9E9, 9E9, 9E9]];
CONST robtarget p385:= [[117.101,141.747,0.4], [-1, 0, 0, 0],[-1, 0, 1, 0], [ 9E+9,9E+9, 9E9, 9E9, 9E9, 9E9]];
CONST robtarget p386:= [[117.903,141.739,0.4], [-1, 0, 0, 0],[-1, 0, 1, 0], [ 9E+9,9E+9, 9E9, 9E9, 9E9, 9E9]];
CONST robtarget p387:= [[118.725,141.718,0.4], [-1, 0, 0, 0],[-1, 0, 1, 0], [ 9E+9,9E+9, 9E9, 9E9, 9E9, 9E9]];
CONST robtarget p388:= [[119.512,141.66,0.4], [-1, 0, 0, 0],[-1, 0, 1, 0], [ 9E+9,9E+9, 9E9, 9E9, 9E9, 9E9]];
CONST robtarget p389:= [[120.372,141.581,0.4], [-1, 0, 0, 0],[-1, 0, 1, 0], [ 9E+9,9E+9, 9E9, 9E9, 9E9, 9E9]];
CONST robtarget p390:= [[121.977,141.334,0.4], [-1, 0, 0, 0],[-1, 0, 1, 0], [ 9E+9,9E+9, 9E9, 9E9, 9E9, 9E9]];
CONST robtarget p391:= [[122.665,141.188,0.4], [-1, 0, 0, 0],[-1, 0, 1, 0], [ 9E+9,9E+9, 9E9, 9E9, 9E9, 9E9]];
CONST robtarget p392:= [[123.57,140.98,0.4], [-1, 0, 0, 0],[-1, 0, 1, 0], [ 9E+9,9E+9, 9E9, 9E9, 9E9, 9E9]];
CONST robtarget p393:= [[124.234,140.791,0.4], [-1, 0, 0, 0],[-1, 0, 1, 0], [ 9E+9,9E+9, 9E9, 9E9, 9E9, 9E9]];
CONST robtarget p394:= [[125.159,140.512,0.4], [-1, 0, 0, 0],[-1, 0, 1, 0], [ 9E+9,9E+9, 9E9, 9E9, 9E9, 9E9]];
CONST robtarget p395:= [[125.766,140.294,0.4], [-1, 0, 0, 0],[-1, 0, 1, 0], [ 9E+9,9E+9, 9E9, 9E9, 9E9, 9E9]];
CONST robtarget p396:= [[126.683,139.948,0.4], [-1, 0, 0, 0],[-1, 0, 1, 0], [ 9E+9,9E+9, 9E9, 9E9, 9E9, 9E9]];
CONST robtarget p397:= [[127.236,139.707,0.4], [-1, 0, 0, 0],[-1, 0, 1, 0], [ 9E+9,9E+9, 9E9, 9E9, 9E9, 9E9]];
CONST robtarget p398:= [[128.183,139.275,0.4], [-1, 0, 0, 0],[-1, 0, 1, 0], [ 9E+9,9E+9, 9E9, 9E9, 9E9, 9E9]];
CONST robtarget p399:= [[129.619,138.509,0.4], [-1, 0, 0, 0],[-1, 0, 1, 0], [ 9E+9,9E+9, 9E9, 9E9, 9E9, 9E9]];
CONST robtarget p400:= [[130.096,138.22,0.4], [-1, 0, 0, 0],[-1, 0, 1, 0], [ 9E+9,9E+9, 9E9, 9E9, 9E9, 9E9]];
CONST robtarget p401:= [[131.014,137.64,0.4], [-1, 0, 0, 0],[-1, 0, 1, 0], [ 9E+9,9E+9, 9E9, 9E9, 9E9, 9E9]];
CONST robtarget p402:= [[131.423,137.353,0.4], [-1, 0, 0, 0],[-1, 0, 1, 0], [ 9E+9,9E+9, 9E9, 9E9, 9E9, 9E9]];
CONST robtarget p403:= [[132.344,136.682,0.4], [-1, 0, 0, 0],[-1, 0, 1, 0], [ 9E+9,9E+9, 9E9, 9E9, 9E9, 9E9]];
CONST robtarget p404:= [[133.614,135.629,0.4], [-1, 0, 0, 0],[-1, 0, 1, 0], [ 9E+9,9E+9, 9E9, 9E9, 9E9, 9E9]];
CONST robtarget p405:= [[134.791,134.511,0.4], [-1, 0, 0, 0],[-1, 0, 1, 0], [ 9E+9,9E+9, 9E9, 9E9, 9E9, 9E9]];
CONST robtarget p406:= [[135.898,133.308,0.4], [-1, 0, 0, 0],[-1, 0, 1, 0], [ 9E+9,9E+9, 9E9, 9E9, 9E9, 9E9]];
CONST robtarget p407:= [[136.924,132.028,0.4], [-1, 0, 0, 0],[-1, 0, 1, 0], [ 9E+9,9E+9, 9E9, 9E9, 9E9, 9E9]];
CONST robtarget p408:= [[137.866,130.678,0.4], [-1, 0, 0, 0],[-1, 0, 1, 0], [ 9E+9,9E+9, 9E9, 9E9, 9E9, 9E9]];
CONST robtarget p409:= [[138.707,129.276,0.4], [-1, 0, 0, 0],[-1, 0, 1, 0], [ 9E+9,9E+9, 9E9, 9E9, 9E9, 9E9]];
CONST robtarget p410:= [[139.458,127.808,0.4], [-1, 0, 0, 0],[-1, 0, 1, 0], [ 9E+9,9E+9, 9E9, 9E9, 9E9, 9E9]];
CONST robtarget p411:= [[140.109,126.296,0.4], [-1, 0, 0, 0],[-1, 0, 1, 0], [ 9E+9,9E+9, 9E9, 9E9, 9E9, 9E9]];
CONST robtarget p412:= [[140.643,124.774,0.4], [-1, 0, 0, 0],[-1, 0, 1, 0], [ 9E+9,9E+9, 9E9, 9E9, 9E9, 9E9]];
CONST robtarget p413:= [[141.086,123.173,0.4], [-1, 0, 0, 0],[-1, 0, 1, 0], [ 9E+9,9E+9, 9E9, 9E9, 9E9, 9E9]];
CONST robtarget p414:= [[141.413,121.587,0.4], [-1, 0, 0, 0],[-1, 0, 1, 0], [ 9E+9,9E+9, 9E9, 9E9, 9E9, 9E9]];
CONST robtarget p415:= [[141.634,119.96,0.4], [-1, 0, 0, 0],[-1, 0, 1, 0], [ 9E+9,9E+9, 9E9, 9E9, 9E9, 9E9]];
CONST robtarget p416:= [[141.745,118.34,0.4], [-1, 0, 0, 0],[-1, 0, 1, 0], [ 9E+9,9E+9, 9E9, 9E9, 9E9, 9E9]];
CONST robtarget p417:= [[141.747,116.701,0.4], [-1, 0, 0, 0],[-1, 0, 1, 0], [ 9E+9,9E+9, 9E9, 9E9, 9E9, 9E9]];
CONST robtarget p418:= [[141.635,115.04,0.4], [-1, 0, 0, 0],[-1, 0, 1, 0], [ 9E+9,9E+9, 9E9, 9E9, 9E9, 9E9]];
CONST robtarget p419:= [[141.416,113.43,0.4], [-1, 0, 0, 0],[-1, 0, 1, 0], [ 9E+9,9E+9, 9E9, 9E9, 9E9, 9E9]];
CONST robtarget p420:= [[141.086,111.827,0.4], [-1, 0, 0, 0],[-1, 0, 1, 0], [ 9E+9,9E+9, 9E9, 9E9, 9E9, 9E9]];
CONST robtarget p421:= [[140.647,110.238,0.4], [-1, 0, 0, 0],[-1, 0, 1, 0], [ 9E+9,9E+9, 9E9, 9E9, 9E9, 9E9]];
CONST robtarget p422:= [[140.109,108.704,0.4], [-1, 0, 0, 0],[-1, 0, 1, 0], [ 9E+9,9E+9, 9E9, 9E9, 9E9, 9E9]];
CONST robtarget p423:= [[139.465,107.207,0.4], [-1, 0, 0, 0],[-1, 0, 1, 0], [ 9E+9,9E+9, 9E9, 9E9, 9E9, 9E9]];
CONST robtarget p424:= [[138.716,105.739,0.4], [-1, 0, 0, 0],[-1, 0, 1, 0], [ 9E+9,9E+9, 9E9, 9E9, 9E9, 9E9]];
CONST robtarget p425:= [[137.876,104.337,0.4], [-1, 0, 0, 0],[-1, 0, 1, 0], [ 9E+9,9E+9, 9E9, 9E9, 9E9, 9E9]];
CONST robtarget p426:= [[136.934,102.985,0.4], [-1, 0, 0, 0],[-1, 0, 1, 0], [ 9E+9,9E+9, 9E9, 9E9, 9E9, 9E9]];
CONST robtarget p427:= [[135.909,101.705,0.4], [-1, 0, 0, 0],[-1, 0, 1, 0], [ 9E+9,9E+9, 9E9, 9E9, 9E9, 9E9]];
CONST robtarget p428:= [[134.803,100.501,0.4], [-1, 0, 0, 0],[-1, 0, 1, 0], [ 9E+9,9E+9, 9E9, 9E9, 9E9, 9E9]];
CONST robtarget p429:= [[133.627,99.382,0.4], [-1, 0, 0, 0],[-1, 0, 1, 0], [ 9E+9,9E+9, 9E9, 9E9, 9E9, 9E9]];
CONST robtarget p430:= [[132.357,98.328,0.4], [-1, 0, 0, 0],[-1, 0, 1, 0], [ 9E+9,9E+9, 9E9, 9E9, 9E9, 9E9]];
CONST robtarget p431:= [[131.028,97.369,0.4], [-1, 0, 0, 0],[-1, 0, 1, 0], [ 9E+9,9E+9, 9E9, 9E9, 9E9, 9E9]];
CONST robtarget p432:= [[129.625,96.493,0.4], [-1, 0, 0, 0],[-1, 0, 1, 0], [ 9E+9,9E+9, 9E9, 9E9, 9E9, 9E9]];
CONST robtarget p433:= [[128.68,95.983,0.4], [-1, 0, 0, 0],[-1, 0, 1, 0], [ 9E+9,9E+9, 9E9, 9E9, 9E9, 9E9]];
CONST robtarget p434:= [[128.197,95.733,0.4], [-1, 0, 0, 0],[-1, 0, 1, 0], [ 9E+9,9E+9, 9E9, 9E9, 9E9, 9E9]];
CONST robtarget p435:= [[127.235,95.292,0.4], [-1, 0, 0, 0],[-1, 0, 1, 0], [ 9E+9,9E+9, 9E9, 9E9, 9E9, 9E9]];
CONST robtarget p436:= [[126.689,95.053,0.4], [-1, 0, 0, 0],[-1, 0, 1, 0], [ 9E+9,9E+9, 9E9, 9E9, 9E9, 9E9]];
CONST robtarget p437:= [[125.166,94.49,0.4], [-1, 0, 0, 0],[-1, 0, 1, 0], [ 9E+9,9E+9, 9E9, 9E9, 9E9, 9E9]];
CONST robtarget p438:= [[124.233,94.208,0.4], [-1, 0, 0, 0],[-1, 0, 1, 0], [ 9E+9,9E+9, 9E9, 9E9, 9E9, 9E9]];
CONST robtarget p439:= [[123.586,94.024,0.4], [-1, 0, 0, 0],[-1, 0, 1, 0], [ 9E+9,9E+9, 9E9, 9E9, 9E9, 9E9]];
CONST robtarget p440:= [[122.665,93.811,0.4], [-1, 0, 0, 0],[-1, 0, 1, 0], [ 9E+9,9E+9, 9E9, 9E9, 9E9, 9E9]];
CONST robtarget p441:= [[121.993,93.669,0.4], [-1, 0, 0, 0],[-1, 0, 1, 0], [ 9E+9,9E+9, 9E9, 9E9, 9E9, 9E9]];
CONST robtarget p442:= [[121.111,93.526,0.4], [-1, 0, 0, 0],[-1, 0, 1, 0], [ 9E+9,9E+9, 9E9, 9E9, 9E9, 9E9]];
CONST robtarget p443:= [[120.372,93.419,0.4], [-1, 0, 0, 0],[-1, 0, 1, 0], [ 9E+9,9E+9, 9E9, 9E9, 9E9, 9E9]];
CONST robtarget p444:= [[119.512,93.34,0.4], [-1, 0, 0, 0],[-1, 0, 1, 0], [ 9E+9,9E+9, 9E9, 9E9, 9E9, 9E9]];
CONST robtarget p445:= [[118.733,93.281,0.4], [-1, 0, 0, 0],[-1, 0, 1, 0], [ 9E+9,9E+9, 9E9, 9E9, 9E9, 9E9]];
CONST robtarget p446:= [[117.903,93.26,0.4], [-1, 0, 0, 0],[-1, 0, 1, 0], [ 9E+9,9E+9, 9E9, 9E9, 9E9, 9E9]];
CONST robtarget p447:= [[117.101,93.253,0.4], [-1, 0, 0, 0],[-1, 0, 1, 0], [ 9E+9,9E+9, 9E9, 9E9, 9E9, 9E9]];
CONST robtarget p448:= [[116.294,93.287,0.4], [-1, 0, 0, 0],[-1, 0, 1, 0], [ 9E+9,9E+9, 9E9, 9E9, 9E9, 9E9]];
CONST robtarget p449:= [[115.467,93.336,0.4], [-1, 0, 0, 0],[-1, 0, 1, 0], [ 9E+9,9E+9, 9E9, 9E9, 9E9, 9E9]];
CONST robtarget p450:= [[114.712,93.419,0.4], [-1, 0, 0, 0],[-1, 0, 1, 0], [ 9E+9,9E+9, 9E9, 9E9, 9E9, 9E9]];
CONST robtarget p451:= [[113.833,93.53,0.4], [-1, 0, 0, 0],[-1, 0, 1, 0], [ 9E+9,9E+9, 9E9, 9E9, 9E9, 9E9]];
CONST robtarget p452:= [[113.122,93.656,0.4], [-1, 0, 0, 0],[-1, 0, 1, 0], [ 9E+9,9E+9, 9E9, 9E9, 9E9, 9E9]];
CONST robtarget p453:= [[112.232,93.83,0.4], [-1, 0, 0, 0],[-1, 0, 1, 0], [ 9E+9,9E+9, 9E9, 9E9, 9E9, 9E9]];
CONST robtarget p454:= [[110.642,94.241,0.4], [-1, 0, 0, 0],[-1, 0, 1, 0], [ 9E+9,9E+9, 9E9, 9E9, 9E9, 9E9]];
CONST robtarget p455:= [[109.09,94.756,0.4], [-1, 0, 0, 0],[-1, 0, 1, 0], [ 9E+9,9E+9, 9E9, 9E9, 9E9, 9E9]];
CONST robtarget p456:= [[107.575,95.375,0.4], [-1, 0, 0, 0],[-1, 0, 1, 0], [ 9E+9,9E+9, 9E9, 9E9, 9E9, 9E9]];
CONST robtarget p457:= [[106.108,96.093,0.4], [-1, 0, 0, 0],[-1, 0, 1, 0], [ 9E+9,9E+9, 9E9, 9E9, 9E9, 9E9]];
CONST robtarget p458:= [[104.68,96.919,0.4], [-1, 0, 0, 0],[-1, 0, 1, 0], [ 9E+9,9E+9, 9E9, 9E9, 9E9, 9E9]];
CONST robtarget p459:= [[103.325,97.828,0.4], [-1, 0, 0, 0],[-1, 0, 1, 0], [ 9E+9,9E+9, 9E9, 9E9, 9E9, 9E9]];
CONST robtarget p460:= [[102.931,98.125,0.4], [-1, 0, 0, 0],[-1, 0, 1, 0], [ 9E+9,9E+9, 9E9, 9E9, 9E9, 9E9]];
CONST robtarget p461:= [[102.032,98.83,0.4], [-1, 0, 0, 0],[-1, 0, 1, 0], [ 9E+9,9E+9, 9E9, 9E9, 9E9, 9E9]];
CONST robtarget p462:= [[100.783,99.936,0.4], [-1, 0, 0, 0],[-1, 0, 1, 0], [ 9E+9,9E+9, 9E9, 9E9, 9E9, 9E9]];
CONST robtarget p463:= [[99.657,101.082,0.4], [-1, 0, 0, 0],[-1, 0, 1, 0], [ 9E+9,9E+9, 9E9, 9E9, 9E9, 9E9]];
CONST robtarget p464:= [[98.584,102.332,0.4], [-1, 0, 0, 0],[-1, 0, 1, 0], [ 9E+9,9E+9, 9E9, 9E9, 9E9, 9E9]];
CONST robtarget p465:= [[97.613,103.631,0.4], [-1, 0, 0, 0],[-1, 0, 1, 0], [ 9E+9,9E+9, 9E9, 9E9, 9E9, 9E9]];
CONST robtarget p466:= [[96.722,105.004,0.4], [-1, 0, 0, 0],[-1, 0, 1, 0], [ 9E+9,9E+9, 9E9, 9E9, 9E9, 9E9]];
CONST robtarget p467:= [[95.92,106.449,0.4], [-1, 0, 0, 0],[-1, 0, 1, 0], [ 9E+9,9E+9, 9E9, 9E9, 9E9, 9E9]];
CONST robtarget p468:= [[95.219,107.938,0.4], [-1, 0, 0, 0],[-1, 0, 1, 0], [ 9E+9,9E+9, 9E9, 9E9, 9E9, 9E9]];
CONST robtarget p469:= [[94.631,109.443,0.4], [-1, 0, 0, 0],[-1, 0, 1, 0], [ 9E+9,9E+9, 9E9, 9E9, 9E9, 9E9]];
CONST robtarget p470:= [[94.137,111.018,0.4], [-1, 0, 0, 0],[-1, 0, 1, 0], [ 9E+9,9E+9, 9E9, 9E9, 9E9, 9E9]];
CONST robtarget p471:= [[93.75,112.62,0.4], [-1, 0, 0, 0],[-1, 0, 1, 0], [ 9E+9,9E+9, 9E9, 9E9, 9E9, 9E9]];
CONST robtarget p472:= [[93.475,114.226,0.4], [-1, 0, 0, 0],[-1, 0, 1, 0], [ 9E+9,9E+9, 9E9, 9E9, 9E9, 9E9]];
CONST robtarget p473:= [[93.31,115.843,0.4], [-1, 0, 0, 0],[-1, 0, 1, 0], [ 9E+9,9E+9, 9E9, 9E9, 9E9, 9E9]];
CONST robtarget p474:= [[93.254,117.491,0.4], [-1, 0, 0, 0],[-1, 0, 1, 0], [ 9E+9,9E+9, 9E9, 9E9, 9E9, 9E9]];
CONST robtarget p475:= [[93.308,119.121,0.4], [-1, 0, 0, 0],[-1, 0, 1, 0], [ 9E+9,9E+9, 9E9, 9E9, 9E9, 9E9]];
CONST robtarget p476:= [[93.473,120.757,0.4], [-1, 0, 0, 0],[-1, 0, 1, 0], [ 9E+9,9E+9, 9E9, 9E9, 9E9, 9E9]];
CONST robtarget p477:= [[93.746,122.363,0.4], [-1, 0, 0, 0],[-1, 0, 1, 0], [ 9E+9,9E+9, 9E9, 9E9, 9E9, 9E9]];
CONST robtarget p478:= [[94.133,123.966,0.4], [-1, 0, 0, 0],[-1, 0, 1, 0], [ 9E+9,9E+9, 9E9, 9E9, 9E9, 9E9]];
CONST robtarget p479:= [[94.624,125.538,0.4], [-1, 0, 0, 0],[-1, 0, 1, 0], [ 9E+9,9E+9, 9E9, 9E9, 9E9, 9E9]];
CONST robtarget p480:= [[95.212,127.047,0.4], [-1, 0, 0, 0],[-1, 0, 1, 0], [ 9E+9,9E+9, 9E9, 9E9, 9E9, 9E9]];
CONST robtarget p481:= [[95.912,128.536,0.4], [-1, 0, 0, 0],[-1, 0, 1, 0], [ 9E+9,9E+9, 9E9, 9E9, 9E9, 9E9]];
CONST robtarget p482:= [[96.711,129.978,0.4], [-1, 0, 0, 0],[-1, 0, 1, 0], [ 9E+9,9E+9, 9E9, 9E9, 9E9, 9E9]];
CONST robtarget p483:= [[97.601,131.352,0.4], [-1, 0, 0, 0],[-1, 0, 1, 0], [ 9E+9,9E+9, 9E9, 9E9, 9E9, 9E9]];
CONST robtarget p484:= [[98.573,132.655,0.4], [-1, 0, 0, 0],[-1, 0, 1, 0], [ 9E+9,9E+9, 9E9, 9E9, 9E9, 9E9]];
CONST robtarget p485:= [[99.657,133.918,0.4], [-1, 0, 0, 0],[-1, 0, 1, 0], [ 9E+9,9E+9, 9E9, 9E9, 9E9, 9E9]];
CONST robtarget p486:= [[100.783,135.064,0.4], [-1, 0, 0, 0],[-1, 0, 1, 0], [ 9E+9,9E+9, 9E9, 9E9, 9E9, 9E9]];
CONST robtarget p487:= [[102.02,136.16,0.4], [-1, 0, 0, 0],[-1, 0, 1, 0], [ 9E+9,9E+9, 9E9, 9E9, 9E9, 9E9]];
CONST robtarget p488:= [[103.32,137.17,0.4], [-1, 0, 0, 0],[-1, 0, 1, 0], [ 9E+9,9E+9, 9E9, 9E9, 9E9, 9E9]];
CONST robtarget p489:= [[104.671,138.075,0.4], [-1, 0, 0, 0],[-1, 0, 1, 0], [ 9E+9,9E+9, 9E9, 9E9, 9E9, 9E9]];
CONST robtarget p490:= [[105.63,138.637,0.4], [-1, 0, 0, 0],[-1, 0, 1, 0], [ 9E+9,9E+9, 9E9, 9E9, 9E9, 9E9]];
CONST robtarget p491:= [[106.097,138.9,0.4], [-1, 0, 0, 0],[-1, 0, 1, 0], [ 9E+9,9E+9, 9E9, 9E9, 9E9, 9E9]];
CONST robtarget p492:= [[107.569,139.623,0.4], [-1, 0, 0, 0],[-1, 0, 1, 0], [ 9E+9,9E+9, 9E9, 9E9, 9E9, 9E9]];
CONST robtarget p493:= [[109.074,140.238,0.4], [-1, 0, 0, 0],[-1, 0, 1, 0], [ 9E+9,9E+9, 9E9, 9E9, 9E9, 9E9]];
CONST robtarget p494:= [[110.006,140.554,0.4], [-1, 0, 0, 0],[-1, 0, 1, 0], [ 9E+9,9E+9, 9E9, 9E9, 9E9, 9E9]];
CONST robtarget p495:= [[110.633,140.755,0.4], [-1, 0, 0, 0],[-1, 0, 1, 0], [ 9E+9,9E+9, 9E9, 9E9, 9E9, 9E9]];
CONST robtarget p496:= [[111.568,141.005,0.4], [-1, 0, 0, 0],[-1, 0, 1, 0], [ 9E+9,9E+9, 9E9, 9E9, 9E9, 9E9]];
CONST robtarget p497:= [[112.225,141.169,0.4], [-1, 0, 0, 0],[-1, 0, 1, 0], [ 9E+9,9E+9, 9E9, 9E9, 9E9, 9E9]];
CONST robtarget p498:= [[113.123,141.344,0.4], [-1, 0, 0, 0],[-1, 0, 1, 0], [ 9E+9,9E+9, 9E9, 9E9, 9E9, 9E9]];
CONST robtarget p499:= [[113.817,141.467,0.4], [-1, 0, 0, 0],[-1, 0, 1, 0], [ 9E+9,9E+9, 9E9, 9E9, 9E9, 9E9]];
CONST robtarget p500:= [[114.712,141.582,0.4], [-1, 0, 0, 0],[-1, 0, 1, 0], [ 9E+9,9E+9, 9E9, 9E9, 9E9, 9E9]];
CONST robtarget p501:= [[115.459,141.665,0.4], [-1, 0, 0, 0],[-1, 0, 1, 0], [ 9E+9,9E+9, 9E9, 9E9, 9E9, 9E9]];
CONST robtarget p502:= [[116.295,141.713,0.4], [-1, 0, 0, 0],[-1, 0, 1, 0], [ 9E+9,9E+9, 9E9, 9E9, 9E9, 9E9]];
CONST robtarget p503:= [[117.101,141.747,0.4], [-1, 0, 0, 0],[-1, 0, 1, 0], [ 9E+9,9E+9, 9E9, 9E9, 9E9, 9E9]];
CONST robtarget p504:= [[117.101,141.747,0.6], [-1, 0, 0, 0],[-1, 0, 1, 0], [ 9E+9,9E+9, 9E9, 9E9, 9E9, 9E9]];
CONST robtarget p505:= [[117.919,142.247,0.6], [-1, 0, 0, 0],[-1, 0, 1, 0], [ 9E+9,9E+9, 9E9, 9E9, 9E9, 9E9]];
CONST robtarget p506:= [[117.111,142.24,0.6], [-1, 0, 0, 0],[-1, 0, 1, 0], [ 9E+9,9E+9, 9E9, 9E9, 9E9, 9E9]];
CONST robtarget p507:= [[116.27,142.22,0.6], [-1, 0, 0, 0],[-1, 0, 1, 0], [ 9E+9,9E+9, 9E9, 9E9, 9E9, 9E9]];
CONST robtarget p508:= [[115.435,142.157,0.6], [-1, 0, 0, 0],[-1, 0, 1, 0], [ 9E+9,9E+9, 9E9, 9E9, 9E9, 9E9]];
CONST robtarget p509:= [[114.661,142.086,0.6], [-1, 0, 0, 0],[-1, 0, 1, 0], [ 9E+9,9E+9, 9E9, 9E9, 9E9, 9E9]];
CONST robtarget p510:= [[113.767,141.959,0.6], [-1, 0, 0, 0],[-1, 0, 1, 0], [ 9E+9,9E+9, 9E9, 9E9, 9E9, 9E9]];
CONST robtarget p511:= [[113.038,141.843,0.6], [-1, 0, 0, 0],[-1, 0, 1, 0], [ 9E+9,9E+9, 9E9, 9E9, 9E9, 9E9]];
CONST robtarget p512:= [[112.134,141.652,0.6], [-1, 0, 0, 0],[-1, 0, 1, 0], [ 9E+9,9E+9, 9E9, 9E9, 9E9, 9E9]];
CONST robtarget p513:= [[111.449,141.496,0.6], [-1, 0, 0, 0],[-1, 0, 1, 0], [ 9E+9,9E+9, 9E9, 9E9, 9E9, 9E9]];
CONST robtarget p514:= [[110.506,141.232,0.6], [-1, 0, 0, 0],[-1, 0, 1, 0], [ 9E+9,9E+9, 9E9, 9E9, 9E9, 9E9]];
CONST robtarget p515:= [[109.856,141.037,0.6], [-1, 0, 0, 0],[-1, 0, 1, 0], [ 9E+9,9E+9, 9E9, 9E9, 9E9, 9E9]];
CONST robtarget p516:= [[108.915,140.706,0.6], [-1, 0, 0, 0],[-1, 0, 1, 0], [ 9E+9,9E+9, 9E9, 9E9, 9E9, 9E9]];
CONST robtarget p517:= [[108.327,140.485,0.6], [-1, 0, 0, 0],[-1, 0, 1, 0], [ 9E+9,9E+9, 9E9, 9E9, 9E9, 9E9]];
CONST robtarget p518:= [[107.383,140.078,0.6], [-1, 0, 0, 0],[-1, 0, 1, 0], [ 9E+9,9E+9, 9E9, 9E9, 9E9, 9E9]];
CONST robtarget p519:= [[106.818,139.823,0.6], [-1, 0, 0, 0],[-1, 0, 1, 0], [ 9E+9,9E+9, 9E9, 9E9, 9E9, 9E9]];
CONST robtarget p520:= [[105.89,139.348,0.6], [-1, 0, 0, 0],[-1, 0, 1, 0], [ 9E+9,9E+9, 9E9, 9E9, 9E9, 9E9]];
CONST robtarget p521:= [[105.386,139.079,0.6], [-1, 0, 0, 0],[-1, 0, 1, 0], [ 9E+9,9E+9, 9E9, 9E9, 9E9, 9E9]];
CONST robtarget p522:= [[103.967,138.218,0.6], [-1, 0, 0, 0],[-1, 0, 1, 0], [ 9E+9,9E+9, 9E9, 9E9, 9E9, 9E9]];
CONST robtarget p523:= [[102.625,137.277,0.6], [-1, 0, 0, 0],[-1, 0, 1, 0], [ 9E+9,9E+9, 9E9, 9E9, 9E9, 9E9]];
CONST robtarget p524:= [[101.353,136.251,0.6], [-1, 0, 0, 0],[-1, 0, 1, 0], [ 9E+9,9E+9, 9E9, 9E9, 9E9, 9E9]];
CONST robtarget p525:= [[100.157,135.151,0.6], [-1, 0, 0, 0],[-1, 0, 1, 0], [ 9E+9,9E+9, 9E9, 9E9, 9E9, 9E9]];
CONST robtarget p526:= [[99.028,133.966,0.6], [-1, 0, 0, 0],[-1, 0, 1, 0], [ 9E+9,9E+9, 9E9, 9E9, 9E9, 9E9]];
CONST robtarget p527:= [[97.973,132.7,0.6], [-1, 0, 0, 0],[-1, 0, 1, 0], [ 9E+9,9E+9, 9E9, 9E9, 9E9, 9E9]];
CONST robtarget p528:= [[97.018,131.384,0.6], [-1, 0, 0, 0],[-1, 0, 1, 0], [ 9E+9,9E+9, 9E9, 9E9, 9E9, 9E9]];
CONST robtarget p529:= [[96.139,129.992,0.6], [-1, 0, 0, 0],[-1, 0, 1, 0], [ 9E+9,9E+9, 9E9, 9E9, 9E9, 9E9]];
CONST robtarget p530:= [[95.37,128.57,0.6], [-1, 0, 0, 0],[-1, 0, 1, 0], [ 9E+9,9E+9, 9E9, 9E9, 9E9, 9E9]];
CONST robtarget p531:= [[94.676,127.063,0.6], [-1, 0, 0, 0],[-1, 0, 1, 0], [ 9E+9,9E+9, 9E9, 9E9, 9E9, 9E9]];
CONST robtarget p532:= [[94.1,125.55,0.6], [-1, 0, 0, 0],[-1, 0, 1, 0], [ 9E+9,9E+9, 9E9, 9E9, 9E9, 9E9]];
CONST robtarget p533:= [[93.621,123.988,0.6], [-1, 0, 0, 0],[-1, 0, 1, 0], [ 9E+9,9E+9, 9E9, 9E9, 9E9, 9E9]];
CONST robtarget p534:= [[93.239,122.376,0.6], [-1, 0, 0, 0],[-1, 0, 1, 0], [ 9E+9,9E+9, 9E9, 9E9, 9E9, 9E9]];
CONST robtarget p535:= [[92.97,120.762,0.6], [-1, 0, 0, 0],[-1, 0, 1, 0], [ 9E+9,9E+9, 9E9, 9E9, 9E9, 9E9]];
CONST robtarget p536:= [[92.809,119.153,0.6], [-1, 0, 0, 0],[-1, 0, 1, 0], [ 9E+9,9E+9, 9E9, 9E9, 9E9, 9E9]];
CONST robtarget p537:= [[92.754,117.525,0.6], [-1, 0, 0, 0],[-1, 0, 1, 0], [ 9E+9,9E+9, 9E9, 9E9, 9E9, 9E9]];
CONST robtarget p538:= [[92.808,115.862,0.6], [-1, 0, 0, 0],[-1, 0, 1, 0], [ 9E+9,9E+9, 9E9, 9E9, 9E9, 9E9]];
CONST robtarget p539:= [[92.969,114.245,0.6], [-1, 0, 0, 0],[-1, 0, 1, 0], [ 9E+9,9E+9, 9E9, 9E9, 9E9, 9E9]];
CONST robtarget p540:= [[93.237,112.64,0.6], [-1, 0, 0, 0],[-1, 0, 1, 0], [ 9E+9,9E+9, 9E9, 9E9, 9E9, 9E9]];
CONST robtarget p541:= [[93.617,111.025,0.6], [-1, 0, 0, 0],[-1, 0, 1, 0], [ 9E+9,9E+9, 9E9, 9E9, 9E9, 9E9]];
CONST robtarget p542:= [[94.098,109.459,0.6], [-1, 0, 0, 0],[-1, 0, 1, 0], [ 9E+9,9E+9, 9E9, 9E9, 9E9, 9E9]];
CONST robtarget p543:= [[94.67,107.951,0.6], [-1, 0, 0, 0],[-1, 0, 1, 0], [ 9E+9,9E+9, 9E9, 9E9, 9E9, 9E9]];
CONST robtarget p544:= [[95.363,106.444,0.6], [-1, 0, 0, 0],[-1, 0, 1, 0], [ 9E+9,9E+9, 9E9, 9E9, 9E9, 9E9]];
CONST robtarget p545:= [[96.131,105.022,0.6], [-1, 0, 0, 0],[-1, 0, 1, 0], [ 9E+9,9E+9, 9E9, 9E9, 9E9, 9E9]];
CONST robtarget p546:= [[97.01,103.628,0.6], [-1, 0, 0, 0],[-1, 0, 1, 0], [ 9E+9,9E+9, 9E9, 9E9, 9E9, 9E9]];
CONST robtarget p547:= [[97.964,102.313,0.6], [-1, 0, 0, 0],[-1, 0, 1, 0], [ 9E+9,9E+9, 9E9, 9E9, 9E9, 9E9]];
CONST robtarget p548:= [[99.018,101.046,0.6], [-1, 0, 0, 0],[-1, 0, 1, 0], [ 9E+9,9E+9, 9E9, 9E9, 9E9, 9E9]];
CONST robtarget p549:= [[100.146,99.86,0.6], [-1, 0, 0, 0],[-1, 0, 1, 0], [ 9E+9,9E+9, 9E9, 9E9, 9E9, 9E9]];
CONST robtarget p550:= [[101.342,98.759,0.6], [-1, 0, 0, 0],[-1, 0, 1, 0], [ 9E+9,9E+9, 9E9, 9E9, 9E9, 9E9]];
CONST robtarget p551:= [[102.619,97.728,0.6], [-1, 0, 0, 0],[-1, 0, 1, 0], [ 9E+9,9E+9, 9E9, 9E9, 9E9, 9E9]];
CONST robtarget p552:= [[103.954,96.791,0.6], [-1, 0, 0, 0],[-1, 0, 1, 0], [ 9E+9,9E+9, 9E9, 9E9, 9E9, 9E9]];
CONST robtarget p553:= [[104.406,96.509,0.6], [-1, 0, 0, 0],[-1, 0, 1, 0], [ 9E+9,9E+9, 9E9, 9E9, 9E9, 9E9]];
CONST robtarget p554:= [[105.373,95.929,0.6], [-1, 0, 0, 0],[-1, 0, 1, 0], [ 9E+9,9E+9, 9E9, 9E9, 9E9, 9E9]];
CONST robtarget p555:= [[105.881,95.656,0.6], [-1, 0, 0, 0],[-1, 0, 1, 0], [ 9E+9,9E+9, 9E9, 9E9, 9E9, 9E9]];
CONST robtarget p556:= [[106.804,95.183,0.6], [-1, 0, 0, 0],[-1, 0, 1, 0], [ 9E+9,9E+9, 9E9, 9E9, 9E9, 9E9]];
CONST robtarget p557:= [[107.371,94.926,0.6], [-1, 0, 0, 0],[-1, 0, 1, 0], [ 9E+9,9E+9, 9E9, 9E9, 9E9, 9E9]];
CONST robtarget p558:= [[108.312,94.521,0.6], [-1, 0, 0, 0],[-1, 0, 1, 0], [ 9E+9,9E+9, 9E9, 9E9, 9E9, 9E9]];
CONST robtarget p559:= [[108.898,94.302,0.6], [-1, 0, 0, 0],[-1, 0, 1, 0], [ 9E+9,9E+9, 9E9, 9E9, 9E9, 9E9]];
CONST robtarget p560:= [[109.841,93.968,0.6], [-1, 0, 0, 0],[-1, 0, 1, 0], [ 9E+9,9E+9, 9E9, 9E9, 9E9, 9E9]];
CONST robtarget p561:= [[110.488,93.774,0.6], [-1, 0, 0, 0],[-1, 0, 1, 0], [ 9E+9,9E+9, 9E9, 9E9, 9E9, 9E9]];
CONST robtarget p562:= [[111.435,93.508,0.6], [-1, 0, 0, 0],[-1, 0, 1, 0], [ 9E+9,9E+9, 9E9, 9E9, 9E9, 9E9]];
CONST robtarget p563:= [[112.102,93.354,0.6], [-1, 0, 0, 0],[-1, 0, 1, 0], [ 9E+9,9E+9, 9E9, 9E9, 9E9, 9E9]];
CONST robtarget p564:= [[113.022,93.159,0.6], [-1, 0, 0, 0],[-1, 0, 1, 0], [ 9E+9,9E+9, 9E9, 9E9, 9E9, 9E9]];
CONST robtarget p565:= [[113.736,93.045,0.6], [-1, 0, 0, 0],[-1, 0, 1, 0], [ 9E+9,9E+9, 9E9, 9E9, 9E9, 9E9]];
CONST robtarget p566:= [[114.645,92.916,0.6], [-1, 0, 0, 0],[-1, 0, 1, 0], [ 9E+9,9E+9, 9E9, 9E9, 9E9, 9E9]];
CONST robtarget p567:= [[115.401,92.845,0.6], [-1, 0, 0, 0],[-1, 0, 1, 0], [ 9E+9,9E+9, 9E9, 9E9, 9E9, 9E9]];
CONST robtarget p568:= [[116.262,92.781,0.6], [-1, 0, 0, 0],[-1, 0, 1, 0], [ 9E+9,9E+9, 9E9, 9E9, 9E9, 9E9]];
CONST robtarget p569:= [[117.077,92.76,0.6], [-1, 0, 0, 0],[-1, 0, 1, 0], [ 9E+9,9E+9, 9E9, 9E9, 9E9, 9E9]];
CONST robtarget p570:= [[117.903,92.754,0.6], [-1, 0, 0, 0],[-1, 0, 1, 0], [ 9E+9,9E+9, 9E9, 9E9, 9E9, 9E9]];
CONST robtarget p571:= [[118.741,92.788,0.6], [-1, 0, 0, 0],[-1, 0, 1, 0], [ 9E+9,9E+9, 9E9, 9E9, 9E9, 9E9]];
CONST robtarget p572:= [[119.546,92.836,0.6], [-1, 0, 0, 0],[-1, 0, 1, 0], [ 9E+9,9E+9, 9E9, 9E9, 9E9, 9E9]];
CONST robtarget p573:= [[120.413,92.929,0.6], [-1, 0, 0, 0],[-1, 0, 1, 0], [ 9E+9,9E+9, 9E9, 9E9, 9E9, 9E9]];
CONST robtarget p574:= [[121.187,93.025,0.6], [-1, 0, 0, 0],[-1, 0, 1, 0], [ 9E+9,9E+9, 9E9, 9E9, 9E9, 9E9]];
CONST robtarget p575:= [[122.058,93.179,0.6], [-1, 0, 0, 0],[-1, 0, 1, 0], [ 9E+9,9E+9, 9E9, 9E9, 9E9, 9E9]];
CONST robtarget p576:= [[122.766,93.316,0.6], [-1, 0, 0, 0],[-1, 0, 1, 0], [ 9E+9,9E+9, 9E9, 9E9, 9E9, 9E9]];
CONST robtarget p577:= [[123.684,93.541,0.6], [-1, 0, 0, 0],[-1, 0, 1, 0], [ 9E+9,9E+9, 9E9, 9E9, 9E9, 9E9]];
CONST robtarget p578:= [[124.367,93.721,0.6], [-1, 0, 0, 0],[-1, 0, 1, 0], [ 9E+9,9E+9, 9E9, 9E9, 9E9, 9E9]];
CONST robtarget p579:= [[125.305,94.018,0.6], [-1, 0, 0, 0],[-1, 0, 1, 0], [ 9E+9,9E+9, 9E9, 9E9, 9E9, 9E9]];
CONST robtarget p580:= [[125.939,94.231,0.6], [-1, 0, 0, 0],[-1, 0, 1, 0], [ 9E+9,9E+9, 9E9, 9E9, 9E9, 9E9]];
CONST robtarget p581:= [[126.872,94.596,0.6], [-1, 0, 0, 0],[-1, 0, 1, 0], [ 9E+9,9E+9, 9E9, 9E9, 9E9, 9E9]];
CONST robtarget p582:= [[127.433,94.828,0.6], [-1, 0, 0, 0],[-1, 0, 1, 0], [ 9E+9,9E+9, 9E9, 9E9, 9E9, 9E9]];
CONST robtarget p583:= [[128.908,95.533,0.6], [-1, 0, 0, 0],[-1, 0, 1, 0], [ 9E+9,9E+9, 9E9, 9E9, 9E9, 9E9]];
CONST robtarget p584:= [[129.867,96.063,0.6], [-1, 0, 0, 0],[-1, 0, 1, 0], [ 9E+9,9E+9, 9E9, 9E9, 9E9, 9E9]];
CONST robtarget p585:= [[130.354,96.346,0.6], [-1, 0, 0, 0],[-1, 0, 1, 0], [ 9E+9,9E+9, 9E9, 9E9, 9E9, 9E9]];
CONST robtarget p586:= [[131.28,96.943,0.6], [-1, 0, 0, 0],[-1, 0, 1, 0], [ 9E+9,9E+9, 9E9, 9E9, 9E9, 9E9]];
CONST robtarget p587:= [[131.706,97.229,0.6], [-1, 0, 0, 0],[-1, 0, 1, 0], [ 9E+9,9E+9, 9E9, 9E9, 9E9, 9E9]];
CONST robtarget p588:= [[133.014,98.211,0.6], [-1, 0, 0, 0],[-1, 0, 1, 0], [ 9E+9,9E+9, 9E9, 9E9, 9E9, 9E9]];
CONST robtarget p589:= [[134.256,99.278,0.6], [-1, 0, 0, 0],[-1, 0, 1, 0], [ 9E+9,9E+9, 9E9, 9E9, 9E9, 9E9]];
CONST robtarget p590:= [[135.444,100.446,0.6], [-1, 0, 0, 0],[-1, 0, 1, 0], [ 9E+9,9E+9, 9E9, 9E9, 9E9, 9E9]];
CONST robtarget p591:= [[136.528,101.664,0.6], [-1, 0, 0, 0],[-1, 0, 1, 0], [ 9E+9,9E+9, 9E9, 9E9, 9E9, 9E9]];
CONST robtarget p592:= [[137.507,102.92,0.6], [-1, 0, 0, 0],[-1, 0, 1, 0], [ 9E+9,9E+9, 9E9, 9E9, 9E9, 9E9]];
CONST robtarget p593:= [[138.466,104.335,0.6], [-1, 0, 0, 0],[-1, 0, 1, 0], [ 9E+9,9E+9, 9E9, 9E9, 9E9, 9E9]];
CONST robtarget p594:= [[139.252,105.68,0.6], [-1, 0, 0, 0],[-1, 0, 1, 0], [ 9E+9,9E+9, 9E9, 9E9, 9E9, 9E9]];
CONST robtarget p595:= [[140.007,107.187,0.6], [-1, 0, 0, 0],[-1, 0, 1, 0], [ 9E+9,9E+9, 9E9, 9E9, 9E9, 9E9]];
CONST robtarget p596:= [[140.633,108.677,0.6], [-1, 0, 0, 0],[-1, 0, 1, 0], [ 9E+9,9E+9, 9E9, 9E9, 9E9, 9E9]];
CONST robtarget p597:= [[141.172,110.245,0.6], [-1, 0, 0, 0],[-1, 0, 1, 0], [ 9E+9,9E+9, 9E9, 9E9, 9E9, 9E9]];
CONST robtarget p598:= [[141.593,111.804,0.6], [-1, 0, 0, 0],[-1, 0, 1, 0], [ 9E+9,9E+9, 9E9, 9E9, 9E9, 9E9]];
CONST robtarget p599:= [[141.918,113.409,0.6], [-1, 0, 0, 0],[-1, 0, 1, 0], [ 9E+9,9E+9, 9E9, 9E9, 9E9, 9E9]];
CONST robtarget p600:= [[142.136,115.031,0.6], [-1, 0, 0, 0],[-1, 0, 1, 0], [ 9E+9,9E+9, 9E9, 9E9, 9E9, 9E9]];
CONST robtarget p601:= [[142.247,116.701,0.6], [-1, 0, 0, 0],[-1, 0, 1, 0], [ 9E+9,9E+9, 9E9, 9E9, 9E9, 9E9]];
CONST robtarget p602:= [[142.247,118.299,0.6], [-1, 0, 0, 0],[-1, 0, 1, 0], [ 9E+9,9E+9, 9E9, 9E9, 9E9, 9E9]];
CONST robtarget p603:= [[142.139,119.94,0.6], [-1, 0, 0, 0],[-1, 0, 1, 0], [ 9E+9,9E+9, 9E9, 9E9, 9E9, 9E9]];
CONST robtarget p604:= [[141.921,121.571,0.6], [-1, 0, 0, 0],[-1, 0, 1, 0], [ 9E+9,9E+9, 9E9, 9E9, 9E9, 9E9]];
CONST robtarget p605:= [[141.597,123.181,0.6], [-1, 0, 0, 0],[-1, 0, 1, 0], [ 9E+9,9E+9, 9E9, 9E9, 9E9, 9E9]];
CONST robtarget p606:= [[141.176,124.74,0.6], [-1, 0, 0, 0],[-1, 0, 1, 0], [ 9E+9,9E+9, 9E9, 9E9, 9E9, 9E9]];
CONST robtarget p607:= [[140.641,126.302,0.6], [-1, 0, 0, 0],[-1, 0, 1, 0], [ 9E+9,9E+9, 9E9, 9E9, 9E9, 9E9]];
CONST robtarget p608:= [[140.013,127.799,0.6], [-1, 0, 0, 0],[-1, 0, 1, 0], [ 9E+9,9E+9, 9E9, 9E9, 9E9, 9E9]];
CONST robtarget p609:= [[139.26,129.307,0.6], [-1, 0, 0, 0],[-1, 0, 1, 0], [ 9E+9,9E+9, 9E9, 9E9, 9E9, 9E9]];
CONST robtarget p610:= [[138.474,130.652,0.6], [-1, 0, 0, 0],[-1, 0, 1, 0], [ 9E+9,9E+9, 9E9, 9E9, 9E9, 9E9]];
CONST robtarget p611:= [[137.512,132.074,0.6], [-1, 0, 0, 0],[-1, 0, 1, 0], [ 9E+9,9E+9, 9E9, 9E9, 9E9, 9E9]];
CONST robtarget p612:= [[136.537,133.324,0.6], [-1, 0, 0, 0],[-1, 0, 1, 0], [ 9E+9,9E+9, 9E9, 9E9, 9E9, 9E9]];
CONST robtarget p613:= [[135.449,134.548,0.6], [-1, 0, 0, 0],[-1, 0, 1, 0], [ 9E+9,9E+9, 9E9, 9E9, 9E9, 9E9]];
CONST robtarget p614:= [[134.27,135.709,0.6], [-1, 0, 0, 0],[-1, 0, 1, 0], [ 9E+9,9E+9, 9E9, 9E9, 9E9, 9E9]];
CONST robtarget p615:= [[133.03,136.776,0.6], [-1, 0, 0, 0],[-1, 0, 1, 0], [ 9E+9,9E+9, 9E9, 9E9, 9E9, 9E9]];
CONST robtarget p616:= [[132.663,137.06,0.6], [-1, 0, 0, 0],[-1, 0, 1, 0], [ 9E+9,9E+9, 9E9, 9E9, 9E9, 9E9]];
CONST robtarget p617:= [[131.721,137.76,0.6], [-1, 0, 0, 0],[-1, 0, 1, 0], [ 9E+9,9E+9, 9E9, 9E9, 9E9, 9E9]];
CONST robtarget p618:= [[131.28,138.057,0.6], [-1, 0, 0, 0],[-1, 0, 1, 0], [ 9E+9,9E+9, 9E9, 9E9, 9E9, 9E9]];
CONST robtarget p619:= [[130.367,138.646,0.6], [-1, 0, 0, 0],[-1, 0, 1, 0], [ 9E+9,9E+9, 9E9, 9E9, 9E9, 9E9]];
CONST robtarget p620:= [[129.868,138.936,0.6], [-1, 0, 0, 0],[-1, 0, 1, 0], [ 9E+9,9E+9, 9E9, 9E9, 9E9, 9E9]];
CONST robtarget p621:= [[128.928,139.458,0.6], [-1, 0, 0, 0],[-1, 0, 1, 0], [ 9E+9,9E+9, 9E9, 9E9, 9E9, 9E9]];
CONST robtarget p622:= [[128.419,139.708,0.6], [-1, 0, 0, 0],[-1, 0, 1, 0], [ 9E+9,9E+9, 9E9, 9E9, 9E9, 9E9]];
CONST robtarget p623:= [[127.447,140.166,0.6], [-1, 0, 0, 0],[-1, 0, 1, 0], [ 9E+9,9E+9, 9E9, 9E9, 9E9, 9E9]];
CONST robtarget p624:= [[126.859,140.408,0.6], [-1, 0, 0, 0],[-1, 0, 1, 0], [ 9E+9,9E+9, 9E9, 9E9, 9E9, 9E9]];
CONST robtarget p625:= [[125.946,140.766,0.6], [-1, 0, 0, 0],[-1, 0, 1, 0], [ 9E+9,9E+9, 9E9, 9E9, 9E9, 9E9]];
CONST robtarget p626:= [[125.336,140.972,0.6], [-1, 0, 0, 0],[-1, 0, 1, 0], [ 9E+9,9E+9, 9E9, 9E9, 9E9, 9E9]];
CONST robtarget p627:= [[124.383,141.275,0.6], [-1, 0, 0, 0],[-1, 0, 1, 0], [ 9E+9,9E+9, 9E9, 9E9, 9E9, 9E9]];
CONST robtarget p628:= [[123.716,141.451,0.6], [-1, 0, 0, 0],[-1, 0, 1, 0], [ 9E+9,9E+9, 9E9, 9E9, 9E9, 9E9]];
CONST robtarget p629:= [[122.781,141.682,0.6], [-1, 0, 0, 0],[-1, 0, 1, 0], [ 9E+9,9E+9, 9E9, 9E9, 9E9, 9E9]];
CONST robtarget p630:= [[122.091,141.815,0.6], [-1, 0, 0, 0],[-1, 0, 1, 0], [ 9E+9,9E+9, 9E9, 9E9, 9E9, 9E9]];
CONST robtarget p631:= [[121.195,141.973,0.6], [-1, 0, 0, 0],[-1, 0, 1, 0], [ 9E+9,9E+9, 9E9, 9E9, 9E9, 9E9]];
CONST robtarget p632:= [[120.446,142.068,0.6], [-1, 0, 0, 0],[-1, 0, 1, 0], [ 9E+9,9E+9, 9E9, 9E9, 9E9, 9E9]];
CONST robtarget p633:= [[119.561,142.164,0.6], [-1, 0, 0, 0],[-1, 0, 1, 0], [ 9E+9,9E+9, 9E9, 9E9, 9E9, 9E9]];
CONST robtarget p634:= [[118.773,142.211,0.6], [-1, 0, 0, 0],[-1, 0, 1, 0], [ 9E+9,9E+9, 9E9, 9E9, 9E9, 9E9]];
CONST robtarget p635:= [[118.353,142.229,0.6], [-1, 0, 0, 0],[-1, 0, 1, 0], [ 9E+9,9E+9, 9E9, 9E9, 9E9, 9E9]];
CONST robtarget p636:= [[117.919,142.247,0.6], [-1, 0, 0, 0],[-1, 0, 1, 0], [ 9E+9,9E+9, 9E9, 9E9, 9E9, 9E9]];
CONST robtarget p637:= [[117.101,141.747,0.6], [-1, 0, 0, 0],[-1, 0, 1, 0], [ 9E+9,9E+9, 9E9, 9E9, 9E9, 9E9]];
CONST robtarget p638:= [[117.903,141.739,0.6], [-1, 0, 0, 0],[-1, 0, 1, 0], [ 9E+9,9E+9, 9E9, 9E9, 9E9, 9E9]];
CONST robtarget p639:= [[118.725,141.718,0.6], [-1, 0, 0, 0],[-1, 0, 1, 0], [ 9E+9,9E+9, 9E9, 9E9, 9E9, 9E9]];
CONST robtarget p640:= [[119.512,141.66,0.6], [-1, 0, 0, 0],[-1, 0, 1, 0], [ 9E+9,9E+9, 9E9, 9E9, 9E9, 9E9]];
CONST robtarget p641:= [[120.372,141.581,0.6], [-1, 0, 0, 0],[-1, 0, 1, 0], [ 9E+9,9E+9, 9E9, 9E9, 9E9, 9E9]];
CONST robtarget p642:= [[121.977,141.334,0.6], [-1, 0, 0, 0],[-1, 0, 1, 0], [ 9E+9,9E+9, 9E9, 9E9, 9E9, 9E9]];
CONST robtarget p643:= [[122.665,141.188,0.6], [-1, 0, 0, 0],[-1, 0, 1, 0], [ 9E+9,9E+9, 9E9, 9E9, 9E9, 9E9]];
CONST robtarget p644:= [[123.57,140.98,0.6], [-1, 0, 0, 0],[-1, 0, 1, 0], [ 9E+9,9E+9, 9E9, 9E9, 9E9, 9E9]];
CONST robtarget p645:= [[124.234,140.791,0.6], [-1, 0, 0, 0],[-1, 0, 1, 0], [ 9E+9,9E+9, 9E9, 9E9, 9E9, 9E9]];
CONST robtarget p646:= [[125.159,140.512,0.6], [-1, 0, 0, 0],[-1, 0, 1, 0], [ 9E+9,9E+9, 9E9, 9E9, 9E9, 9E9]];
CONST robtarget p647:= [[125.766,140.294,0.6], [-1, 0, 0, 0],[-1, 0, 1, 0], [ 9E+9,9E+9, 9E9, 9E9, 9E9, 9E9]];
CONST robtarget p648:= [[126.683,139.948,0.6], [-1, 0, 0, 0],[-1, 0, 1, 0], [ 9E+9,9E+9, 9E9, 9E9, 9E9, 9E9]];
CONST robtarget p649:= [[127.236,139.707,0.6], [-1, 0, 0, 0],[-1, 0, 1, 0], [ 9E+9,9E+9, 9E9, 9E9, 9E9, 9E9]];
CONST robtarget p650:= [[128.183,139.275,0.6], [-1, 0, 0, 0],[-1, 0, 1, 0], [ 9E+9,9E+9, 9E9, 9E9, 9E9, 9E9]];
CONST robtarget p651:= [[129.619,138.509,0.6], [-1, 0, 0, 0],[-1, 0, 1, 0], [ 9E+9,9E+9, 9E9, 9E9, 9E9, 9E9]];
CONST robtarget p652:= [[130.096,138.22,0.6], [-1, 0, 0, 0],[-1, 0, 1, 0], [ 9E+9,9E+9, 9E9, 9E9, 9E9, 9E9]];
CONST robtarget p653:= [[131.014,137.64,0.6], [-1, 0, 0, 0],[-1, 0, 1, 0], [ 9E+9,9E+9, 9E9, 9E9, 9E9, 9E9]];
CONST robtarget p654:= [[131.423,137.353,0.6], [-1, 0, 0, 0],[-1, 0, 1, 0], [ 9E+9,9E+9, 9E9, 9E9, 9E9, 9E9]];
CONST robtarget p655:= [[132.344,136.682,0.6], [-1, 0, 0, 0],[-1, 0, 1, 0], [ 9E+9,9E+9, 9E9, 9E9, 9E9, 9E9]];
CONST robtarget p656:= [[133.614,135.629,0.6], [-1, 0, 0, 0],[-1, 0, 1, 0], [ 9E+9,9E+9, 9E9, 9E9, 9E9, 9E9]];
CONST robtarget p657:= [[134.791,134.511,0.6], [-1, 0, 0, 0],[-1, 0, 1, 0], [ 9E+9,9E+9, 9E9, 9E9, 9E9, 9E9]];
CONST robtarget p658:= [[135.898,133.308,0.6], [-1, 0, 0, 0],[-1, 0, 1, 0], [ 9E+9,9E+9, 9E9, 9E9, 9E9, 9E9]];
CONST robtarget p659:= [[136.924,132.028,0.6], [-1, 0, 0, 0],[-1, 0, 1, 0], [ 9E+9,9E+9, 9E9, 9E9, 9E9, 9E9]];
CONST robtarget p660:= [[137.866,130.678,0.6], [-1, 0, 0, 0],[-1, 0, 1, 0], [ 9E+9,9E+9, 9E9, 9E9, 9E9, 9E9]];
CONST robtarget p661:= [[138.707,129.276,0.6], [-1, 0, 0, 0],[-1, 0, 1, 0], [ 9E+9,9E+9, 9E9, 9E9, 9E9, 9E9]];
CONST robtarget p662:= [[139.458,127.808,0.6], [-1, 0, 0, 0],[-1, 0, 1, 0], [ 9E+9,9E+9, 9E9, 9E9, 9E9, 9E9]];
CONST robtarget p663:= [[140.109,126.296,0.6], [-1, 0, 0, 0],[-1, 0, 1, 0], [ 9E+9,9E+9, 9E9, 9E9, 9E9, 9E9]];
CONST robtarget p664:= [[140.643,124.774,0.6], [-1, 0, 0, 0],[-1, 0, 1, 0], [ 9E+9,9E+9, 9E9, 9E9, 9E9, 9E9]];
CONST robtarget p665:= [[141.086,123.173,0.6], [-1, 0, 0, 0],[-1, 0, 1, 0], [ 9E+9,9E+9, 9E9, 9E9, 9E9, 9E9]];
CONST robtarget p666:= [[141.413,121.587,0.6], [-1, 0, 0, 0],[-1, 0, 1, 0], [ 9E+9,9E+9, 9E9, 9E9, 9E9, 9E9]];
CONST robtarget p667:= [[141.634,119.96,0.6], [-1, 0, 0, 0],[-1, 0, 1, 0], [ 9E+9,9E+9, 9E9, 9E9, 9E9, 9E9]];
CONST robtarget p668:= [[141.745,118.34,0.6], [-1, 0, 0, 0],[-1, 0, 1, 0], [ 9E+9,9E+9, 9E9, 9E9, 9E9, 9E9]];
CONST robtarget p669:= [[141.747,116.701,0.6], [-1, 0, 0, 0],[-1, 0, 1, 0], [ 9E+9,9E+9, 9E9, 9E9, 9E9, 9E9]];
CONST robtarget p670:= [[141.635,115.04,0.6], [-1, 0, 0, 0],[-1, 0, 1, 0], [ 9E+9,9E+9, 9E9, 9E9, 9E9, 9E9]];
CONST robtarget p671:= [[141.416,113.43,0.6], [-1, 0, 0, 0],[-1, 0, 1, 0], [ 9E+9,9E+9, 9E9, 9E9, 9E9, 9E9]];
CONST robtarget p672:= [[141.086,111.827,0.6], [-1, 0, 0, 0],[-1, 0, 1, 0], [ 9E+9,9E+9, 9E9, 9E9, 9E9, 9E9]];
CONST robtarget p673:= [[140.647,110.238,0.6], [-1, 0, 0, 0],[-1, 0, 1, 0], [ 9E+9,9E+9, 9E9, 9E9, 9E9, 9E9]];
CONST robtarget p674:= [[140.109,108.704,0.6], [-1, 0, 0, 0],[-1, 0, 1, 0], [ 9E+9,9E+9, 9E9, 9E9, 9E9, 9E9]];
CONST robtarget p675:= [[139.465,107.207,0.6], [-1, 0, 0, 0],[-1, 0, 1, 0], [ 9E+9,9E+9, 9E9, 9E9, 9E9, 9E9]];
CONST robtarget p676:= [[138.716,105.739,0.6], [-1, 0, 0, 0],[-1, 0, 1, 0], [ 9E+9,9E+9, 9E9, 9E9, 9E9, 9E9]];
CONST robtarget p677:= [[137.876,104.337,0.6], [-1, 0, 0, 0],[-1, 0, 1, 0], [ 9E+9,9E+9, 9E9, 9E9, 9E9, 9E9]];
CONST robtarget p678:= [[136.934,102.985,0.6], [-1, 0, 0, 0],[-1, 0, 1, 0], [ 9E+9,9E+9, 9E9, 9E9, 9E9, 9E9]];
CONST robtarget p679:= [[135.909,101.705,0.6], [-1, 0, 0, 0],[-1, 0, 1, 0], [ 9E+9,9E+9, 9E9, 9E9, 9E9, 9E9]];
CONST robtarget p680:= [[134.803,100.501,0.6], [-1, 0, 0, 0],[-1, 0, 1, 0], [ 9E+9,9E+9, 9E9, 9E9, 9E9, 9E9]];
CONST robtarget p681:= [[133.627,99.382,0.6], [-1, 0, 0, 0],[-1, 0, 1, 0], [ 9E+9,9E+9, 9E9, 9E9, 9E9, 9E9]];
CONST robtarget p682:= [[132.357,98.328,0.6], [-1, 0, 0, 0],[-1, 0, 1, 0], [ 9E+9,9E+9, 9E9, 9E9, 9E9, 9E9]];
CONST robtarget p683:= [[131.028,97.369,0.6], [-1, 0, 0, 0],[-1, 0, 1, 0], [ 9E+9,9E+9, 9E9, 9E9, 9E9, 9E9]];
CONST robtarget p684:= [[129.625,96.493,0.6], [-1, 0, 0, 0],[-1, 0, 1, 0], [ 9E+9,9E+9, 9E9, 9E9, 9E9, 9E9]];
CONST robtarget p685:= [[128.68,95.983,0.6], [-1, 0, 0, 0],[-1, 0, 1, 0], [ 9E+9,9E+9, 9E9, 9E9, 9E9, 9E9]];
CONST robtarget p686:= [[128.197,95.733,0.6], [-1, 0, 0, 0],[-1, 0, 1, 0], [ 9E+9,9E+9, 9E9, 9E9, 9E9, 9E9]];
CONST robtarget p687:= [[127.235,95.292,0.6], [-1, 0, 0, 0],[-1, 0, 1, 0], [ 9E+9,9E+9, 9E9, 9E9, 9E9, 9E9]];
CONST robtarget p688:= [[126.689,95.053,0.6], [-1, 0, 0, 0],[-1, 0, 1, 0], [ 9E+9,9E+9, 9E9, 9E9, 9E9, 9E9]];
CONST robtarget p689:= [[125.166,94.49,0.6], [-1, 0, 0, 0],[-1, 0, 1, 0], [ 9E+9,9E+9, 9E9, 9E9, 9E9, 9E9]];
CONST robtarget p690:= [[124.233,94.208,0.6], [-1, 0, 0, 0],[-1, 0, 1, 0], [ 9E+9,9E+9, 9E9, 9E9, 9E9, 9E9]];
CONST robtarget p691:= [[123.586,94.024,0.6], [-1, 0, 0, 0],[-1, 0, 1, 0], [ 9E+9,9E+9, 9E9, 9E9, 9E9, 9E9]];
CONST robtarget p692:= [[122.665,93.811,0.6], [-1, 0, 0, 0],[-1, 0, 1, 0], [ 9E+9,9E+9, 9E9, 9E9, 9E9, 9E9]];
CONST robtarget p693:= [[121.993,93.669,0.6], [-1, 0, 0, 0],[-1, 0, 1, 0], [ 9E+9,9E+9, 9E9, 9E9, 9E9, 9E9]];
CONST robtarget p694:= [[121.111,93.526,0.6], [-1, 0, 0, 0],[-1, 0, 1, 0], [ 9E+9,9E+9, 9E9, 9E9, 9E9, 9E9]];
CONST robtarget p695:= [[120.372,93.419,0.6], [-1, 0, 0, 0],[-1, 0, 1, 0], [ 9E+9,9E+9, 9E9, 9E9, 9E9, 9E9]];
CONST robtarget p696:= [[119.512,93.34,0.6], [-1, 0, 0, 0],[-1, 0, 1, 0], [ 9E+9,9E+9, 9E9, 9E9, 9E9, 9E9]];
CONST robtarget p697:= [[118.733,93.281,0.6], [-1, 0, 0, 0],[-1, 0, 1, 0], [ 9E+9,9E+9, 9E9, 9E9, 9E9, 9E9]];
CONST robtarget p698:= [[117.903,93.26,0.6], [-1, 0, 0, 0],[-1, 0, 1, 0], [ 9E+9,9E+9, 9E9, 9E9, 9E9, 9E9]];
CONST robtarget p699:= [[117.101,93.253,0.6], [-1, 0, 0, 0],[-1, 0, 1, 0], [ 9E+9,9E+9, 9E9, 9E9, 9E9, 9E9]];
CONST robtarget p700:= [[116.294,93.287,0.6], [-1, 0, 0, 0],[-1, 0, 1, 0], [ 9E+9,9E+9, 9E9, 9E9, 9E9, 9E9]];
CONST robtarget p701:= [[115.467,93.336,0.6], [-1, 0, 0, 0],[-1, 0, 1, 0], [ 9E+9,9E+9, 9E9, 9E9, 9E9, 9E9]];
CONST robtarget p702:= [[114.712,93.419,0.6], [-1, 0, 0, 0],[-1, 0, 1, 0], [ 9E+9,9E+9, 9E9, 9E9, 9E9, 9E9]];
CONST robtarget p703:= [[113.833,93.53,0.6], [-1, 0, 0, 0],[-1, 0, 1, 0], [ 9E+9,9E+9, 9E9, 9E9, 9E9, 9E9]];
CONST robtarget p704:= [[113.122,93.656,0.6], [-1, 0, 0, 0],[-1, 0, 1, 0], [ 9E+9,9E+9, 9E9, 9E9, 9E9, 9E9]];
CONST robtarget p705:= [[112.232,93.83,0.6], [-1, 0, 0, 0],[-1, 0, 1, 0], [ 9E+9,9E+9, 9E9, 9E9, 9E9, 9E9]];
CONST robtarget p706:= [[110.642,94.241,0.6], [-1, 0, 0, 0],[-1, 0, 1, 0], [ 9E+9,9E+9, 9E9, 9E9, 9E9, 9E9]];
CONST robtarget p707:= [[109.09,94.756,0.6], [-1, 0, 0, 0],[-1, 0, 1, 0], [ 9E+9,9E+9, 9E9, 9E9, 9E9, 9E9]];
CONST robtarget p708:= [[107.575,95.375,0.6], [-1, 0, 0, 0],[-1, 0, 1, 0], [ 9E+9,9E+9, 9E9, 9E9, 9E9, 9E9]];
CONST robtarget p709:= [[106.108,96.093,0.6], [-1, 0, 0, 0],[-1, 0, 1, 0], [ 9E+9,9E+9, 9E9, 9E9, 9E9, 9E9]];
CONST robtarget p710:= [[104.68,96.919,0.6], [-1, 0, 0, 0],[-1, 0, 1, 0], [ 9E+9,9E+9, 9E9, 9E9, 9E9, 9E9]];
CONST robtarget p711:= [[103.325,97.828,0.6], [-1, 0, 0, 0],[-1, 0, 1, 0], [ 9E+9,9E+9, 9E9, 9E9, 9E9, 9E9]];
CONST robtarget p712:= [[102.931,98.125,0.6], [-1, 0, 0, 0],[-1, 0, 1, 0], [ 9E+9,9E+9, 9E9, 9E9, 9E9, 9E9]];
CONST robtarget p713:= [[102.032,98.83,0.6], [-1, 0, 0, 0],[-1, 0, 1, 0], [ 9E+9,9E+9, 9E9, 9E9, 9E9, 9E9]];
CONST robtarget p714:= [[100.783,99.936,0.6], [-1, 0, 0, 0],[-1, 0, 1, 0], [ 9E+9,9E+9, 9E9, 9E9, 9E9, 9E9]];
CONST robtarget p715:= [[99.657,101.082,0.6], [-1, 0, 0, 0],[-1, 0, 1, 0], [ 9E+9,9E+9, 9E9, 9E9, 9E9, 9E9]];
CONST robtarget p716:= [[98.584,102.332,0.6], [-1, 0, 0, 0],[-1, 0, 1, 0], [ 9E+9,9E+9, 9E9, 9E9, 9E9, 9E9]];
CONST robtarget p717:= [[97.613,103.631,0.6], [-1, 0, 0, 0],[-1, 0, 1, 0], [ 9E+9,9E+9, 9E9, 9E9, 9E9, 9E9]];
CONST robtarget p718:= [[96.722,105.004,0.6], [-1, 0, 0, 0],[-1, 0, 1, 0], [ 9E+9,9E+9, 9E9, 9E9, 9E9, 9E9]];
CONST robtarget p719:= [[95.92,106.449,0.6], [-1, 0, 0, 0],[-1, 0, 1, 0], [ 9E+9,9E+9, 9E9, 9E9, 9E9, 9E9]];
CONST robtarget p720:= [[95.219,107.938,0.6], [-1, 0, 0, 0],[-1, 0, 1, 0], [ 9E+9,9E+9, 9E9, 9E9, 9E9, 9E9]];
CONST robtarget p721:= [[94.631,109.443,0.6], [-1, 0, 0, 0],[-1, 0, 1, 0], [ 9E+9,9E+9, 9E9, 9E9, 9E9, 9E9]];
CONST robtarget p722:= [[94.137,111.018,0.6], [-1, 0, 0, 0],[-1, 0, 1, 0], [ 9E+9,9E+9, 9E9, 9E9, 9E9, 9E9]];
CONST robtarget p723:= [[93.75,112.62,0.6], [-1, 0, 0, 0],[-1, 0, 1, 0], [ 9E+9,9E+9, 9E9, 9E9, 9E9, 9E9]];
CONST robtarget p724:= [[93.475,114.226,0.6], [-1, 0, 0, 0],[-1, 0, 1, 0], [ 9E+9,9E+9, 9E9, 9E9, 9E9, 9E9]];
CONST robtarget p725:= [[93.31,115.843,0.6], [-1, 0, 0, 0],[-1, 0, 1, 0], [ 9E+9,9E+9, 9E9, 9E9, 9E9, 9E9]];
CONST robtarget p726:= [[93.254,117.491,0.6], [-1, 0, 0, 0],[-1, 0, 1, 0], [ 9E+9,9E+9, 9E9, 9E9, 9E9, 9E9]];
CONST robtarget p727:= [[93.308,119.121,0.6], [-1, 0, 0, 0],[-1, 0, 1, 0], [ 9E+9,9E+9, 9E9, 9E9, 9E9, 9E9]];
CONST robtarget p728:= [[93.473,120.757,0.6], [-1, 0, 0, 0],[-1, 0, 1, 0], [ 9E+9,9E+9, 9E9, 9E9, 9E9, 9E9]];
CONST robtarget p729:= [[93.746,122.363,0.6], [-1, 0, 0, 0],[-1, 0, 1, 0], [ 9E+9,9E+9, 9E9, 9E9, 9E9, 9E9]];
CONST robtarget p730:= [[94.133,123.966,0.6], [-1, 0, 0, 0],[-1, 0, 1, 0], [ 9E+9,9E+9, 9E9, 9E9, 9E9, 9E9]];
CONST robtarget p731:= [[94.624,125.538,0.6], [-1, 0, 0, 0],[-1, 0, 1, 0], [ 9E+9,9E+9, 9E9, 9E9, 9E9, 9E9]];
CONST robtarget p732:= [[95.212,127.047,0.6], [-1, 0, 0, 0],[-1, 0, 1, 0], [ 9E+9,9E+9, 9E9, 9E9, 9E9, 9E9]];
CONST robtarget p733:= [[95.912,128.536,0.6], [-1, 0, 0, 0],[-1, 0, 1, 0], [ 9E+9,9E+9, 9E9, 9E9, 9E9, 9E9]];
CONST robtarget p734:= [[96.711,129.978,0.6], [-1, 0, 0, 0],[-1, 0, 1, 0], [ 9E+9,9E+9, 9E9, 9E9, 9E9, 9E9]];
CONST robtarget p735:= [[97.601,131.352,0.6], [-1, 0, 0, 0],[-1, 0, 1, 0], [ 9E+9,9E+9, 9E9, 9E9, 9E9, 9E9]];
CONST robtarget p736:= [[98.573,132.655,0.6], [-1, 0, 0, 0],[-1, 0, 1, 0], [ 9E+9,9E+9, 9E9, 9E9, 9E9, 9E9]];
CONST robtarget p737:= [[99.657,133.918,0.6], [-1, 0, 0, 0],[-1, 0, 1, 0], [ 9E+9,9E+9, 9E9, 9E9, 9E9, 9E9]];
CONST robtarget p738:= [[100.783,135.064,0.6], [-1, 0, 0, 0],[-1, 0, 1, 0], [ 9E+9,9E+9, 9E9, 9E9, 9E9, 9E9]];
CONST robtarget p739:= [[102.02,136.16,0.6], [-1, 0, 0, 0],[-1, 0, 1, 0], [ 9E+9,9E+9, 9E9, 9E9, 9E9, 9E9]];
CONST robtarget p740:= [[103.32,137.17,0.6], [-1, 0, 0, 0],[-1, 0, 1, 0], [ 9E+9,9E+9, 9E9, 9E9, 9E9, 9E9]];
CONST robtarget p741:= [[104.671,138.075,0.6], [-1, 0, 0, 0],[-1, 0, 1, 0], [ 9E+9,9E+9, 9E9, 9E9, 9E9, 9E9]];
CONST robtarget p742:= [[105.63,138.637,0.6], [-1, 0, 0, 0],[-1, 0, 1, 0], [ 9E+9,9E+9, 9E9, 9E9, 9E9, 9E9]];
CONST robtarget p743:= [[106.097,138.9,0.6], [-1, 0, 0, 0],[-1, 0, 1, 0], [ 9E+9,9E+9, 9E9, 9E9, 9E9, 9E9]];
CONST robtarget p744:= [[107.569,139.623,0.6], [-1, 0, 0, 0],[-1, 0, 1, 0], [ 9E+9,9E+9, 9E9, 9E9, 9E9, 9E9]];
CONST robtarget p745:= [[109.074,140.238,0.6], [-1, 0, 0, 0],[-1, 0, 1, 0], [ 9E+9,9E+9, 9E9, 9E9, 9E9, 9E9]];
CONST robtarget p746:= [[110.006,140.554,0.6], [-1, 0, 0, 0],[-1, 0, 1, 0], [ 9E+9,9E+9, 9E9, 9E9, 9E9, 9E9]];
CONST robtarget p747:= [[110.633,140.755,0.6], [-1, 0, 0, 0],[-1, 0, 1, 0], [ 9E+9,9E+9, 9E9, 9E9, 9E9, 9E9]];
CONST robtarget p748:= [[111.568,141.005,0.6], [-1, 0, 0, 0],[-1, 0, 1, 0], [ 9E+9,9E+9, 9E9, 9E9, 9E9, 9E9]];
CONST robtarget p749:= [[112.225,141.169,0.6], [-1, 0, 0, 0],[-1, 0, 1, 0], [ 9E+9,9E+9, 9E9, 9E9, 9E9, 9E9]];
CONST robtarget p750:= [[113.123,141.344,0.6], [-1, 0, 0, 0],[-1, 0, 1, 0], [ 9E+9,9E+9, 9E9, 9E9, 9E9, 9E9]];
CONST robtarget p751:= [[113.817,141.467,0.6], [-1, 0, 0, 0],[-1, 0, 1, 0], [ 9E+9,9E+9, 9E9, 9E9, 9E9, 9E9]];
CONST robtarget p752:= [[114.712,141.582,0.6], [-1, 0, 0, 0],[-1, 0, 1, 0], [ 9E+9,9E+9, 9E9, 9E9, 9E9, 9E9]];
CONST robtarget p753:= [[115.459,141.665,0.6], [-1, 0, 0, 0],[-1, 0, 1, 0], [ 9E+9,9E+9, 9E9, 9E9, 9E9, 9E9]];
CONST robtarget p754:= [[116.295,141.713,0.6], [-1, 0, 0, 0],[-1, 0, 1, 0], [ 9E+9,9E+9, 9E9, 9E9, 9E9, 9E9]];
CONST robtarget p755:= [[117.101,141.747,0.6], [-1, 0, 0, 0],[-1, 0, 1, 0], [ 9E+9,9E+9, 9E9, 9E9, 9E9, 9E9]];
CONST robtarget p756:= [[117.101,141.747,0.8], [-1, 0, 0, 0],[-1, 0, 1, 0], [ 9E+9,9E+9, 9E9, 9E9, 9E9, 9E9]];
CONST robtarget p757:= [[117.919,142.247,0.8], [-1, 0, 0, 0],[-1, 0, 1, 0], [ 9E+9,9E+9, 9E9, 9E9, 9E9, 9E9]];
CONST robtarget p758:= [[117.111,142.24,0.8], [-1, 0, 0, 0],[-1, 0, 1, 0], [ 9E+9,9E+9, 9E9, 9E9, 9E9, 9E9]];
CONST robtarget p759:= [[116.27,142.22,0.8], [-1, 0, 0, 0],[-1, 0, 1, 0], [ 9E+9,9E+9, 9E9, 9E9, 9E9, 9E9]];
CONST robtarget p760:= [[115.435,142.157,0.8], [-1, 0, 0, 0],[-1, 0, 1, 0], [ 9E+9,9E+9, 9E9, 9E9, 9E9, 9E9]];
CONST robtarget p761:= [[114.661,142.086,0.8], [-1, 0, 0, 0],[-1, 0, 1, 0], [ 9E+9,9E+9, 9E9, 9E9, 9E9, 9E9]];
CONST robtarget p762:= [[113.767,141.959,0.8], [-1, 0, 0, 0],[-1, 0, 1, 0], [ 9E+9,9E+9, 9E9, 9E9, 9E9, 9E9]];
CONST robtarget p763:= [[113.038,141.843,0.8], [-1, 0, 0, 0],[-1, 0, 1, 0], [ 9E+9,9E+9, 9E9, 9E9, 9E9, 9E9]];
CONST robtarget p764:= [[112.134,141.652,0.8], [-1, 0, 0, 0],[-1, 0, 1, 0], [ 9E+9,9E+9, 9E9, 9E9, 9E9, 9E9]];
CONST robtarget p765:= [[111.449,141.496,0.8], [-1, 0, 0, 0],[-1, 0, 1, 0], [ 9E+9,9E+9, 9E9, 9E9, 9E9, 9E9]];
CONST robtarget p766:= [[110.506,141.232,0.8], [-1, 0, 0, 0],[-1, 0, 1, 0], [ 9E+9,9E+9, 9E9, 9E9, 9E9, 9E9]];
CONST robtarget p767:= [[109.856,141.037,0.8], [-1, 0, 0, 0],[-1, 0, 1, 0], [ 9E+9,9E+9, 9E9, 9E9, 9E9, 9E9]];
CONST robtarget p768:= [[108.915,140.706,0.8], [-1, 0, 0, 0],[-1, 0, 1, 0], [ 9E+9,9E+9, 9E9, 9E9, 9E9, 9E9]];
CONST robtarget p769:= [[108.327,140.485,0.8], [-1, 0, 0, 0],[-1, 0, 1, 0], [ 9E+9,9E+9, 9E9, 9E9, 9E9, 9E9]];
CONST robtarget p770:= [[107.383,140.078,0.8], [-1, 0, 0, 0],[-1, 0, 1, 0], [ 9E+9,9E+9, 9E9, 9E9, 9E9, 9E9]];
CONST robtarget p771:= [[106.818,139.823,0.8], [-1, 0, 0, 0],[-1, 0, 1, 0], [ 9E+9,9E+9, 9E9, 9E9, 9E9, 9E9]];
CONST robtarget p772:= [[105.89,139.348,0.8], [-1, 0, 0, 0],[-1, 0, 1, 0], [ 9E+9,9E+9, 9E9, 9E9, 9E9, 9E9]];
CONST robtarget p773:= [[105.386,139.079,0.8], [-1, 0, 0, 0],[-1, 0, 1, 0], [ 9E+9,9E+9, 9E9, 9E9, 9E9, 9E9]];
CONST robtarget p774:= [[103.967,138.218,0.8], [-1, 0, 0, 0],[-1, 0, 1, 0], [ 9E+9,9E+9, 9E9, 9E9, 9E9, 9E9]];
CONST robtarget p775:= [[102.625,137.277,0.8], [-1, 0, 0, 0],[-1, 0, 1, 0], [ 9E+9,9E+9, 9E9, 9E9, 9E9, 9E9]];
CONST robtarget p776:= [[101.353,136.251,0.8], [-1, 0, 0, 0],[-1, 0, 1, 0], [ 9E+9,9E+9, 9E9, 9E9, 9E9, 9E9]];
CONST robtarget p777:= [[100.157,135.151,0.8], [-1, 0, 0, 0],[-1, 0, 1, 0], [ 9E+9,9E+9, 9E9, 9E9, 9E9, 9E9]];
CONST robtarget p778:= [[99.028,133.966,0.8], [-1, 0, 0, 0],[-1, 0, 1, 0], [ 9E+9,9E+9, 9E9, 9E9, 9E9, 9E9]];
CONST robtarget p779:= [[97.973,132.7,0.8], [-1, 0, 0, 0],[-1, 0, 1, 0], [ 9E+9,9E+9, 9E9, 9E9, 9E9, 9E9]];
CONST robtarget p780:= [[97.018,131.384,0.8], [-1, 0, 0, 0],[-1, 0, 1, 0], [ 9E+9,9E+9, 9E9, 9E9, 9E9, 9E9]];
CONST robtarget p781:= [[96.139,129.992,0.8], [-1, 0, 0, 0],[-1, 0, 1, 0], [ 9E+9,9E+9, 9E9, 9E9, 9E9, 9E9]];
CONST robtarget p782:= [[95.37,128.57,0.8], [-1, 0, 0, 0],[-1, 0, 1, 0], [ 9E+9,9E+9, 9E9, 9E9, 9E9, 9E9]];
CONST robtarget p783:= [[94.676,127.063,0.8], [-1, 0, 0, 0],[-1, 0, 1, 0], [ 9E+9,9E+9, 9E9, 9E9, 9E9, 9E9]];
CONST robtarget p784:= [[94.1,125.55,0.8], [-1, 0, 0, 0],[-1, 0, 1, 0], [ 9E+9,9E+9, 9E9, 9E9, 9E9, 9E9]];
CONST robtarget p785:= [[93.621,123.988,0.8], [-1, 0, 0, 0],[-1, 0, 1, 0], [ 9E+9,9E+9, 9E9, 9E9, 9E9, 9E9]];
CONST robtarget p786:= [[93.239,122.376,0.8], [-1, 0, 0, 0],[-1, 0, 1, 0], [ 9E+9,9E+9, 9E9, 9E9, 9E9, 9E9]];
CONST robtarget p787:= [[92.97,120.762,0.8], [-1, 0, 0, 0],[-1, 0, 1, 0], [ 9E+9,9E+9, 9E9, 9E9, 9E9, 9E9]];
CONST robtarget p788:= [[92.809,119.153,0.8], [-1, 0, 0, 0],[-1, 0, 1, 0], [ 9E+9,9E+9, 9E9, 9E9, 9E9, 9E9]];
CONST robtarget p789:= [[92.754,117.525,0.8], [-1, 0, 0, 0],[-1, 0, 1, 0], [ 9E+9,9E+9, 9E9, 9E9, 9E9, 9E9]];
CONST robtarget p790:= [[92.808,115.862,0.8], [-1, 0, 0, 0],[-1, 0, 1, 0], [ 9E+9,9E+9, 9E9, 9E9, 9E9, 9E9]];
CONST robtarget p791:= [[92.969,114.245,0.8], [-1, 0, 0, 0],[-1, 0, 1, 0], [ 9E+9,9E+9, 9E9, 9E9, 9E9, 9E9]];
CONST robtarget p792:= [[93.237,112.64,0.8], [-1, 0, 0, 0],[-1, 0, 1, 0], [ 9E+9,9E+9, 9E9, 9E9, 9E9, 9E9]];
CONST robtarget p793:= [[93.617,111.025,0.8], [-1, 0, 0, 0],[-1, 0, 1, 0], [ 9E+9,9E+9, 9E9, 9E9, 9E9, 9E9]];
CONST robtarget p794:= [[94.098,109.459,0.8], [-1, 0, 0, 0],[-1, 0, 1, 0], [ 9E+9,9E+9, 9E9, 9E9, 9E9, 9E9]];
CONST robtarget p795:= [[94.67,107.951,0.8], [-1, 0, 0, 0],[-1, 0, 1, 0], [ 9E+9,9E+9, 9E9, 9E9, 9E9, 9E9]];
CONST robtarget p796:= [[95.363,106.444,0.8], [-1, 0, 0, 0],[-1, 0, 1, 0], [ 9E+9,9E+9, 9E9, 9E9, 9E9, 9E9]];
CONST robtarget p797:= [[96.131,105.022,0.8], [-1, 0, 0, 0],[-1, 0, 1, 0], [ 9E+9,9E+9, 9E9, 9E9, 9E9, 9E9]];
CONST robtarget p798:= [[97.01,103.628,0.8], [-1, 0, 0, 0],[-1, 0, 1, 0], [ 9E+9,9E+9, 9E9, 9E9, 9E9, 9E9]];
CONST robtarget p799:= [[97.964,102.313,0.8], [-1, 0, 0, 0],[-1, 0, 1, 0], [ 9E+9,9E+9, 9E9, 9E9, 9E9, 9E9]];
CONST robtarget p800:= [[99.018,101.046,0.8], [-1, 0, 0, 0],[-1, 0, 1, 0], [ 9E+9,9E+9, 9E9, 9E9, 9E9, 9E9]];
CONST robtarget p801:= [[100.146,99.86,0.8], [-1, 0, 0, 0],[-1, 0, 1, 0], [ 9E+9,9E+9, 9E9, 9E9, 9E9, 9E9]];
CONST robtarget p802:= [[101.342,98.759,0.8], [-1, 0, 0, 0],[-1, 0, 1, 0], [ 9E+9,9E+9, 9E9, 9E9, 9E9, 9E9]];
CONST robtarget p803:= [[102.619,97.728,0.8], [-1, 0, 0, 0],[-1, 0, 1, 0], [ 9E+9,9E+9, 9E9, 9E9, 9E9, 9E9]];
CONST robtarget p804:= [[103.954,96.791,0.8], [-1, 0, 0, 0],[-1, 0, 1, 0], [ 9E+9,9E+9, 9E9, 9E9, 9E9, 9E9]];
CONST robtarget p805:= [[104.406,96.509,0.8], [-1, 0, 0, 0],[-1, 0, 1, 0], [ 9E+9,9E+9, 9E9, 9E9, 9E9, 9E9]];
CONST robtarget p806:= [[105.373,95.929,0.8], [-1, 0, 0, 0],[-1, 0, 1, 0], [ 9E+9,9E+9, 9E9, 9E9, 9E9, 9E9]];
CONST robtarget p807:= [[105.881,95.656,0.8], [-1, 0, 0, 0],[-1, 0, 1, 0], [ 9E+9,9E+9, 9E9, 9E9, 9E9, 9E9]];
CONST robtarget p808:= [[106.804,95.183,0.8], [-1, 0, 0, 0],[-1, 0, 1, 0], [ 9E+9,9E+9, 9E9, 9E9, 9E9, 9E9]];
CONST robtarget p809:= [[107.371,94.926,0.8], [-1, 0, 0, 0],[-1, 0, 1, 0], [ 9E+9,9E+9, 9E9, 9E9, 9E9, 9E9]];
CONST robtarget p810:= [[108.312,94.521,0.8], [-1, 0, 0, 0],[-1, 0, 1, 0], [ 9E+9,9E+9, 9E9, 9E9, 9E9, 9E9]];
CONST robtarget p811:= [[108.898,94.302,0.8], [-1, 0, 0, 0],[-1, 0, 1, 0], [ 9E+9,9E+9, 9E9, 9E9, 9E9, 9E9]];
CONST robtarget p812:= [[109.841,93.968,0.8], [-1, 0, 0, 0],[-1, 0, 1, 0], [ 9E+9,9E+9, 9E9, 9E9, 9E9, 9E9]];
CONST robtarget p813:= [[110.488,93.774,0.8], [-1, 0, 0, 0],[-1, 0, 1, 0], [ 9E+9,9E+9, 9E9, 9E9, 9E9, 9E9]];
CONST robtarget p814:= [[111.435,93.508,0.8], [-1, 0, 0, 0],[-1, 0, 1, 0], [ 9E+9,9E+9, 9E9, 9E9, 9E9, 9E9]];
CONST robtarget p815:= [[112.102,93.354,0.8], [-1, 0, 0, 0],[-1, 0, 1, 0], [ 9E+9,9E+9, 9E9, 9E9, 9E9, 9E9]];
CONST robtarget p816:= [[113.022,93.159,0.8], [-1, 0, 0, 0],[-1, 0, 1, 0], [ 9E+9,9E+9, 9E9, 9E9, 9E9, 9E9]];
CONST robtarget p817:= [[113.736,93.045,0.8], [-1, 0, 0, 0],[-1, 0, 1, 0], [ 9E+9,9E+9, 9E9, 9E9, 9E9, 9E9]];
CONST robtarget p818:= [[114.645,92.916,0.8], [-1, 0, 0, 0],[-1, 0, 1, 0], [ 9E+9,9E+9, 9E9, 9E9, 9E9, 9E9]];
CONST robtarget p819:= [[115.401,92.845,0.8], [-1, 0, 0, 0],[-1, 0, 1, 0], [ 9E+9,9E+9, 9E9, 9E9, 9E9, 9E9]];
CONST robtarget p820:= [[116.262,92.781,0.8], [-1, 0, 0, 0],[-1, 0, 1, 0], [ 9E+9,9E+9, 9E9, 9E9, 9E9, 9E9]];
CONST robtarget p821:= [[117.077,92.76,0.8], [-1, 0, 0, 0],[-1, 0, 1, 0], [ 9E+9,9E+9, 9E9, 9E9, 9E9, 9E9]];
CONST robtarget p822:= [[117.903,92.754,0.8], [-1, 0, 0, 0],[-1, 0, 1, 0], [ 9E+9,9E+9, 9E9, 9E9, 9E9, 9E9]];
CONST robtarget p823:= [[118.741,92.788,0.8], [-1, 0, 0, 0],[-1, 0, 1, 0], [ 9E+9,9E+9, 9E9, 9E9, 9E9, 9E9]];
CONST robtarget p824:= [[119.546,92.836,0.8], [-1, 0, 0, 0],[-1, 0, 1, 0], [ 9E+9,9E+9, 9E9, 9E9, 9E9, 9E9]];
CONST robtarget p825:= [[120.413,92.929,0.8], [-1, 0, 0, 0],[-1, 0, 1, 0], [ 9E+9,9E+9, 9E9, 9E9, 9E9, 9E9]];
CONST robtarget p826:= [[121.187,93.025,0.8], [-1, 0, 0, 0],[-1, 0, 1, 0], [ 9E+9,9E+9, 9E9, 9E9, 9E9, 9E9]];
CONST robtarget p827:= [[122.058,93.179,0.8], [-1, 0, 0, 0],[-1, 0, 1, 0], [ 9E+9,9E+9, 9E9, 9E9, 9E9, 9E9]];
CONST robtarget p828:= [[122.766,93.316,0.8], [-1, 0, 0, 0],[-1, 0, 1, 0], [ 9E+9,9E+9, 9E9, 9E9, 9E9, 9E9]];
CONST robtarget p829:= [[123.684,93.541,0.8], [-1, 0, 0, 0],[-1, 0, 1, 0], [ 9E+9,9E+9, 9E9, 9E9, 9E9, 9E9]];
CONST robtarget p830:= [[124.367,93.721,0.8], [-1, 0, 0, 0],[-1, 0, 1, 0], [ 9E+9,9E+9, 9E9, 9E9, 9E9, 9E9]];
CONST robtarget p831:= [[125.305,94.018,0.8], [-1, 0, 0, 0],[-1, 0, 1, 0], [ 9E+9,9E+9, 9E9, 9E9, 9E9, 9E9]];
CONST robtarget p832:= [[125.939,94.231,0.8], [-1, 0, 0, 0],[-1, 0, 1, 0], [ 9E+9,9E+9, 9E9, 9E9, 9E9, 9E9]];
CONST robtarget p833:= [[126.872,94.596,0.8], [-1, 0, 0, 0],[-1, 0, 1, 0], [ 9E+9,9E+9, 9E9, 9E9, 9E9, 9E9]];
CONST robtarget p834:= [[127.433,94.828,0.8], [-1, 0, 0, 0],[-1, 0, 1, 0], [ 9E+9,9E+9, 9E9, 9E9, 9E9, 9E9]];
CONST robtarget p835:= [[128.908,95.533,0.8], [-1, 0, 0, 0],[-1, 0, 1, 0], [ 9E+9,9E+9, 9E9, 9E9, 9E9, 9E9]];
CONST robtarget p836:= [[129.867,96.063,0.8], [-1, 0, 0, 0],[-1, 0, 1, 0], [ 9E+9,9E+9, 9E9, 9E9, 9E9, 9E9]];
CONST robtarget p837:= [[130.354,96.346,0.8], [-1, 0, 0, 0],[-1, 0, 1, 0], [ 9E+9,9E+9, 9E9, 9E9, 9E9, 9E9]];
CONST robtarget p838:= [[131.28,96.943,0.8], [-1, 0, 0, 0],[-1, 0, 1, 0], [ 9E+9,9E+9, 9E9, 9E9, 9E9, 9E9]];
CONST robtarget p839:= [[131.706,97.229,0.8], [-1, 0, 0, 0],[-1, 0, 1, 0], [ 9E+9,9E+9, 9E9, 9E9, 9E9, 9E9]];
CONST robtarget p840:= [[133.014,98.211,0.8], [-1, 0, 0, 0],[-1, 0, 1, 0], [ 9E+9,9E+9, 9E9, 9E9, 9E9, 9E9]];
CONST robtarget p841:= [[134.256,99.278,0.8], [-1, 0, 0, 0],[-1, 0, 1, 0], [ 9E+9,9E+9, 9E9, 9E9, 9E9, 9E9]];
CONST robtarget p842:= [[135.444,100.446,0.8], [-1, 0, 0, 0],[-1, 0, 1, 0], [ 9E+9,9E+9, 9E9, 9E9, 9E9, 9E9]];
CONST robtarget p843:= [[136.528,101.664,0.8], [-1, 0, 0, 0],[-1, 0, 1, 0], [ 9E+9,9E+9, 9E9, 9E9, 9E9, 9E9]];
CONST robtarget p844:= [[137.507,102.92,0.8], [-1, 0, 0, 0],[-1, 0, 1, 0], [ 9E+9,9E+9, 9E9, 9E9, 9E9, 9E9]];
CONST robtarget p845:= [[138.466,104.335,0.8], [-1, 0, 0, 0],[-1, 0, 1, 0], [ 9E+9,9E+9, 9E9, 9E9, 9E9, 9E9]];
CONST robtarget p846:= [[139.252,105.68,0.8], [-1, 0, 0, 0],[-1, 0, 1, 0], [ 9E+9,9E+9, 9E9, 9E9, 9E9, 9E9]];
CONST robtarget p847:= [[140.007,107.187,0.8], [-1, 0, 0, 0],[-1, 0, 1, 0], [ 9E+9,9E+9, 9E9, 9E9, 9E9, 9E9]];
CONST robtarget p848:= [[140.633,108.677,0.8], [-1, 0, 0, 0],[-1, 0, 1, 0], [ 9E+9,9E+9, 9E9, 9E9, 9E9, 9E9]];
CONST robtarget p849:= [[141.172,110.245,0.8], [-1, 0, 0, 0],[-1, 0, 1, 0], [ 9E+9,9E+9, 9E9, 9E9, 9E9, 9E9]];
CONST robtarget p850:= [[141.593,111.804,0.8], [-1, 0, 0, 0],[-1, 0, 1, 0], [ 9E+9,9E+9, 9E9, 9E9, 9E9, 9E9]];
CONST robtarget p851:= [[141.918,113.409,0.8], [-1, 0, 0, 0],[-1, 0, 1, 0], [ 9E+9,9E+9, 9E9, 9E9, 9E9, 9E9]];
CONST robtarget p852:= [[142.136,115.031,0.8], [-1, 0, 0, 0],[-1, 0, 1, 0], [ 9E+9,9E+9, 9E9, 9E9, 9E9, 9E9]];
CONST robtarget p853:= [[142.247,116.701,0.8], [-1, 0, 0, 0],[-1, 0, 1, 0], [ 9E+9,9E+9, 9E9, 9E9, 9E9, 9E9]];
CONST robtarget p854:= [[142.247,118.299,0.8], [-1, 0, 0, 0],[-1, 0, 1, 0], [ 9E+9,9E+9, 9E9, 9E9, 9E9, 9E9]];
CONST robtarget p855:= [[142.139,119.94,0.8], [-1, 0, 0, 0],[-1, 0, 1, 0], [ 9E+9,9E+9, 9E9, 9E9, 9E9, 9E9]];
CONST robtarget p856:= [[141.921,121.571,0.8], [-1, 0, 0, 0],[-1, 0, 1, 0], [ 9E+9,9E+9, 9E9, 9E9, 9E9, 9E9]];
CONST robtarget p857:= [[141.597,123.181,0.8], [-1, 0, 0, 0],[-1, 0, 1, 0], [ 9E+9,9E+9, 9E9, 9E9, 9E9, 9E9]];
CONST robtarget p858:= [[141.176,124.74,0.8], [-1, 0, 0, 0],[-1, 0, 1, 0], [ 9E+9,9E+9, 9E9, 9E9, 9E9, 9E9]];
CONST robtarget p859:= [[140.641,126.302,0.8], [-1, 0, 0, 0],[-1, 0, 1, 0], [ 9E+9,9E+9, 9E9, 9E9, 9E9, 9E9]];
CONST robtarget p860:= [[140.013,127.799,0.8], [-1, 0, 0, 0],[-1, 0, 1, 0], [ 9E+9,9E+9, 9E9, 9E9, 9E9, 9E9]];
CONST robtarget p861:= [[139.26,129.307,0.8], [-1, 0, 0, 0],[-1, 0, 1, 0], [ 9E+9,9E+9, 9E9, 9E9, 9E9, 9E9]];
CONST robtarget p862:= [[138.474,130.652,0.8], [-1, 0, 0, 0],[-1, 0, 1, 0], [ 9E+9,9E+9, 9E9, 9E9, 9E9, 9E9]];
CONST robtarget p863:= [[137.512,132.074,0.8], [-1, 0, 0, 0],[-1, 0, 1, 0], [ 9E+9,9E+9, 9E9, 9E9, 9E9, 9E9]];
CONST robtarget p864:= [[136.537,133.324,0.8], [-1, 0, 0, 0],[-1, 0, 1, 0], [ 9E+9,9E+9, 9E9, 9E9, 9E9, 9E9]];
CONST robtarget p865:= [[135.449,134.548,0.8], [-1, 0, 0, 0],[-1, 0, 1, 0], [ 9E+9,9E+9, 9E9, 9E9, 9E9, 9E9]];
CONST robtarget p866:= [[134.27,135.709,0.8], [-1, 0, 0, 0],[-1, 0, 1, 0], [ 9E+9,9E+9, 9E9, 9E9, 9E9, 9E9]];
CONST robtarget p867:= [[133.03,136.776,0.8], [-1, 0, 0, 0],[-1, 0, 1, 0], [ 9E+9,9E+9, 9E9, 9E9, 9E9, 9E9]];
CONST robtarget p868:= [[132.663,137.06,0.8], [-1, 0, 0, 0],[-1, 0, 1, 0], [ 9E+9,9E+9, 9E9, 9E9, 9E9, 9E9]];
CONST robtarget p869:= [[131.721,137.76,0.8], [-1, 0, 0, 0],[-1, 0, 1, 0], [ 9E+9,9E+9, 9E9, 9E9, 9E9, 9E9]];
CONST robtarget p870:= [[131.28,138.057,0.8], [-1, 0, 0, 0],[-1, 0, 1, 0], [ 9E+9,9E+9, 9E9, 9E9, 9E9, 9E9]];
CONST robtarget p871:= [[130.367,138.646,0.8], [-1, 0, 0, 0],[-1, 0, 1, 0], [ 9E+9,9E+9, 9E9, 9E9, 9E9, 9E9]];
CONST robtarget p872:= [[129.868,138.936,0.8], [-1, 0, 0, 0],[-1, 0, 1, 0], [ 9E+9,9E+9, 9E9, 9E9, 9E9, 9E9]];
CONST robtarget p873:= [[128.928,139.458,0.8], [-1, 0, 0, 0],[-1, 0, 1, 0], [ 9E+9,9E+9, 9E9, 9E9, 9E9, 9E9]];
CONST robtarget p874:= [[128.419,139.708,0.8], [-1, 0, 0, 0],[-1, 0, 1, 0], [ 9E+9,9E+9, 9E9, 9E9, 9E9, 9E9]];
CONST robtarget p875:= [[127.447,140.166,0.8], [-1, 0, 0, 0],[-1, 0, 1, 0], [ 9E+9,9E+9, 9E9, 9E9, 9E9, 9E9]];
CONST robtarget p876:= [[126.859,140.408,0.8], [-1, 0, 0, 0],[-1, 0, 1, 0], [ 9E+9,9E+9, 9E9, 9E9, 9E9, 9E9]];
CONST robtarget p877:= [[125.946,140.766,0.8], [-1, 0, 0, 0],[-1, 0, 1, 0], [ 9E+9,9E+9, 9E9, 9E9, 9E9, 9E9]];
CONST robtarget p878:= [[125.336,140.972,0.8], [-1, 0, 0, 0],[-1, 0, 1, 0], [ 9E+9,9E+9, 9E9, 9E9, 9E9, 9E9]];
CONST robtarget p879:= [[124.383,141.275,0.8], [-1, 0, 0, 0],[-1, 0, 1, 0], [ 9E+9,9E+9, 9E9, 9E9, 9E9, 9E9]];
CONST robtarget p880:= [[123.716,141.451,0.8], [-1, 0, 0, 0],[-1, 0, 1, 0], [ 9E+9,9E+9, 9E9, 9E9, 9E9, 9E9]];
CONST robtarget p881:= [[122.781,141.682,0.8], [-1, 0, 0, 0],[-1, 0, 1, 0], [ 9E+9,9E+9, 9E9, 9E9, 9E9, 9E9]];
CONST robtarget p882:= [[122.091,141.815,0.8], [-1, 0, 0, 0],[-1, 0, 1, 0], [ 9E+9,9E+9, 9E9, 9E9, 9E9, 9E9]];
CONST robtarget p883:= [[121.195,141.973,0.8], [-1, 0, 0, 0],[-1, 0, 1, 0], [ 9E+9,9E+9, 9E9, 9E9, 9E9, 9E9]];
CONST robtarget p884:= [[120.446,142.068,0.8], [-1, 0, 0, 0],[-1, 0, 1, 0], [ 9E+9,9E+9, 9E9, 9E9, 9E9, 9E9]];
CONST robtarget p885:= [[119.561,142.164,0.8], [-1, 0, 0, 0],[-1, 0, 1, 0], [ 9E+9,9E+9, 9E9, 9E9, 9E9, 9E9]];
CONST robtarget p886:= [[118.773,142.211,0.8], [-1, 0, 0, 0],[-1, 0, 1, 0], [ 9E+9,9E+9, 9E9, 9E9, 9E9, 9E9]];
CONST robtarget p887:= [[118.353,142.229,0.8], [-1, 0, 0, 0],[-1, 0, 1, 0], [ 9E+9,9E+9, 9E9, 9E9, 9E9, 9E9]];
CONST robtarget p888:= [[117.919,142.247,0.8], [-1, 0, 0, 0],[-1, 0, 1, 0], [ 9E+9,9E+9, 9E9, 9E9, 9E9, 9E9]];
CONST robtarget p889:= [[117.101,141.747,0.8], [-1, 0, 0, 0],[-1, 0, 1, 0], [ 9E+9,9E+9, 9E9, 9E9, 9E9, 9E9]];
CONST robtarget p890:= [[117.903,141.739,0.8], [-1, 0, 0, 0],[-1, 0, 1, 0], [ 9E+9,9E+9, 9E9, 9E9, 9E9, 9E9]];
CONST robtarget p891:= [[118.725,141.718,0.8], [-1, 0, 0, 0],[-1, 0, 1, 0], [ 9E+9,9E+9, 9E9, 9E9, 9E9, 9E9]];
CONST robtarget p892:= [[119.512,141.66,0.8], [-1, 0, 0, 0],[-1, 0, 1, 0], [ 9E+9,9E+9, 9E9, 9E9, 9E9, 9E9]];
CONST robtarget p893:= [[120.372,141.581,0.8], [-1, 0, 0, 0],[-1, 0, 1, 0], [ 9E+9,9E+9, 9E9, 9E9, 9E9, 9E9]];
CONST robtarget p894:= [[121.977,141.334,0.8], [-1, 0, 0, 0],[-1, 0, 1, 0], [ 9E+9,9E+9, 9E9, 9E9, 9E9, 9E9]];
CONST robtarget p895:= [[122.665,141.188,0.8], [-1, 0, 0, 0],[-1, 0, 1, 0], [ 9E+9,9E+9, 9E9, 9E9, 9E9, 9E9]];
CONST robtarget p896:= [[123.57,140.98,0.8], [-1, 0, 0, 0],[-1, 0, 1, 0], [ 9E+9,9E+9, 9E9, 9E9, 9E9, 9E9]];
CONST robtarget p897:= [[124.234,140.791,0.8], [-1, 0, 0, 0],[-1, 0, 1, 0], [ 9E+9,9E+9, 9E9, 9E9, 9E9, 9E9]];
CONST robtarget p898:= [[125.159,140.512,0.8], [-1, 0, 0, 0],[-1, 0, 1, 0], [ 9E+9,9E+9, 9E9, 9E9, 9E9, 9E9]];
CONST robtarget p899:= [[125.766,140.294,0.8], [-1, 0, 0, 0],[-1, 0, 1, 0], [ 9E+9,9E+9, 9E9, 9E9, 9E9, 9E9]];
CONST robtarget p900:= [[126.683,139.948,0.8], [-1, 0, 0, 0],[-1, 0, 1, 0], [ 9E+9,9E+9, 9E9, 9E9, 9E9, 9E9]];
CONST robtarget p901:= [[127.236,139.707,0.8], [-1, 0, 0, 0],[-1, 0, 1, 0], [ 9E+9,9E+9, 9E9, 9E9, 9E9, 9E9]];
CONST robtarget p902:= [[128.183,139.275,0.8], [-1, 0, 0, 0],[-1, 0, 1, 0], [ 9E+9,9E+9, 9E9, 9E9, 9E9, 9E9]];
CONST robtarget p903:= [[129.619,138.509,0.8], [-1, 0, 0, 0],[-1, 0, 1, 0], [ 9E+9,9E+9, 9E9, 9E9, 9E9, 9E9]];
CONST robtarget p904:= [[130.096,138.22,0.8], [-1, 0, 0, 0],[-1, 0, 1, 0], [ 9E+9,9E+9, 9E9, 9E9, 9E9, 9E9]];
CONST robtarget p905:= [[131.014,137.64,0.8], [-1, 0, 0, 0],[-1, 0, 1, 0], [ 9E+9,9E+9, 9E9, 9E9, 9E9, 9E9]];
CONST robtarget p906:= [[131.423,137.353,0.8], [-1, 0, 0, 0],[-1, 0, 1, 0], [ 9E+9,9E+9, 9E9, 9E9, 9E9, 9E9]];
