CONST robtarget p0:= [[1000.0,-50.0,502.0], [-1, 0, 0, 0],[-1, 0, 1, 0], [ 9E+9,9E+9, 9E9, 9E9, 9E9, 9E9]];
CONST robtarget p1:= [[1004.1,-30.0,500.3], [-1, 0, 0, 0],[-1, 0, 1, 0], [ 9E+9,9E+9, 9E9, 9E9, 9E9, 9E9]];
CONST robtarget p2:= [[1004.1,150.0,500.3], [-1, 0, 0, 0],[-1, 0, 1, 0], [ 9E+9,9E+9, 9E9, 9E9, 9E9, 9E9]];
CONST robtarget p3:= [[1004.4,150.0,500.3], [-1, 0, 0, 0],[-1, 0, 1, 0], [ 9E+9,9E+9, 9E9, 9E9, 9E9, 9E9]];
CONST robtarget p4:= [[1004.4,-30.0,500.3], [-1, 0, 0, 0],[-1, 0, 1, 0], [ 9E+9,9E+9, 9E9, 9E9, 9E9, 9E9]];
CONST robtarget p5:= [[1004.4,-30.0,502.0], [-1, 0, 0, 0],[-1, 0, 1, 0], [ 9E+9,9E+9, 9E9, 9E9, 9E9, 9E9]];
CONST robtarget p6:= [[1005.0,-30.0,500.3], [-1, 0, 0, 0],[-1, 0, 1, 0], [ 9E+9,9E+9, 9E9, 9E9, 9E9, 9E9]];
CONST robtarget p7:= [[1005.0,-30.0,500.3], [-1, 0, 0, 0],[-1, 0, 1, 0], [ 9E+9,9E+9, 9E9, 9E9, 9E9, 9E9]];
CONST robtarget p8:= [[1098.95,84.119,500.2], [-1, 0, 0, 0],[-1, 0, 1, 0], [ 9E+9,9E+9, 9E9, 9E9, 9E9, 9E9]];
CONST robtarget p9:= [[1098.95,84.119,500.2], [-1, 0, 0, 0],[-1, 0, 1, 0], [ 9E+9,9E+9, 9E9, 9E9, 9E9, 9E9]];
CONST robtarget p10:= [[1098.523,83.936,500.2], [-1, 0, 0, 0],[-1, 0, 1, 0], [ 9E+9,9E+9, 9E9, 9E9, 9E9, 9E9]];
CONST robtarget p11:= [[1098.324,83.804,500.2], [-1, 0, 0, 0],[-1, 0, 1, 0], [ 9E+9,9E+9, 9E9, 9E9, 9E9, 9E9]];
CONST robtarget p12:= [[1098.146,83.60499999999999,500.2], [-1, 0, 0, 0],[-1, 0, 1, 0], [ 9E+9,9E+9, 9E9, 9E9, 9E9, 9E9]];
CONST robtarget p13:= [[1097.973,83.24799999999999,500.2], [-1, 0, 0, 0],[-1, 0, 1, 0], [ 9E+9,9E+9, 9E9, 9E9, 9E9, 9E9]];
CONST robtarget p14:= [[1097.973,39.003,500.2], [-1, 0, 0, 0],[-1, 0, 1, 0], [ 9E+9,9E+9, 9E9, 9E9, 9E9, 9E9]];
CONST robtarget p15:= [[1089.351,39.003,500.2], [-1, 0, 0, 0],[-1, 0, 1, 0], [ 9E+9,9E+9, 9E9, 9E9, 9E9, 9E9]];
CONST robtarget p16:= [[1089.351,95.917,500.2], [-1, 0, 0, 0],[-1, 0, 1, 0], [ 9E+9,9E+9, 9E9, 9E9, 9E9, 9E9]];
CONST robtarget p17:= [[1096.628,95.917,500.2], [-1, 0, 0, 0],[-1, 0, 1, 0], [ 9E+9,9E+9, 9E9, 9E9, 9E9, 9E9]];
CONST robtarget p18:= [[1098.123,95.65,500.2], [-1, 0, 0, 0],[-1, 0, 1, 0], [ 9E+9,9E+9, 9E9, 9E9, 9E9, 9E9]];
CONST robtarget p19:= [[1099.656,95.28399999999999,500.2], [-1, 0, 0, 0],[-1, 0, 1, 0], [ 9E+9,9E+9, 9E9, 9E9, 9E9, 9E9]];
CONST robtarget p20:= [[1101.154,94.83000000000001,500.2], [-1, 0, 0, 0],[-1, 0, 1, 0], [ 9E+9,9E+9, 9E9, 9E9, 9E9, 9E9]];
CONST robtarget p21:= [[1102.621,94.285,500.2], [-1, 0, 0, 0],[-1, 0, 1, 0], [ 9E+9,9E+9, 9E9, 9E9, 9E9, 9E9]];
CONST robtarget p22:= [[1104.062,93.643,500.2], [-1, 0, 0, 0],[-1, 0, 1, 0], [ 9E+9,9E+9, 9E9, 9E9, 9E9, 9E9]];
CONST robtarget p23:= [[1105.443,92.91900000000001,500.2], [-1, 0, 0, 0],[-1, 0, 1, 0], [ 9E+9,9E+9, 9E9, 9E9, 9E9, 9E9]];
CONST robtarget p24:= [[1106.797,92.09899999999999,500.2], [-1, 0, 0, 0],[-1, 0, 1, 0], [ 9E+9,9E+9, 9E9, 9E9, 9E9, 9E9]];
CONST robtarget p25:= [[1108.12,91.18299999999999,500.2], [-1, 0, 0, 0],[-1, 0, 1, 0], [ 9E+9,9E+9, 9E9, 9E9, 9E9, 9E9]];
CONST robtarget p26:= [[1109.381,90.195,500.2], [-1, 0, 0, 0],[-1, 0, 1, 0], [ 9E+9,9E+9, 9E9, 9E9, 9E9, 9E9]];
CONST robtarget p27:= [[1110.59,89.132,500.2], [-1, 0, 0, 0],[-1, 0, 1, 0], [ 9E+9,9E+9, 9E9, 9E9, 9E9, 9E9]];
CONST robtarget p28:= [[1111.745,88.00200000000001,500.2], [-1, 0, 0, 0],[-1, 0, 1, 0], [ 9E+9,9E+9, 9E9, 9E9, 9E9, 9E9]];
CONST robtarget p29:= [[1112.84,86.81,500.2], [-1, 0, 0, 0],[-1, 0, 1, 0], [ 9E+9,9E+9, 9E9, 9E9, 9E9, 9E9]];
CONST robtarget p30:= [[1113.875,85.564,500.2], [-1, 0, 0, 0],[-1, 0, 1, 0], [ 9E+9,9E+9, 9E9, 9E9, 9E9, 9E9]];
CONST robtarget p31:= [[1114.854,84.262,500.2], [-1, 0, 0, 0],[-1, 0, 1, 0], [ 9E+9,9E+9, 9E9, 9E9, 9E9, 9E9]];
CONST robtarget p32:= [[1115.778,82.91,500.2], [-1, 0, 0, 0],[-1, 0, 1, 0], [ 9E+9,9E+9, 9E9, 9E9, 9E9, 9E9]];
CONST robtarget p33:= [[1116.714,81.412,500.2], [-1, 0, 0, 0],[-1, 0, 1, 0], [ 9E+9,9E+9, 9E9, 9E9, 9E9, 9E9]];
CONST robtarget p34:= [[1116.97,81.18,500.2], [-1, 0, 0, 0],[-1, 0, 1, 0], [ 9E+9,9E+9, 9E9, 9E9, 9E9, 9E9]];
CONST robtarget p35:= [[1117.176,81.08099999999999,500.2], [-1, 0, 0, 0],[-1, 0, 1, 0], [ 9E+9,9E+9, 9E9, 9E9, 9E9, 9E9]];
CONST robtarget p36:= [[1117.4,81.03200000000001,500.2], [-1, 0, 0, 0],[-1, 0, 1, 0], [ 9E+9,9E+9, 9E9, 9E9, 9E9, 9E9]];
CONST robtarget p37:= [[1117.734,81.053,500.2], [-1, 0, 0, 0],[-1, 0, 1, 0], [ 9E+9,9E+9, 9E9, 9E9, 9E9, 9E9]];
CONST robtarget p38:= [[1118.116,81.23500000000001,500.2], [-1, 0, 0, 0],[-1, 0, 1, 0], [ 9E+9,9E+9, 9E9, 9E9, 9E9, 9E9]];
CONST robtarget p39:= [[1118.296,81.417,500.2], [-1, 0, 0, 0],[-1, 0, 1, 0], [ 9E+9,9E+9, 9E9, 9E9, 9E9, 9E9]];
CONST robtarget p40:= [[1118.976,82.505,500.2], [-1, 0, 0, 0],[-1, 0, 1, 0], [ 9E+9,9E+9, 9E9, 9E9, 9E9, 9E9]];
CONST robtarget p41:= [[1119.545,83.38300000000001,500.2], [-1, 0, 0, 0],[-1, 0, 1, 0], [ 9E+9,9E+9, 9E9, 9E9, 9E9, 9E9]];
CONST robtarget p42:= [[1120.231,84.382,500.2], [-1, 0, 0, 0],[-1, 0, 1, 0], [ 9E+9,9E+9, 9E9, 9E9, 9E9, 9E9]];
CONST robtarget p43:= [[1120.814,85.18799999999999,500.2], [-1, 0, 0, 0],[-1, 0, 1, 0], [ 9E+9,9E+9, 9E9, 9E9, 9E9, 9E9]];
CONST robtarget p44:= [[1121.409,85.96600000000001,500.2], [-1, 0, 0, 0],[-1, 0, 1, 0], [ 9E+9,9E+9, 9E9, 9E9, 9E9, 9E9]];
CONST robtarget p45:= [[1122.012,86.70500000000001,500.2], [-1, 0, 0, 0],[-1, 0, 1, 0], [ 9E+9,9E+9, 9E9, 9E9, 9E9, 9E9]];
CONST robtarget p46:= [[1122.628,87.41300000000001,500.2], [-1, 0, 0, 0],[-1, 0, 1, 0], [ 9E+9,9E+9, 9E9, 9E9, 9E9, 9E9]];
CONST robtarget p47:= [[1123.156,87.969,500.2], [-1, 0, 0, 0],[-1, 0, 1, 0], [ 9E+9,9E+9, 9E9, 9E9, 9E9, 9E9]];
CONST robtarget p48:= [[1123.781,88.59899999999999,500.2], [-1, 0, 0, 0],[-1, 0, 1, 0], [ 9E+9,9E+9, 9E9, 9E9, 9E9, 9E9]];
CONST robtarget p49:= [[1124.365,89.13900000000001,500.2], [-1, 0, 0, 0],[-1, 0, 1, 0], [ 9E+9,9E+9, 9E9, 9E9, 9E9, 9E9]];
CONST robtarget p50:= [[1124.968,89.66,500.2], [-1, 0, 0, 0],[-1, 0, 1, 0], [ 9E+9,9E+9, 9E9, 9E9, 9E9, 9E9]];
CONST robtarget p51:= [[1125.555,90.13399999999999,500.2], [-1, 0, 0, 0],[-1, 0, 1, 0], [ 9E+9,9E+9, 9E9, 9E9, 9E9, 9E9]];
CONST robtarget p52:= [[1126.809,91.064,500.2], [-1, 0, 0, 0],[-1, 0, 1, 0], [ 9E+9,9E+9, 9E9, 9E9, 9E9, 9E9]];
CONST robtarget p53:= [[1128.103,91.93700000000001,500.2], [-1, 0, 0, 0],[-1, 0, 1, 0], [ 9E+9,9E+9, 9E9, 9E9, 9E9, 9E9]];
CONST robtarget p54:= [[1129.451,92.77699999999999,500.2], [-1, 0, 0, 0],[-1, 0, 1, 0], [ 9E+9,9E+9, 9E9, 9E9, 9E9, 9E9]];
CONST robtarget p55:= [[1130.883,93.588,500.2], [-1, 0, 0, 0],[-1, 0, 1, 0], [ 9E+9,9E+9, 9E9, 9E9, 9E9, 9E9]];
CONST robtarget p56:= [[1131.624,93.971,500.2], [-1, 0, 0, 0],[-1, 0, 1, 0], [ 9E+9,9E+9, 9E9, 9E9, 9E9, 9E9]];
CONST robtarget p57:= [[1132.375,94.33000000000001,500.2], [-1, 0, 0, 0],[-1, 0, 1, 0], [ 9E+9,9E+9, 9E9, 9E9, 9E9, 9E9]];
CONST robtarget p58:= [[1133.132,94.65799999999999,500.2], [-1, 0, 0, 0],[-1, 0, 1, 0], [ 9E+9,9E+9, 9E9, 9E9, 9E9, 9E9]];
CONST robtarget p59:= [[1133.9279999999999,94.96799999999999,500.2], [-1, 0, 0, 0],[-1, 0, 1, 0], [ 9E+9,9E+9, 9E9, 9E9, 9E9, 9E9]];
CONST robtarget p60:= [[1134.81,95.267,500.2], [-1, 0, 0, 0],[-1, 0, 1, 0], [ 9E+9,9E+9, 9E9, 9E9, 9E9, 9E9]];
CONST robtarget p61:= [[1135.54,95.471,500.2], [-1, 0, 0, 0],[-1, 0, 1, 0], [ 9E+9,9E+9, 9E9, 9E9, 9E9, 9E9]];
CONST robtarget p62:= [[1136.374,95.672,500.2], [-1, 0, 0, 0],[-1, 0, 1, 0], [ 9E+9,9E+9, 9E9, 9E9, 9E9, 9E9]];
CONST robtarget p63:= [[1137.2359999999999,95.83699999999999,500.2], [-1, 0, 0, 0],[-1, 0, 1, 0], [ 9E+9,9E+9, 9E9, 9E9, 9E9, 9E9]];
CONST robtarget p64:= [[1138.093,95.959,500.2], [-1, 0, 0, 0],[-1, 0, 1, 0], [ 9E+9,9E+9, 9E9, 9E9, 9E9, 9E9]];
CONST robtarget p65:= [[1138.9859999999999,96.04499999999999,500.2], [-1, 0, 0, 0],[-1, 0, 1, 0], [ 9E+9,9E+9, 9E9, 9E9, 9E9, 9E9]];
CONST robtarget p66:= [[1139.915,96.094,500.2], [-1, 0, 0, 0],[-1, 0, 1, 0], [ 9E+9,9E+9, 9E9, 9E9, 9E9, 9E9]];
CONST robtarget p67:= [[1140.886,96.10499999999999,500.2], [-1, 0, 0, 0],[-1, 0, 1, 0], [ 9E+9,9E+9, 9E9, 9E9, 9E9, 9E9]];
CONST robtarget p68:= [[1145.649,96.096,500.2], [-1, 0, 0, 0],[-1, 0, 1, 0], [ 9E+9,9E+9, 9E9, 9E9, 9E9, 9E9]];
CONST robtarget p69:= [[1145.55,38.897000000000006,500.2], [-1, 0, 0, 0],[-1, 0, 1, 0], [ 9E+9,9E+9, 9E9, 9E9, 9E9, 9E9]];
CONST robtarget p70:= [[1136.894,38.92100000000001,500.2], [-1, 0, 0, 0],[-1, 0, 1, 0], [ 9E+9,9E+9, 9E9, 9E9, 9E9, 9E9]];
CONST robtarget p71:= [[1136.894,83.21600000000001,500.2], [-1, 0, 0, 0],[-1, 0, 1, 0], [ 9E+9,9E+9, 9E9, 9E9, 9E9, 9E9]];
CONST robtarget p72:= [[1136.795,83.525,500.2], [-1, 0, 0, 0],[-1, 0, 1, 0], [ 9E+9,9E+9, 9E9, 9E9, 9E9, 9E9]];
CONST robtarget p73:= [[1136.6399999999999,83.757,500.2], [-1, 0, 0, 0],[-1, 0, 1, 0], [ 9E+9,9E+9, 9E9, 9E9, 9E9, 9E9]];
CONST robtarget p74:= [[1136.449,83.922,500.2], [-1, 0, 0, 0],[-1, 0, 1, 0], [ 9E+9,9E+9, 9E9, 9E9, 9E9, 9E9]];
CONST robtarget p75:= [[1136.058,84.076,500.2], [-1, 0, 0, 0],[-1, 0, 1, 0], [ 9E+9,9E+9, 9E9, 9E9, 9E9, 9E9]];
CONST robtarget p76:= [[1135.199,84.13300000000001,500.2], [-1, 0, 0, 0],[-1, 0, 1, 0], [ 9E+9,9E+9, 9E9, 9E9, 9E9, 9E9]];
CONST robtarget p77:= [[1134.466,84.10499999999999,500.2], [-1, 0, 0, 0],[-1, 0, 1, 0], [ 9E+9,9E+9, 9E9, 9E9, 9E9, 9E9]];
CONST robtarget p78:= [[1133.755,84.005,500.2], [-1, 0, 0, 0],[-1, 0, 1, 0], [ 9E+9,9E+9, 9E9, 9E9, 9E9, 9E9]];
CONST robtarget p79:= [[1132.991,83.826,500.2], [-1, 0, 0, 0],[-1, 0, 1, 0], [ 9E+9,9E+9, 9E9, 9E9, 9E9, 9E9]];
CONST robtarget p80:= [[1132.145,83.536,500.2], [-1, 0, 0, 0],[-1, 0, 1, 0], [ 9E+9,9E+9, 9E9, 9E9, 9E9, 9E9]];
CONST robtarget p81:= [[1131.4279999999999,83.214,500.2], [-1, 0, 0, 0],[-1, 0, 1, 0], [ 9E+9,9E+9, 9E9, 9E9, 9E9, 9E9]];
CONST robtarget p82:= [[1130.68,82.797,500.2], [-1, 0, 0, 0],[-1, 0, 1, 0], [ 9E+9,9E+9, 9E9, 9E9, 9E9, 9E9]];
CONST robtarget p83:= [[1129.93,82.29599999999999,500.2], [-1, 0, 0, 0],[-1, 0, 1, 0], [ 9E+9,9E+9, 9E9, 9E9, 9E9, 9E9]];
CONST robtarget p84:= [[1129.215,81.738,500.2], [-1, 0, 0, 0],[-1, 0, 1, 0], [ 9E+9,9E+9, 9E9, 9E9, 9E9, 9E9]];
CONST robtarget p85:= [[1128.563,81.15100000000001,500.2], [-1, 0, 0, 0],[-1, 0, 1, 0], [ 9E+9,9E+9, 9E9, 9E9, 9E9, 9E9]];
CONST robtarget p86:= [[1127.849,80.411,500.2], [-1, 0, 0, 0],[-1, 0, 1, 0], [ 9E+9,9E+9, 9E9, 9E9, 9E9, 9E9]];
CONST robtarget p87:= [[1127.233,79.68100000000001,500.2], [-1, 0, 0, 0],[-1, 0, 1, 0], [ 9E+9,9E+9, 9E9, 9E9, 9E9, 9E9]];
CONST robtarget p88:= [[1126.603,78.833,500.2], [-1, 0, 0, 0],[-1, 0, 1, 0], [ 9E+9,9E+9, 9E9, 9E9, 9E9, 9E9]];
CONST robtarget p89:= [[1126.027,77.937,500.2], [-1, 0, 0, 0],[-1, 0, 1, 0], [ 9E+9,9E+9, 9E9, 9E9, 9E9, 9E9]];
CONST robtarget p90:= [[1125.481,76.965,500.2], [-1, 0, 0, 0],[-1, 0, 1, 0], [ 9E+9,9E+9, 9E9, 9E9, 9E9, 9E9]];
CONST robtarget p91:= [[1124.983,75.941,500.2], [-1, 0, 0, 0],[-1, 0, 1, 0], [ 9E+9,9E+9, 9E9, 9E9, 9E9, 9E9]];
CONST robtarget p92:= [[1124.535,74.882,500.2], [-1, 0, 0, 0],[-1, 0, 1, 0], [ 9E+9,9E+9, 9E9, 9E9, 9E9, 9E9]];
CONST robtarget p93:= [[1124.14,73.795,500.2], [-1, 0, 0, 0],[-1, 0, 1, 0], [ 9E+9,9E+9, 9E9, 9E9, 9E9, 9E9]];
CONST robtarget p94:= [[1123.779,72.643,500.2], [-1, 0, 0, 0],[-1, 0, 1, 0], [ 9E+9,9E+9, 9E9, 9E9, 9E9, 9E9]];
CONST robtarget p95:= [[1123.461,71.465,500.2], [-1, 0, 0, 0],[-1, 0, 1, 0], [ 9E+9,9E+9, 9E9, 9E9, 9E9, 9E9]];
CONST robtarget p96:= [[1123.183,70.26,500.2], [-1, 0, 0, 0],[-1, 0, 1, 0], [ 9E+9,9E+9, 9E9, 9E9, 9E9, 9E9]];
CONST robtarget p97:= [[1122.94,69.025,500.2], [-1, 0, 0, 0],[-1, 0, 1, 0], [ 9E+9,9E+9, 9E9, 9E9, 9E9, 9E9]];
CONST robtarget p98:= [[1122.73,67.774,500.2], [-1, 0, 0, 0],[-1, 0, 1, 0], [ 9E+9,9E+9, 9E9, 9E9, 9E9, 9E9]];
CONST robtarget p99:= [[1122.547,66.485,500.2], [-1, 0, 0, 0],[-1, 0, 1, 0], [ 9E+9,9E+9, 9E9, 9E9, 9E9, 9E9]];
CONST robtarget p100:= [[1122.411,65.336,500.2], [-1, 0, 0, 0],[-1, 0, 1, 0], [ 9E+9,9E+9, 9E9, 9E9, 9E9, 9E9]];
CONST robtarget p101:= [[1122.268,63.876000000000005,500.2], [-1, 0, 0, 0],[-1, 0, 1, 0], [ 9E+9,9E+9, 9E9, 9E9, 9E9, 9E9]];
CONST robtarget p102:= [[1122.162,62.540000000000006,500.2], [-1, 0, 0, 0],[-1, 0, 1, 0], [ 9E+9,9E+9, 9E9, 9E9, 9E9, 9E9]];
CONST robtarget p103:= [[1122.07,61.016999999999996,500.2], [-1, 0, 0, 0],[-1, 0, 1, 0], [ 9E+9,9E+9, 9E9, 9E9, 9E9, 9E9]];
CONST robtarget p104:= [[1121.986,58.479,500.2], [-1, 0, 0, 0],[-1, 0, 1, 0], [ 9E+9,9E+9, 9E9, 9E9, 9E9, 9E9]];
CONST robtarget p105:= [[1121.975,52.45,500.2], [-1, 0, 0, 0],[-1, 0, 1, 0], [ 9E+9,9E+9, 9E9, 9E9, 9E9, 9E9]];
CONST robtarget p106:= [[1113.071,52.45,500.2], [-1, 0, 0, 0],[-1, 0, 1, 0], [ 9E+9,9E+9, 9E9, 9E9, 9E9, 9E9]];
CONST robtarget p107:= [[1113.071,56.736999999999995,500.2], [-1, 0, 0, 0],[-1, 0, 1, 0], [ 9E+9,9E+9, 9E9, 9E9, 9E9, 9E9]];
CONST robtarget p108:= [[1112.994,57.894000000000005,500.2], [-1, 0, 0, 0],[-1, 0, 1, 0], [ 9E+9,9E+9, 9E9, 9E9, 9E9, 9E9]];
CONST robtarget p109:= [[1112.905,59.010000000000005,500.2], [-1, 0, 0, 0],[-1, 0, 1, 0], [ 9E+9,9E+9, 9E9, 9E9, 9E9, 9E9]];
CONST robtarget p110:= [[1112.704,61.156000000000006,500.2], [-1, 0, 0, 0],[-1, 0, 1, 0], [ 9E+9,9E+9, 9E9, 9E9, 9E9, 9E9]];
CONST robtarget p111:= [[1112.59,62.185,500.2], [-1, 0, 0, 0],[-1, 0, 1, 0], [ 9E+9,9E+9, 9E9, 9E9, 9E9, 9E9]];
CONST robtarget p112:= [[1112.3220000000001,64.203,500.2], [-1, 0, 0, 0],[-1, 0, 1, 0], [ 9E+9,9E+9, 9E9, 9E9, 9E9, 9E9]];
CONST robtarget p113:= [[1112.021,66.098,500.2], [-1, 0, 0, 0],[-1, 0, 1, 0], [ 9E+9,9E+9, 9E9, 9E9, 9E9, 9E9]];
CONST robtarget p114:= [[1111.855,67.007,500.2], [-1, 0, 0, 0],[-1, 0, 1, 0], [ 9E+9,9E+9, 9E9, 9E9, 9E9, 9E9]];
CONST robtarget p115:= [[1111.684,67.872,500.2], [-1, 0, 0, 0],[-1, 0, 1, 0], [ 9E+9,9E+9, 9E9, 9E9, 9E9, 9E9]];
CONST robtarget p116:= [[1111.3029999999999,69.574,500.2], [-1, 0, 0, 0],[-1, 0, 1, 0], [ 9E+9,9E+9, 9E9, 9E9, 9E9, 9E9]];
CONST robtarget p117:= [[1111.101,70.379,500.2], [-1, 0, 0, 0],[-1, 0, 1, 0], [ 9E+9,9E+9, 9E9, 9E9, 9E9, 9E9]];
CONST robtarget p118:= [[1110.683,71.882,500.2], [-1, 0, 0, 0],[-1, 0, 1, 0], [ 9E+9,9E+9, 9E9, 9E9, 9E9, 9E9]];
CONST robtarget p119:= [[1110.247,73.25,500.2], [-1, 0, 0, 0],[-1, 0, 1, 0], [ 9E+9,9E+9, 9E9, 9E9, 9E9, 9E9]];
CONST robtarget p120:= [[1110.01,73.923,500.2], [-1, 0, 0, 0],[-1, 0, 1, 0], [ 9E+9,9E+9, 9E9, 9E9, 9E9, 9E9]];
CONST robtarget p121:= [[1109.552,75.108,500.2], [-1, 0, 0, 0],[-1, 0, 1, 0], [ 9E+9,9E+9, 9E9, 9E9, 9E9, 9E9]];
CONST robtarget p122:= [[1109.311,75.676,500.2], [-1, 0, 0, 0],[-1, 0, 1, 0], [ 9E+9,9E+9, 9E9, 9E9, 9E9, 9E9]];
CONST robtarget p123:= [[1108.856,76.655,500.2], [-1, 0, 0, 0],[-1, 0, 1, 0], [ 9E+9,9E+9, 9E9, 9E9, 9E9, 9E9]];
CONST robtarget p124:= [[1108.623,77.113,500.2], [-1, 0, 0, 0],[-1, 0, 1, 0], [ 9E+9,9E+9, 9E9, 9E9, 9E9, 9E9]];
CONST robtarget p125:= [[1108.389,77.544,500.2], [-1, 0, 0, 0],[-1, 0, 1, 0], [ 9E+9,9E+9, 9E9, 9E9, 9E9, 9E9]];
CONST robtarget p126:= [[1107.961,78.269,500.2], [-1, 0, 0, 0],[-1, 0, 1, 0], [ 9E+9,9E+9, 9E9, 9E9, 9E9, 9E9]];
CONST robtarget p127:= [[1107.489,78.987,500.2], [-1, 0, 0, 0],[-1, 0, 1, 0], [ 9E+9,9E+9, 9E9, 9E9, 9E9, 9E9]];
CONST robtarget p128:= [[1107.064,79.572,500.2], [-1, 0, 0, 0],[-1, 0, 1, 0], [ 9E+9,9E+9, 9E9, 9E9, 9E9, 9E9]];
CONST robtarget p129:= [[1106.1779999999999,80.66900000000001,500.2], [-1, 0, 0, 0],[-1, 0, 1, 0], [ 9E+9,9E+9, 9E9, 9E9, 9E9, 9E9]];
CONST robtarget p130:= [[1105.709,81.19,500.2], [-1, 0, 0, 0],[-1, 0, 1, 0], [ 9E+9,9E+9, 9E9, 9E9, 9E9, 9E9]];
CONST robtarget p131:= [[1105.194,81.71000000000001,500.2], [-1, 0, 0, 0],[-1, 0, 1, 0], [ 9E+9,9E+9, 9E9, 9E9, 9E9, 9E9]];
CONST robtarget p132:= [[1104.609,82.225,500.2], [-1, 0, 0, 0],[-1, 0, 1, 0], [ 9E+9,9E+9, 9E9, 9E9, 9E9, 9E9]];
CONST robtarget p133:= [[1103.9470000000001,82.71199999999999,500.2], [-1, 0, 0, 0],[-1, 0, 1, 0], [ 9E+9,9E+9, 9E9, 9E9, 9E9, 9E9]];
CONST robtarget p134:= [[1103.317,83.09,500.2], [-1, 0, 0, 0],[-1, 0, 1, 0], [ 9E+9,9E+9, 9E9, 9E9, 9E9, 9E9]];
CONST robtarget p135:= [[1102.662,83.399,500.2], [-1, 0, 0, 0],[-1, 0, 1, 0], [ 9E+9,9E+9, 9E9, 9E9, 9E9, 9E9]];
CONST robtarget p136:= [[1101.968,83.656,500.2], [-1, 0, 0, 0],[-1, 0, 1, 0], [ 9E+9,9E+9, 9E9, 9E9, 9E9, 9E9]];
CONST robtarget p137:= [[1101.235,83.85900000000001,500.2], [-1, 0, 0, 0],[-1, 0, 1, 0], [ 9E+9,9E+9, 9E9, 9E9, 9E9, 9E9]];
CONST robtarget p138:= [[1100.619,83.987,500.2], [-1, 0, 0, 0],[-1, 0, 1, 0], [ 9E+9,9E+9, 9E9, 9E9, 9E9, 9E9]];
CONST robtarget p139:= [[1100.15,84.05600000000001,500.2], [-1, 0, 0, 0],[-1, 0, 1, 0], [ 9E+9,9E+9, 9E9, 9E9, 9E9, 9E9]];
CONST robtarget p140:= [[1099.749,84.09200000000001,500.2], [-1, 0, 0, 0],[-1, 0, 1, 0], [ 9E+9,9E+9, 9E9, 9E9, 9E9, 9E9]];
CONST robtarget p141:= [[1099.611,84.10400000000001,500.2], [-1, 0, 0, 0],[-1, 0, 1, 0], [ 9E+9,9E+9, 9E9, 9E9, 9E9, 9E9]];
CONST robtarget p142:= [[1098.95,84.119,500.2], [-1, 0, 0, 0],[-1, 0, 1, 0], [ 9E+9,9E+9, 9E9, 9E9, 9E9, 9E9]];
CONST robtarget p143:= [[1099.025,83.71700000000001,500.2], [-1, 0, 0, 0],[-1, 0, 1, 0], [ 9E+9,9E+9, 9E9, 9E9, 9E9, 9E9]];
CONST robtarget p144:= [[1098.625,83.54599999999999,500.2], [-1, 0, 0, 0],[-1, 0, 1, 0], [ 9E+9,9E+9, 9E9, 9E9, 9E9, 9E9]];
CONST robtarget p145:= [[1098.476,83.38,500.2], [-1, 0, 0, 0],[-1, 0, 1, 0], [ 9E+9,9E+9, 9E9, 9E9, 9E9, 9E9]];
CONST robtarget p146:= [[1098.379,83.13399999999999,500.2], [-1, 0, 0, 0],[-1, 0, 1, 0], [ 9E+9,9E+9, 9E9, 9E9, 9E9, 9E9]];
CONST robtarget p147:= [[1098.373,38.602999999999994,500.2], [-1, 0, 0, 0],[-1, 0, 1, 0], [ 9E+9,9E+9, 9E9, 9E9, 9E9, 9E9]];
CONST robtarget p148:= [[1088.951,38.602999999999994,500.2], [-1, 0, 0, 0],[-1, 0, 1, 0], [ 9E+9,9E+9, 9E9, 9E9, 9E9, 9E9]];
CONST robtarget p149:= [[1088.951,96.31700000000001,500.2], [-1, 0, 0, 0],[-1, 0, 1, 0], [ 9E+9,9E+9, 9E9, 9E9, 9E9, 9E9]];
CONST robtarget p150:= [[1096.663,96.31700000000001,500.2], [-1, 0, 0, 0],[-1, 0, 1, 0], [ 9E+9,9E+9, 9E9, 9E9, 9E9, 9E9]];
CONST robtarget p151:= [[1098.205,96.042,500.2], [-1, 0, 0, 0],[-1, 0, 1, 0], [ 9E+9,9E+9, 9E9, 9E9, 9E9, 9E9]];
CONST robtarget p152:= [[1099.761,95.66999999999999,500.2], [-1, 0, 0, 0],[-1, 0, 1, 0], [ 9E+9,9E+9, 9E9, 9E9, 9E9, 9E9]];
CONST robtarget p153:= [[1101.282,95.21000000000001,500.2], [-1, 0, 0, 0],[-1, 0, 1, 0], [ 9E+9,9E+9, 9E9, 9E9, 9E9, 9E9]];
CONST robtarget p154:= [[1102.772,94.656,500.2], [-1, 0, 0, 0],[-1, 0, 1, 0], [ 9E+9,9E+9, 9E9, 9E9, 9E9, 9E9]];
CONST robtarget p155:= [[1104.237,94.00299999999999,500.2], [-1, 0, 0, 0],[-1, 0, 1, 0], [ 9E+9,9E+9, 9E9, 9E9, 9E9, 9E9]];
CONST robtarget p156:= [[1105.639,93.268,500.2], [-1, 0, 0, 0],[-1, 0, 1, 0], [ 9E+9,9E+9, 9E9, 9E9, 9E9, 9E9]];
CONST robtarget p157:= [[1107.015,92.435,500.2], [-1, 0, 0, 0],[-1, 0, 1, 0], [ 9E+9,9E+9, 9E9, 9E9, 9E9, 9E9]];
CONST robtarget p158:= [[1108.357,91.505,500.2], [-1, 0, 0, 0],[-1, 0, 1, 0], [ 9E+9,9E+9, 9E9, 9E9, 9E9, 9E9]];
CONST robtarget p159:= [[1109.637,90.50299999999999,500.2], [-1, 0, 0, 0],[-1, 0, 1, 0], [ 9E+9,9E+9, 9E9, 9E9, 9E9, 9E9]];
CONST robtarget p160:= [[1110.862,89.42500000000001,500.2], [-1, 0, 0, 0],[-1, 0, 1, 0], [ 9E+9,9E+9, 9E9, 9E9, 9E9, 9E9]];
CONST robtarget p161:= [[1112.032,88.281,500.2], [-1, 0, 0, 0],[-1, 0, 1, 0], [ 9E+9,9E+9, 9E9, 9E9, 9E9, 9E9]];
CONST robtarget p162:= [[1113.141,87.07400000000001,500.2], [-1, 0, 0, 0],[-1, 0, 1, 0], [ 9E+9,9E+9, 9E9, 9E9, 9E9, 9E9]];
CONST robtarget p163:= [[1114.189,85.81200000000001,500.2], [-1, 0, 0, 0],[-1, 0, 1, 0], [ 9E+9,9E+9, 9E9, 9E9, 9E9, 9E9]];
CONST robtarget p164:= [[1115.179,84.49600000000001,500.2], [-1, 0, 0, 0],[-1, 0, 1, 0], [ 9E+9,9E+9, 9E9, 9E9, 9E9, 9E9]];
CONST robtarget p165:= [[1116.114,83.12899999999999,500.2], [-1, 0, 0, 0],[-1, 0, 1, 0], [ 9E+9,9E+9, 9E9, 9E9, 9E9, 9E9]];
CONST robtarget p166:= [[1117.029,81.65799999999999,500.2], [-1, 0, 0, 0],[-1, 0, 1, 0], [ 9E+9,9E+9, 9E9, 9E9, 9E9, 9E9]];
CONST robtarget p167:= [[1117.183,81.518,500.2], [-1, 0, 0, 0],[-1, 0, 1, 0], [ 9E+9,9E+9, 9E9, 9E9, 9E9, 9E9]];
CONST robtarget p168:= [[1117.374,81.44,500.2], [-1, 0, 0, 0],[-1, 0, 1, 0], [ 9E+9,9E+9, 9E9, 9E9, 9E9, 9E9]];
CONST robtarget p169:= [[1117.642,81.44300000000001,500.2], [-1, 0, 0, 0],[-1, 0, 1, 0], [ 9E+9,9E+9, 9E9, 9E9, 9E9, 9E9]];
CONST robtarget p170:= [[1117.871,81.55199999999999,500.2], [-1, 0, 0, 0],[-1, 0, 1, 0], [ 9E+9,9E+9, 9E9, 9E9, 9E9, 9E9]];
CONST robtarget p171:= [[1118.0,81.689,500.2], [-1, 0, 0, 0],[-1, 0, 1, 0], [ 9E+9,9E+9, 9E9, 9E9, 9E9, 9E9]];
CONST robtarget p172:= [[1118.638,82.719,500.2], [-1, 0, 0, 0],[-1, 0, 1, 0], [ 9E+9,9E+9, 9E9, 9E9, 9E9, 9E9]];
CONST robtarget p173:= [[1119.291,83.72300000000001,500.2], [-1, 0, 0, 0],[-1, 0, 1, 0], [ 9E+9,9E+9, 9E9, 9E9, 9E9, 9E9]];
CONST robtarget p174:= [[1119.875,84.572,500.2], [-1, 0, 0, 0],[-1, 0, 1, 0], [ 9E+9,9E+9, 9E9, 9E9, 9E9, 9E9]];
CONST robtarget p175:= [[1120.529,85.47399999999999,500.2], [-1, 0, 0, 0],[-1, 0, 1, 0], [ 9E+9,9E+9, 9E9, 9E9, 9E9, 9E9]];
CONST robtarget p176:= [[1121.095,86.214,500.2], [-1, 0, 0, 0],[-1, 0, 1, 0], [ 9E+9,9E+9, 9E9, 9E9, 9E9, 9E9]];
CONST robtarget p177:= [[1121.706,86.963,500.2], [-1, 0, 0, 0],[-1, 0, 1, 0], [ 9E+9,9E+9, 9E9, 9E9, 9E9, 9E9]];
CONST robtarget p178:= [[1122.3319999999999,87.68199999999999,500.2], [-1, 0, 0, 0],[-1, 0, 1, 0], [ 9E+9,9E+9, 9E9, 9E9, 9E9, 9E9]];
CONST robtarget p179:= [[1122.833,88.21199999999999,500.2], [-1, 0, 0, 0],[-1, 0, 1, 0], [ 9E+9,9E+9, 9E9, 9E9, 9E9, 9E9]];
CONST robtarget p180:= [[1123.503,88.887,500.2], [-1, 0, 0, 0],[-1, 0, 1, 0], [ 9E+9,9E+9, 9E9, 9E9, 9E9, 9E9]];
CONST robtarget p181:= [[1124.098,89.43700000000001,500.2], [-1, 0, 0, 0],[-1, 0, 1, 0], [ 9E+9,9E+9, 9E9, 9E9, 9E9, 9E9]];
CONST robtarget p182:= [[1124.711,89.96700000000001,500.2], [-1, 0, 0, 0],[-1, 0, 1, 0], [ 9E+9,9E+9, 9E9, 9E9, 9E9, 9E9]];
CONST robtarget p183:= [[1125.31,90.451,500.2], [-1, 0, 0, 0],[-1, 0, 1, 0], [ 9E+9,9E+9, 9E9, 9E9, 9E9, 9E9]];
CONST robtarget p184:= [[1126.578,91.39099999999999,500.2], [-1, 0, 0, 0],[-1, 0, 1, 0], [ 9E+9,9E+9, 9E9, 9E9, 9E9, 9E9]];
CONST robtarget p185:= [[1127.885,92.273,500.2], [-1, 0, 0, 0],[-1, 0, 1, 0], [ 9E+9,9E+9, 9E9, 9E9, 9E9, 9E9]];
CONST robtarget p186:= [[1129.246,93.12100000000001,500.2], [-1, 0, 0, 0],[-1, 0, 1, 0], [ 9E+9,9E+9, 9E9, 9E9, 9E9, 9E9]];
CONST robtarget p187:= [[1130.692,93.94,500.2], [-1, 0, 0, 0],[-1, 0, 1, 0], [ 9E+9,9E+9, 9E9, 9E9, 9E9, 9E9]];
CONST robtarget p188:= [[1131.446,94.32900000000001,500.2], [-1, 0, 0, 0],[-1, 0, 1, 0], [ 9E+9,9E+9, 9E9, 9E9, 9E9, 9E9]];
CONST robtarget p189:= [[1132.209,94.69399999999999,500.2], [-1, 0, 0, 0],[-1, 0, 1, 0], [ 9E+9,9E+9, 9E9, 9E9, 9E9, 9E9]];
CONST robtarget p190:= [[1132.98,95.02799999999999,500.2], [-1, 0, 0, 0],[-1, 0, 1, 0], [ 9E+9,9E+9, 9E9, 9E9, 9E9, 9E9]];
CONST robtarget p191:= [[1133.792,95.344,500.2], [-1, 0, 0, 0],[-1, 0, 1, 0], [ 9E+9,9E+9, 9E9, 9E9, 9E9, 9E9]];
CONST robtarget p192:= [[1134.692,95.649,500.2], [-1, 0, 0, 0],[-1, 0, 1, 0], [ 9E+9,9E+9, 9E9, 9E9, 9E9, 9E9]];
CONST robtarget p193:= [[1135.44,95.85900000000001,500.2], [-1, 0, 0, 0],[-1, 0, 1, 0], [ 9E+9,9E+9, 9E9, 9E9, 9E9, 9E9]];
CONST robtarget p194:= [[1136.29,96.06299999999999,500.2], [-1, 0, 0, 0],[-1, 0, 1, 0], [ 9E+9,9E+9, 9E9, 9E9, 9E9, 9E9]];
CONST robtarget p195:= [[1137.17,96.231,500.2], [-1, 0, 0, 0],[-1, 0, 1, 0], [ 9E+9,9E+9, 9E9, 9E9, 9E9, 9E9]];
CONST robtarget p196:= [[1138.046,96.356,500.2], [-1, 0, 0, 0],[-1, 0, 1, 0], [ 9E+9,9E+9, 9E9, 9E9, 9E9, 9E9]];
CONST robtarget p197:= [[1138.9569999999999,96.44399999999999,500.2], [-1, 0, 0, 0],[-1, 0, 1, 0], [ 9E+9,9E+9, 9E9, 9E9, 9E9, 9E9]];
CONST robtarget p198:= [[1139.903,96.494,500.2], [-1, 0, 0, 0],[-1, 0, 1, 0], [ 9E+9,9E+9, 9E9, 9E9, 9E9, 9E9]];
CONST robtarget p199:= [[1140.886,96.505,500.2], [-1, 0, 0, 0],[-1, 0, 1, 0], [ 9E+9,9E+9, 9E9, 9E9, 9E9, 9E9]];
CONST robtarget p200:= [[1146.05,96.495,500.2], [-1, 0, 0, 0],[-1, 0, 1, 0], [ 9E+9,9E+9, 9E9, 9E9, 9E9, 9E9]];
CONST robtarget p201:= [[1145.95,38.495999999999995,500.2], [-1, 0, 0, 0],[-1, 0, 1, 0], [ 9E+9,9E+9, 9E9, 9E9, 9E9, 9E9]];
CONST robtarget p202:= [[1136.494,38.522999999999996,500.2], [-1, 0, 0, 0],[-1, 0, 1, 0], [ 9E+9,9E+9, 9E9, 9E9, 9E9, 9E9]];
CONST robtarget p203:= [[1136.494,83.167,500.2], [-1, 0, 0, 0],[-1, 0, 1, 0], [ 9E+9,9E+9, 9E9, 9E9, 9E9, 9E9]];
CONST robtarget p204:= [[1136.435,83.351,500.2], [-1, 0, 0, 0],[-1, 0, 1, 0], [ 9E+9,9E+9, 9E9, 9E9, 9E9, 9E9]];
CONST robtarget p205:= [[1136.227,83.589,500.2], [-1, 0, 0, 0],[-1, 0, 1, 0], [ 9E+9,9E+9, 9E9, 9E9, 9E9, 9E9]];
CONST robtarget p206:= [[1135.992,83.68199999999999,500.2], [-1, 0, 0, 0],[-1, 0, 1, 0], [ 9E+9,9E+9, 9E9, 9E9, 9E9, 9E9]];
CONST robtarget p207:= [[1135.213,83.733,500.2], [-1, 0, 0, 0],[-1, 0, 1, 0], [ 9E+9,9E+9, 9E9, 9E9, 9E9, 9E9]];
CONST robtarget p208:= [[1134.506,83.707,500.2], [-1, 0, 0, 0],[-1, 0, 1, 0], [ 9E+9,9E+9, 9E9, 9E9, 9E9, 9E9]];
CONST robtarget p209:= [[1133.811,83.60900000000001,500.2], [-1, 0, 0, 0],[-1, 0, 1, 0], [ 9E+9,9E+9, 9E9, 9E9, 9E9, 9E9]];
CONST robtarget p210:= [[1133.029,83.42099999999999,500.2], [-1, 0, 0, 0],[-1, 0, 1, 0], [ 9E+9,9E+9, 9E9, 9E9, 9E9, 9E9]];
CONST robtarget p211:= [[1132.354,83.18799999999999,500.2], [-1, 0, 0, 0],[-1, 0, 1, 0], [ 9E+9,9E+9, 9E9, 9E9, 9E9, 9E9]];
CONST robtarget p212:= [[1131.583,82.844,500.2], [-1, 0, 0, 0],[-1, 0, 1, 0], [ 9E+9,9E+9, 9E9, 9E9, 9E9, 9E9]];
CONST robtarget p213:= [[1130.892,82.458,500.2], [-1, 0, 0, 0],[-1, 0, 1, 0], [ 9E+9,9E+9, 9E9, 9E9, 9E9, 9E9]];
CONST robtarget p214:= [[1130.185,81.988,500.2], [-1, 0, 0, 0],[-1, 0, 1, 0], [ 9E+9,9E+9, 9E9, 9E9, 9E9, 9E9]];
CONST robtarget p215:= [[1129.516,81.46799999999999,500.2], [-1, 0, 0, 0],[-1, 0, 1, 0], [ 9E+9,9E+9, 9E9, 9E9, 9E9, 9E9]];
CONST robtarget p216:= [[1128.801,80.82400000000001,500.2], [-1, 0, 0, 0],[-1, 0, 1, 0], [ 9E+9,9E+9, 9E9, 9E9, 9E9, 9E9]];
CONST robtarget p217:= [[1128.155,80.15299999999999,500.2], [-1, 0, 0, 0],[-1, 0, 1, 0], [ 9E+9,9E+9, 9E9, 9E9, 9E9, 9E9]];
CONST robtarget p218:= [[1127.515,79.393,500.2], [-1, 0, 0, 0],[-1, 0, 1, 0], [ 9E+9,9E+9, 9E9, 9E9, 9E9, 9E9]];
CONST robtarget p219:= [[1126.945,78.624,500.2], [-1, 0, 0, 0],[-1, 0, 1, 0], [ 9E+9,9E+9, 9E9, 9E9, 9E9, 9E9]];
CONST robtarget p220:= [[1126.367,77.727,500.2], [-1, 0, 0, 0],[-1, 0, 1, 0], [ 9E+9,9E+9, 9E9, 9E9, 9E9, 9E9]];
CONST robtarget p221:= [[1125.84,76.79,500.2], [-1, 0, 0, 0],[-1, 0, 1, 0], [ 9E+9,9E+9, 9E9, 9E9, 9E9, 9E9]];
CONST robtarget p222:= [[1125.351,75.785,500.2], [-1, 0, 0, 0],[-1, 0, 1, 0], [ 9E+9,9E+9, 9E9, 9E9, 9E9, 9E9]];
CONST robtarget p223:= [[1124.922,74.774,500.2], [-1, 0, 0, 0],[-1, 0, 1, 0], [ 9E+9,9E+9, 9E9, 9E9, 9E9, 9E9]];
CONST robtarget p224:= [[1124.522,73.675,500.2], [-1, 0, 0, 0],[-1, 0, 1, 0], [ 9E+9,9E+9, 9E9, 9E9, 9E9, 9E9]];
CONST robtarget p225:= [[1124.165,72.538,500.2], [-1, 0, 0, 0],[-1, 0, 1, 0], [ 9E+9,9E+9, 9E9, 9E9, 9E9, 9E9]];
CONST robtarget p226:= [[1123.851,71.375,500.2], [-1, 0, 0, 0],[-1, 0, 1, 0], [ 9E+9,9E+9, 9E9, 9E9, 9E9, 9E9]];
CONST robtarget p227:= [[1123.576,70.183,500.2], [-1, 0, 0, 0],[-1, 0, 1, 0], [ 9E+9,9E+9, 9E9, 9E9, 9E9, 9E9]];
CONST robtarget p228:= [[1123.335,68.959,500.2], [-1, 0, 0, 0],[-1, 0, 1, 0], [ 9E+9,9E+9, 9E9, 9E9, 9E9, 9E9]];
CONST robtarget p229:= [[1123.126,67.718,500.2], [-1, 0, 0, 0],[-1, 0, 1, 0], [ 9E+9,9E+9, 9E9, 9E9, 9E9, 9E9]];
CONST robtarget p230:= [[1122.945,66.438,500.2], [-1, 0, 0, 0],[-1, 0, 1, 0], [ 9E+9,9E+9, 9E9, 9E9, 9E9, 9E9]];
CONST robtarget p231:= [[1122.809,65.296,500.2], [-1, 0, 0, 0],[-1, 0, 1, 0], [ 9E+9,9E+9, 9E9, 9E9, 9E9, 9E9]];
CONST robtarget p232:= [[1122.666,63.845,500.2], [-1, 0, 0, 0],[-1, 0, 1, 0], [ 9E+9,9E+9, 9E9, 9E9, 9E9, 9E9]];
CONST robtarget p233:= [[1122.562,62.515,500.2], [-1, 0, 0, 0],[-1, 0, 1, 0], [ 9E+9,9E+9, 9E9, 9E9, 9E9, 9E9]];
CONST robtarget p234:= [[1122.47,61.003,500.2], [-1, 0, 0, 0],[-1, 0, 1, 0], [ 9E+9,9E+9, 9E9, 9E9, 9E9, 9E9]];
CONST robtarget p235:= [[1122.386,58.447,500.2], [-1, 0, 0, 0],[-1, 0, 1, 0], [ 9E+9,9E+9, 9E9, 9E9, 9E9, 9E9]];
CONST robtarget p236:= [[1122.374,52.05,500.2], [-1, 0, 0, 0],[-1, 0, 1, 0], [ 9E+9,9E+9, 9E9, 9E9, 9E9, 9E9]];
CONST robtarget p237:= [[1112.671,52.05,500.2], [-1, 0, 0, 0],[-1, 0, 1, 0], [ 9E+9,9E+9, 9E9, 9E9, 9E9, 9E9]];
CONST robtarget p238:= [[1112.67,56.738,500.2], [-1, 0, 0, 0],[-1, 0, 1, 0], [ 9E+9,9E+9, 9E9, 9E9, 9E9, 9E9]];
CONST robtarget p239:= [[1112.596,57.861999999999995,500.2], [-1, 0, 0, 0],[-1, 0, 1, 0], [ 9E+9,9E+9, 9E9, 9E9, 9E9, 9E9]];
CONST robtarget p240:= [[1112.507,58.973,500.2], [-1, 0, 0, 0],[-1, 0, 1, 0], [ 9E+9,9E+9, 9E9, 9E9, 9E9, 9E9]];
CONST robtarget p241:= [[1112.306,61.111999999999995,500.2], [-1, 0, 0, 0],[-1, 0, 1, 0], [ 9E+9,9E+9, 9E9, 9E9, 9E9, 9E9]];
CONST robtarget p242:= [[1112.19,62.150999999999996,500.2], [-1, 0, 0, 0],[-1, 0, 1, 0], [ 9E+9,9E+9, 9E9, 9E9, 9E9, 9E9]];
CONST robtarget p243:= [[1111.927,64.141,500.2], [-1, 0, 0, 0],[-1, 0, 1, 0], [ 9E+9,9E+9, 9E9, 9E9, 9E9, 9E9]];
CONST robtarget p244:= [[1111.628,66.026,500.2], [-1, 0, 0, 0],[-1, 0, 1, 0], [ 9E+9,9E+9, 9E9, 9E9, 9E9, 9E9]];
CONST robtarget p245:= [[1111.462,66.93,500.2], [-1, 0, 0, 0],[-1, 0, 1, 0], [ 9E+9,9E+9, 9E9, 9E9, 9E9, 9E9]];
CONST robtarget p246:= [[1111.288,67.81,500.2], [-1, 0, 0, 0],[-1, 0, 1, 0], [ 9E+9,9E+9, 9E9, 9E9, 9E9, 9E9]];
CONST robtarget p247:= [[1110.915,69.477,500.2], [-1, 0, 0, 0],[-1, 0, 1, 0], [ 9E+9,9E+9, 9E9, 9E9, 9E9, 9E9]];
CONST robtarget p248:= [[1110.716,70.272,500.2], [-1, 0, 0, 0],[-1, 0, 1, 0], [ 9E+9,9E+9, 9E9, 9E9, 9E9, 9E9]];
CONST robtarget p249:= [[1110.301,71.764,500.2], [-1, 0, 0, 0],[-1, 0, 1, 0], [ 9E+9,9E+9, 9E9, 9E9, 9E9, 9E9]];
CONST robtarget p250:= [[1109.863,73.136,500.2], [-1, 0, 0, 0],[-1, 0, 1, 0], [ 9E+9,9E+9, 9E9, 9E9, 9E9, 9E9]];
CONST robtarget p251:= [[1109.637,73.779,500.2], [-1, 0, 0, 0],[-1, 0, 1, 0], [ 9E+9,9E+9, 9E9, 9E9, 9E9, 9E9]];
CONST robtarget p252:= [[1109.184,74.952,500.2], [-1, 0, 0, 0],[-1, 0, 1, 0], [ 9E+9,9E+9, 9E9, 9E9, 9E9, 9E9]];
CONST robtarget p253:= [[1108.948,75.507,500.2], [-1, 0, 0, 0],[-1, 0, 1, 0], [ 9E+9,9E+9, 9E9, 9E9, 9E9, 9E9]];
CONST robtarget p254:= [[1108.499,76.474,500.2], [-1, 0, 0, 0],[-1, 0, 1, 0], [ 9E+9,9E+9, 9E9, 9E9, 9E9, 9E9]];
CONST robtarget p255:= [[1108.271,76.922,500.2], [-1, 0, 0, 0],[-1, 0, 1, 0], [ 9E+9,9E+9, 9E9, 9E9, 9E9, 9E9]];
CONST robtarget p256:= [[1108.044,77.341,500.2], [-1, 0, 0, 0],[-1, 0, 1, 0], [ 9E+9,9E+9, 9E9, 9E9, 9E9, 9E9]];
CONST robtarget p257:= [[1107.601,78.09,500.2], [-1, 0, 0, 0],[-1, 0, 1, 0], [ 9E+9,9E+9, 9E9, 9E9, 9E9, 9E9]];
CONST robtarget p258:= [[1107.166,78.751,500.2], [-1, 0, 0, 0],[-1, 0, 1, 0], [ 9E+9,9E+9, 9E9, 9E9, 9E9, 9E9]];
CONST robtarget p259:= [[1106.731,79.34800000000001,500.2], [-1, 0, 0, 0],[-1, 0, 1, 0], [ 9E+9,9E+9, 9E9, 9E9, 9E9, 9E9]];
CONST robtarget p260:= [[1105.87,80.41300000000001,500.2], [-1, 0, 0, 0],[-1, 0, 1, 0], [ 9E+9,9E+9, 9E9, 9E9, 9E9, 9E9]];
CONST robtarget p261:= [[1105.415,80.91999999999999,500.2], [-1, 0, 0, 0],[-1, 0, 1, 0], [ 9E+9,9E+9, 9E9, 9E9, 9E9, 9E9]];
CONST robtarget p262:= [[1104.914,81.424,500.2], [-1, 0, 0, 0],[-1, 0, 1, 0], [ 9E+9,9E+9, 9E9, 9E9, 9E9, 9E9]];
CONST robtarget p263:= [[1104.358,81.91300000000001,500.2], [-1, 0, 0, 0],[-1, 0, 1, 0], [ 9E+9,9E+9, 9E9, 9E9, 9E9, 9E9]];
CONST robtarget p264:= [[1103.791,82.33600000000001,500.2], [-1, 0, 0, 0],[-1, 0, 1, 0], [ 9E+9,9E+9, 9E9, 9E9, 9E9, 9E9]];
CONST robtarget p265:= [[1103.128,82.737,500.2], [-1, 0, 0, 0],[-1, 0, 1, 0], [ 9E+9,9E+9, 9E9, 9E9, 9E9, 9E9]];
CONST robtarget p266:= [[1102.495,83.036,500.2], [-1, 0, 0, 0],[-1, 0, 1, 0], [ 9E+9,9E+9, 9E9, 9E9, 9E9, 9E9]];
CONST robtarget p267:= [[1101.784,83.29499999999999,500.2], [-1, 0, 0, 0],[-1, 0, 1, 0], [ 9E+9,9E+9, 9E9, 9E9, 9E9, 9E9]];
CONST robtarget p268:= [[1101.153,83.46799999999999,500.2], [-1, 0, 0, 0],[-1, 0, 1, 0], [ 9E+9,9E+9, 9E9, 9E9, 9E9, 9E9]];
CONST robtarget p269:= [[1100.597,83.58500000000001,500.2], [-1, 0, 0, 0],[-1, 0, 1, 0], [ 9E+9,9E+9, 9E9, 9E9, 9E9, 9E9]];
CONST robtarget p270:= [[1100.059,83.66399999999999,500.2], [-1, 0, 0, 0],[-1, 0, 1, 0], [ 9E+9,9E+9, 9E9, 9E9, 9E9, 9E9]];
CONST robtarget p271:= [[1099.824,83.685,500.2], [-1, 0, 0, 0],[-1, 0, 1, 0], [ 9E+9,9E+9, 9E9, 9E9, 9E9, 9E9]];
CONST robtarget p272:= [[1099.602,83.70400000000001,500.2], [-1, 0, 0, 0],[-1, 0, 1, 0], [ 9E+9,9E+9, 9E9, 9E9, 9E9, 9E9]];
CONST robtarget p273:= [[1099.025,83.71700000000001,500.2], [-1, 0, 0, 0],[-1, 0, 1, 0], [ 9E+9,9E+9, 9E9, 9E9, 9E9, 9E9]];
CONST robtarget p274:= [[1099.025,83.71700000000001,500.2], [-1, 0, 0, 0],[-1, 0, 1, 0], [ 9E+9,9E+9, 9E9, 9E9, 9E9, 9E9]];
CONST robtarget p275:= [[1099.031,84.017,500.2], [-1, 0, 0, 0],[-1, 0, 1, 0], [ 9E+9,9E+9, 9E9, 9E9, 9E9, 9E9]];
CONST robtarget p276:= [[1097.865,83.39099999999999,500.2], [-1, 0, 0, 0],[-1, 0, 1, 0], [ 9E+9,9E+9, 9E9, 9E9, 9E9, 9E9]];
CONST robtarget p277:= [[1097.801,39.175,500.2], [-1, 0, 0, 0],[-1, 0, 1, 0], [ 9E+9,9E+9, 9E9, 9E9, 9E9, 9E9]];
CONST robtarget p278:= [[1089.523,39.175,500.2], [-1, 0, 0, 0],[-1, 0, 1, 0], [ 9E+9,9E+9, 9E9, 9E9, 9E9, 9E9]];
CONST robtarget p279:= [[1089.523,95.745,500.2], [-1, 0, 0, 0],[-1, 0, 1, 0], [ 9E+9,9E+9, 9E9, 9E9, 9E9, 9E9]];
CONST robtarget p280:= [[1096.613,95.756,500.2], [-1, 0, 0, 0],[-1, 0, 1, 0], [ 9E+9,9E+9, 9E9, 9E9, 9E9, 9E9]];
CONST robtarget p281:= [[1098.09,95.493,500.2], [-1, 0, 0, 0],[-1, 0, 1, 0], [ 9E+9,9E+9, 9E9, 9E9, 9E9, 9E9]];
CONST robtarget p282:= [[1099.614,95.12899999999999,500.2], [-1, 0, 0, 0],[-1, 0, 1, 0], [ 9E+9,9E+9, 9E9, 9E9, 9E9, 9E9]];
CONST robtarget p283:= [[1101.102,94.678,500.2], [-1, 0, 0, 0],[-1, 0, 1, 0], [ 9E+9,9E+9, 9E9, 9E9, 9E9, 9E9]];
CONST robtarget p284:= [[1102.56,94.137,500.2], [-1, 0, 0, 0],[-1, 0, 1, 0], [ 9E+9,9E+9, 9E9, 9E9, 9E9, 9E9]];
CONST robtarget p285:= [[1103.992,93.499,500.2], [-1, 0, 0, 0],[-1, 0, 1, 0], [ 9E+9,9E+9, 9E9, 9E9, 9E9, 9E9]];
CONST robtarget p286:= [[1105.363,92.779,500.2], [-1, 0, 0, 0],[-1, 0, 1, 0], [ 9E+9,9E+9, 9E9, 9E9, 9E9, 9E9]];
CONST robtarget p287:= [[1106.709,91.964,500.2], [-1, 0, 0, 0],[-1, 0, 1, 0], [ 9E+9,9E+9, 9E9, 9E9, 9E9, 9E9]];
CONST robtarget p288:= [[1108.024,91.054,500.2], [-1, 0, 0, 0],[-1, 0, 1, 0], [ 9E+9,9E+9, 9E9, 9E9, 9E9, 9E9]];
CONST robtarget p289:= [[1109.279,90.071,500.2], [-1, 0, 0, 0],[-1, 0, 1, 0], [ 9E+9,9E+9, 9E9, 9E9, 9E9, 9E9]];
CONST robtarget p290:= [[1110.481,89.01400000000001,500.2], [-1, 0, 0, 0],[-1, 0, 1, 0], [ 9E+9,9E+9, 9E9, 9E9, 9E9, 9E9]];
CONST robtarget p291:= [[1111.629,87.88999999999999,500.2], [-1, 0, 0, 0],[-1, 0, 1, 0], [ 9E+9,9E+9, 9E9, 9E9, 9E9, 9E9]];
CONST robtarget p292:= [[1112.719,86.70500000000001,500.2], [-1, 0, 0, 0],[-1, 0, 1, 0], [ 9E+9,9E+9, 9E9, 9E9, 9E9, 9E9]];
CONST robtarget p293:= [[1113.302,86.00299999999999,500.2], [-1, 0, 0, 0],[-1, 0, 1, 0], [ 9E+9,9E+9, 9E9, 9E9, 9E9, 9E9]];
CONST robtarget p294:= [[1116.806,81.445,500.2], [-1, 0, 0, 0],[-1, 0, 1, 0], [ 9E+9,9E+9, 9E9, 9E9, 9E9, 9E9]];
CONST robtarget p295:= [[1116.806,81.445,500.2], [-1, 0, 0, 0],[-1, 0, 1, 0], [ 9E+9,9E+9, 9E9, 9E9, 9E9, 9E9]];
CONST robtarget p296:= [[1117.437,81.83699999999999,500.2], [-1, 0, 0, 0],[-1, 0, 1, 0], [ 9E+9,9E+9, 9E9, 9E9, 9E9, 9E9]];
CONST robtarget p297:= [[1117.584,81.84299999999999,500.2], [-1, 0, 0, 0],[-1, 0, 1, 0], [ 9E+9,9E+9, 9E9, 9E9, 9E9, 9E9]];
CONST robtarget p298:= [[1117.674,81.92099999999999,500.2], [-1, 0, 0, 0],[-1, 0, 1, 0], [ 9E+9,9E+9, 9E9, 9E9, 9E9, 9E9]];
CONST robtarget p299:= [[1118.328,82.977,500.2], [-1, 0, 0, 0],[-1, 0, 1, 0], [ 9E+9,9E+9, 9E9, 9E9, 9E9, 9E9]];
CONST robtarget p300:= [[1118.888,83.84,500.2], [-1, 0, 0, 0],[-1, 0, 1, 0], [ 9E+9,9E+9, 9E9, 9E9, 9E9, 9E9]];
CONST robtarget p301:= [[1119.548,84.80199999999999,500.2], [-1, 0, 0, 0],[-1, 0, 1, 0], [ 9E+9,9E+9, 9E9, 9E9, 9E9, 9E9]];
CONST robtarget p302:= [[1120.172,85.66499999999999,500.2], [-1, 0, 0, 0],[-1, 0, 1, 0], [ 9E+9,9E+9, 9E9, 9E9, 9E9, 9E9]];
CONST robtarget p303:= [[1120.781,86.46199999999999,500.2], [-1, 0, 0, 0],[-1, 0, 1, 0], [ 9E+9,9E+9, 9E9, 9E9, 9E9, 9E9]];
CONST robtarget p304:= [[1121.4,87.221,500.2], [-1, 0, 0, 0],[-1, 0, 1, 0], [ 9E+9,9E+9, 9E9, 9E9, 9E9, 9E9]];
CONST robtarget p305:= [[1122.036,87.951,500.2], [-1, 0, 0, 0],[-1, 0, 1, 0], [ 9E+9,9E+9, 9E9, 9E9, 9E9, 9E9]];
CONST robtarget p306:= [[1122.588,88.53299999999999,500.2], [-1, 0, 0, 0],[-1, 0, 1, 0], [ 9E+9,9E+9, 9E9, 9E9, 9E9, 9E9]];
CONST robtarget p307:= [[1123.225,89.17500000000001,500.2], [-1, 0, 0, 0],[-1, 0, 1, 0], [ 9E+9,9E+9, 9E9, 9E9, 9E9, 9E9]];
CONST robtarget p308:= [[1123.8319999999999,89.73500000000001,500.2], [-1, 0, 0, 0],[-1, 0, 1, 0], [ 9E+9,9E+9, 9E9, 9E9, 9E9, 9E9]];
CONST robtarget p309:= [[1124.455,90.274,500.2], [-1, 0, 0, 0],[-1, 0, 1, 0], [ 9E+9,9E+9, 9E9, 9E9, 9E9, 9E9]];
CONST robtarget p310:= [[1125.065,90.767,500.2], [-1, 0, 0, 0],[-1, 0, 1, 0], [ 9E+9,9E+9, 9E9, 9E9, 9E9, 9E9]];
CONST robtarget p311:= [[1126.347,91.71700000000001,500.2], [-1, 0, 0, 0],[-1, 0, 1, 0], [ 9E+9,9E+9, 9E9, 9E9, 9E9, 9E9]];
CONST robtarget p312:= [[1127.667,92.60900000000001,500.2], [-1, 0, 0, 0],[-1, 0, 1, 0], [ 9E+9,9E+9, 9E9, 9E9, 9E9, 9E9]];
CONST robtarget p313:= [[1129.042,93.465,500.2], [-1, 0, 0, 0],[-1, 0, 1, 0], [ 9E+9,9E+9, 9E9, 9E9, 9E9, 9E9]];
CONST robtarget p314:= [[1130.502,94.292,500.2], [-1, 0, 0, 0],[-1, 0, 1, 0], [ 9E+9,9E+9, 9E9, 9E9, 9E9, 9E9]];
CONST robtarget p315:= [[1131.268,94.68700000000001,500.2], [-1, 0, 0, 0],[-1, 0, 1, 0], [ 9E+9,9E+9, 9E9, 9E9, 9E9, 9E9]];
CONST robtarget p316:= [[1132.0430000000001,95.05799999999999,500.2], [-1, 0, 0, 0],[-1, 0, 1, 0], [ 9E+9,9E+9, 9E9, 9E9, 9E9, 9E9]];
CONST robtarget p317:= [[1132.828,95.398,500.2], [-1, 0, 0, 0],[-1, 0, 1, 0], [ 9E+9,9E+9, 9E9, 9E9, 9E9, 9E9]];
CONST robtarget p318:= [[1133.655,95.72,500.2], [-1, 0, 0, 0],[-1, 0, 1, 0], [ 9E+9,9E+9, 9E9, 9E9, 9E9, 9E9]];
CONST robtarget p319:= [[1134.574,96.031,500.2], [-1, 0, 0, 0],[-1, 0, 1, 0], [ 9E+9,9E+9, 9E9, 9E9, 9E9, 9E9]];
CONST robtarget p320:= [[1135.339,96.24600000000001,500.2], [-1, 0, 0, 0],[-1, 0, 1, 0], [ 9E+9,9E+9, 9E9, 9E9, 9E9, 9E9]];
CONST robtarget p321:= [[1136.206,96.45400000000001,500.2], [-1, 0, 0, 0],[-1, 0, 1, 0], [ 9E+9,9E+9, 9E9, 9E9, 9E9, 9E9]];
CONST robtarget p322:= [[1137.104,96.626,500.2], [-1, 0, 0, 0],[-1, 0, 1, 0], [ 9E+9,9E+9, 9E9, 9E9, 9E9, 9E9]];
CONST robtarget p323:= [[1137.998,96.75399999999999,500.2], [-1, 0, 0, 0],[-1, 0, 1, 0], [ 9E+9,9E+9, 9E9, 9E9, 9E9, 9E9]];
CONST robtarget p324:= [[1138.927,96.84299999999999,500.2], [-1, 0, 0, 0],[-1, 0, 1, 0], [ 9E+9,9E+9, 9E9, 9E9, 9E9, 9E9]];
CONST robtarget p325:= [[1139.8899999999999,96.894,500.2], [-1, 0, 0, 0],[-1, 0, 1, 0], [ 9E+9,9E+9, 9E9, 9E9, 9E9, 9E9]];
CONST robtarget p326:= [[1140.887,96.905,500.2], [-1, 0, 0, 0],[-1, 0, 1, 0], [ 9E+9,9E+9, 9E9, 9E9, 9E9, 9E9]];
CONST robtarget p327:= [[1146.45,96.894,500.2], [-1, 0, 0, 0],[-1, 0, 1, 0], [ 9E+9,9E+9, 9E9, 9E9, 9E9, 9E9]];
CONST robtarget p328:= [[1146.349,38.095,500.2], [-1, 0, 0, 0],[-1, 0, 1, 0], [ 9E+9,9E+9, 9E9, 9E9, 9E9, 9E9]];
CONST robtarget p329:= [[1136.094,38.123999999999995,500.2], [-1, 0, 0, 0],[-1, 0, 1, 0], [ 9E+9,9E+9, 9E9, 9E9, 9E9, 9E9]];
CONST robtarget p330:= [[1136.092,83.124,500.2], [-1, 0, 0, 0],[-1, 0, 1, 0], [ 9E+9,9E+9, 9E9, 9E9, 9E9, 9E9]];
CONST robtarget p331:= [[1136.044,83.22300000000001,500.2], [-1, 0, 0, 0],[-1, 0, 1, 0], [ 9E+9,9E+9, 9E9, 9E9, 9E9, 9E9]];
CONST robtarget p332:= [[1135.927,83.287,500.2], [-1, 0, 0, 0],[-1, 0, 1, 0], [ 9E+9,9E+9, 9E9, 9E9, 9E9, 9E9]];
CONST robtarget p333:= [[1135.227,83.333,500.2], [-1, 0, 0, 0],[-1, 0, 1, 0], [ 9E+9,9E+9, 9E9, 9E9, 9E9, 9E9]];
CONST robtarget p334:= [[1134.537,83.30799999999999,500.2], [-1, 0, 0, 0],[-1, 0, 1, 0], [ 9E+9,9E+9, 9E9, 9E9, 9E9, 9E9]];
CONST robtarget p335:= [[1133.867,83.213,500.2], [-1, 0, 0, 0],[-1, 0, 1, 0], [ 9E+9,9E+9, 9E9, 9E9, 9E9, 9E9]];
CONST robtarget p336:= [[1133.159,83.043,500.2], [-1, 0, 0, 0],[-1, 0, 1, 0], [ 9E+9,9E+9, 9E9, 9E9, 9E9, 9E9]];
CONST robtarget p337:= [[1132.472,82.805,500.2], [-1, 0, 0, 0],[-1, 0, 1, 0], [ 9E+9,9E+9, 9E9, 9E9, 9E9, 9E9]];
CONST robtarget p338:= [[1131.788,82.5,500.2], [-1, 0, 0, 0],[-1, 0, 1, 0], [ 9E+9,9E+9, 9E9, 9E9, 9E9, 9E9]];
CONST robtarget p339:= [[1131.101,82.11600000000001,500.2], [-1, 0, 0, 0],[-1, 0, 1, 0], [ 9E+9,9E+9, 9E9, 9E9, 9E9, 9E9]];
CONST robtarget p340:= [[1130.421,81.66399999999999,500.2], [-1, 0, 0, 0],[-1, 0, 1, 0], [ 9E+9,9E+9, 9E9, 9E9, 9E9, 9E9]];
CONST robtarget p341:= [[1129.751,81.143,500.2], [-1, 0, 0, 0],[-1, 0, 1, 0], [ 9E+9,9E+9, 9E9, 9E9, 9E9, 9E9]];
CONST robtarget p342:= [[1129.089,80.54599999999999,500.2], [-1, 0, 0, 0],[-1, 0, 1, 0], [ 9E+9,9E+9, 9E9, 9E9, 9E9, 9E9]];
CONST robtarget p343:= [[1128.461,79.89500000000001,500.2], [-1, 0, 0, 0],[-1, 0, 1, 0], [ 9E+9,9E+9, 9E9, 9E9, 9E9, 9E9]];
CONST robtarget p344:= [[1127.837,79.155,500.2], [-1, 0, 0, 0],[-1, 0, 1, 0], [ 9E+9,9E+9, 9E9, 9E9, 9E9, 9E9]];
CONST robtarget p345:= [[1127.26,78.375,500.2], [-1, 0, 0, 0],[-1, 0, 1, 0], [ 9E+9,9E+9, 9E9, 9E9, 9E9, 9E9]];
CONST robtarget p346:= [[1126.703,77.509,500.2], [-1, 0, 0, 0],[-1, 0, 1, 0], [ 9E+9,9E+9, 9E9, 9E9, 9E9, 9E9]];
CONST robtarget p347:= [[1126.205,76.625,500.2], [-1, 0, 0, 0],[-1, 0, 1, 0], [ 9E+9,9E+9, 9E9, 9E9, 9E9, 9E9]];
CONST robtarget p348:= [[1125.719,75.629,500.2], [-1, 0, 0, 0],[-1, 0, 1, 0], [ 9E+9,9E+9, 9E9, 9E9, 9E9, 9E9]];
CONST robtarget p349:= [[1125.29,74.618,500.2], [-1, 0, 0, 0],[-1, 0, 1, 0], [ 9E+9,9E+9, 9E9, 9E9, 9E9, 9E9]];
CONST robtarget p350:= [[1124.904,73.555,500.2], [-1, 0, 0, 0],[-1, 0, 1, 0], [ 9E+9,9E+9, 9E9, 9E9, 9E9, 9E9]];
CONST robtarget p351:= [[1124.551,72.434,500.2], [-1, 0, 0, 0],[-1, 0, 1, 0], [ 9E+9,9E+9, 9E9, 9E9, 9E9, 9E9]];
CONST robtarget p352:= [[1124.242,71.293,500.2], [-1, 0, 0, 0],[-1, 0, 1, 0], [ 9E+9,9E+9, 9E9, 9E9, 9E9, 9E9]];
CONST robtarget p353:= [[1123.968,70.105,500.2], [-1, 0, 0, 0],[-1, 0, 1, 0], [ 9E+9,9E+9, 9E9, 9E9, 9E9, 9E9]];
CONST robtarget p354:= [[1123.729,68.893,500.2], [-1, 0, 0, 0],[-1, 0, 1, 0], [ 9E+9,9E+9, 9E9, 9E9, 9E9, 9E9]];
CONST robtarget p355:= [[1123.522,67.662,500.2], [-1, 0, 0, 0],[-1, 0, 1, 0], [ 9E+9,9E+9, 9E9, 9E9, 9E9, 9E9]];
CONST robtarget p356:= [[1123.342,66.391,500.2], [-1, 0, 0, 0],[-1, 0, 1, 0], [ 9E+9,9E+9, 9E9, 9E9, 9E9, 9E9]];
CONST robtarget p357:= [[1123.2069999999999,65.257,500.2], [-1, 0, 0, 0],[-1, 0, 1, 0], [ 9E+9,9E+9, 9E9, 9E9, 9E9, 9E9]];
CONST robtarget p358:= [[1123.065,63.813,500.2], [-1, 0, 0, 0],[-1, 0, 1, 0], [ 9E+9,9E+9, 9E9, 9E9, 9E9, 9E9]];
CONST robtarget p359:= [[1122.961,62.491,500.2], [-1, 0, 0, 0],[-1, 0, 1, 0], [ 9E+9,9E+9, 9E9, 9E9, 9E9, 9E9]];
CONST robtarget p360:= [[1122.87,60.989999999999995,500.2], [-1, 0, 0, 0],[-1, 0, 1, 0], [ 9E+9,9E+9, 9E9, 9E9, 9E9, 9E9]];
CONST robtarget p361:= [[1122.786,58.446,500.2], [-1, 0, 0, 0],[-1, 0, 1, 0], [ 9E+9,9E+9, 9E9, 9E9, 9E9, 9E9]];
CONST robtarget p362:= [[1122.773,51.650000000000006,500.2], [-1, 0, 0, 0],[-1, 0, 1, 0], [ 9E+9,9E+9, 9E9, 9E9, 9E9, 9E9]];
CONST robtarget p363:= [[1112.271,51.650000000000006,500.2], [-1, 0, 0, 0],[-1, 0, 1, 0], [ 9E+9,9E+9, 9E9, 9E9, 9E9, 9E9]];
CONST robtarget p364:= [[1112.271,56.712,500.2], [-1, 0, 0, 0],[-1, 0, 1, 0], [ 9E+9,9E+9, 9E9, 9E9, 9E9, 9E9]];
CONST robtarget p365:= [[1112.1970000000001,57.83,500.2], [-1, 0, 0, 0],[-1, 0, 1, 0], [ 9E+9,9E+9, 9E9, 9E9, 9E9, 9E9]];
CONST robtarget p366:= [[1112.109,58.935,500.2], [-1, 0, 0, 0],[-1, 0, 1, 0], [ 9E+9,9E+9, 9E9, 9E9, 9E9, 9E9]];
CONST robtarget p367:= [[1111.908,61.068,500.2], [-1, 0, 0, 0],[-1, 0, 1, 0], [ 9E+9,9E+9, 9E9, 9E9, 9E9, 9E9]];
CONST robtarget p368:= [[1111.794,62.099000000000004,500.2], [-1, 0, 0, 0],[-1, 0, 1, 0], [ 9E+9,9E+9, 9E9, 9E9, 9E9, 9E9]];
CONST robtarget p369:= [[1111.532,64.078,500.2], [-1, 0, 0, 0],[-1, 0, 1, 0], [ 9E+9,9E+9, 9E9, 9E9, 9E9, 9E9]];
CONST robtarget p370:= [[1111.234,65.954,500.2], [-1, 0, 0, 0],[-1, 0, 1, 0], [ 9E+9,9E+9, 9E9, 9E9, 9E9, 9E9]];
CONST robtarget p371:= [[1111.07,66.852,500.2], [-1, 0, 0, 0],[-1, 0, 1, 0], [ 9E+9,9E+9, 9E9, 9E9, 9E9, 9E9]];
CONST robtarget p372:= [[1110.898,67.722,500.2], [-1, 0, 0, 0],[-1, 0, 1, 0], [ 9E+9,9E+9, 9E9, 9E9, 9E9, 9E9]];
CONST robtarget p373:= [[1110.527,69.38,500.2], [-1, 0, 0, 0],[-1, 0, 1, 0], [ 9E+9,9E+9, 9E9, 9E9, 9E9, 9E9]];
CONST robtarget p374:= [[1110.33,70.165,500.2], [-1, 0, 0, 0],[-1, 0, 1, 0], [ 9E+9,9E+9, 9E9, 9E9, 9E9, 9E9]];
CONST robtarget p375:= [[1109.919,71.646,500.2], [-1, 0, 0, 0],[-1, 0, 1, 0], [ 9E+9,9E+9, 9E9, 9E9, 9E9, 9E9]];
CONST robtarget p376:= [[1109.705,72.338,500.2], [-1, 0, 0, 0],[-1, 0, 1, 0], [ 9E+9,9E+9, 9E9, 9E9, 9E9, 9E9]];
CONST robtarget p377:= [[1109.485,73.004,500.2], [-1, 0, 0, 0],[-1, 0, 1, 0], [ 9E+9,9E+9, 9E9, 9E9, 9E9, 9E9]];
CONST robtarget p378:= [[1109.264,73.635,500.2], [-1, 0, 0, 0],[-1, 0, 1, 0], [ 9E+9,9E+9, 9E9, 9E9, 9E9, 9E9]];
CONST robtarget p379:= [[1108.816,74.796,500.2], [-1, 0, 0, 0],[-1, 0, 1, 0], [ 9E+9,9E+9, 9E9, 9E9, 9E9, 9E9]];
CONST robtarget p380:= [[1108.585,75.339,500.2], [-1, 0, 0, 0],[-1, 0, 1, 0], [ 9E+9,9E+9, 9E9, 9E9, 9E9, 9E9]];
CONST robtarget p381:= [[1108.142,76.293,500.2], [-1, 0, 0, 0],[-1, 0, 1, 0], [ 9E+9,9E+9, 9E9, 9E9, 9E9, 9E9]];
CONST robtarget p382:= [[1107.919,76.732,500.2], [-1, 0, 0, 0],[-1, 0, 1, 0], [ 9E+9,9E+9, 9E9, 9E9, 9E9, 9E9]];
CONST robtarget p383:= [[1107.7,77.137,500.2], [-1, 0, 0, 0],[-1, 0, 1, 0], [ 9E+9,9E+9, 9E9, 9E9, 9E9, 9E9]];
CONST robtarget p384:= [[1107.267,77.87,500.2], [-1, 0, 0, 0],[-1, 0, 1, 0], [ 9E+9,9E+9, 9E9, 9E9, 9E9, 9E9]];
CONST robtarget p385:= [[1106.842,78.51599999999999,500.2], [-1, 0, 0, 0],[-1, 0, 1, 0], [ 9E+9,9E+9, 9E9, 9E9, 9E9, 9E9]];
CONST robtarget p386:= [[1106.42,79.096,500.2], [-1, 0, 0, 0],[-1, 0, 1, 0], [ 9E+9,9E+9, 9E9, 9E9, 9E9, 9E9]];
CONST robtarget p387:= [[1105.557,80.16300000000001,500.2], [-1, 0, 0, 0],[-1, 0, 1, 0], [ 9E+9,9E+9, 9E9, 9E9, 9E9, 9E9]];
CONST robtarget p388:= [[1105.12,80.649,500.2], [-1, 0, 0, 0],[-1, 0, 1, 0], [ 9E+9,9E+9, 9E9, 9E9, 9E9, 9E9]];
CONST robtarget p389:= [[1104.627,81.14500000000001,500.2], [-1, 0, 0, 0],[-1, 0, 1, 0], [ 9E+9,9E+9, 9E9, 9E9, 9E9, 9E9]];
CONST robtarget p390:= [[1104.1,81.607,500.2], [-1, 0, 0, 0],[-1, 0, 1, 0], [ 9E+9,9E+9, 9E9, 9E9, 9E9, 9E9]];
CONST robtarget p391:= [[1103.535,82.02600000000001,500.2], [-1, 0, 0, 0],[-1, 0, 1, 0], [ 9E+9,9E+9, 9E9, 9E9, 9E9, 9E9]];
CONST robtarget p392:= [[1102.93,82.388,500.2], [-1, 0, 0, 0],[-1, 0, 1, 0], [ 9E+9,9E+9, 9E9, 9E9, 9E9, 9E9]];
CONST robtarget p393:= [[1102.312,82.678,500.2], [-1, 0, 0, 0],[-1, 0, 1, 0], [ 9E+9,9E+9, 9E9, 9E9, 9E9, 9E9]];
CONST robtarget p394:= [[1101.6779999999999,82.90899999999999,500.2], [-1, 0, 0, 0],[-1, 0, 1, 0], [ 9E+9,9E+9, 9E9, 9E9, 9E9, 9E9]];
CONST robtarget p395:= [[1101.071,83.076,500.2], [-1, 0, 0, 0],[-1, 0, 1, 0], [ 9E+9,9E+9, 9E9, 9E9, 9E9, 9E9]];
CONST robtarget p396:= [[1100.503,83.195,500.2], [-1, 0, 0, 0],[-1, 0, 1, 0], [ 9E+9,9E+9, 9E9, 9E9, 9E9, 9E9]];
CONST robtarget p397:= [[1100.023,83.26599999999999,500.2], [-1, 0, 0, 0],[-1, 0, 1, 0], [ 9E+9,9E+9, 9E9, 9E9, 9E9, 9E9]];
CONST robtarget p398:= [[1099.607,83.304,500.2], [-1, 0, 0, 0],[-1, 0, 1, 0], [ 9E+9,9E+9, 9E9, 9E9, 9E9, 9E9]];
CONST robtarget p399:= [[1099.09,83.309,500.2], [-1, 0, 0, 0],[-1, 0, 1, 0], [ 9E+9,9E+9, 9E9, 9E9, 9E9, 9E9]];
CONST robtarget p400:= [[1098.863,83.21000000000001,500.2], [-1, 0, 0, 0],[-1, 0, 1, 0], [ 9E+9,9E+9, 9E9, 9E9, 9E9, 9E9]];
CONST robtarget p401:= [[1098.775,83.07300000000001,500.2], [-1, 0, 0, 0],[-1, 0, 1, 0], [ 9E+9,9E+9, 9E9, 9E9, 9E9, 9E9]];
CONST robtarget p402:= [[1098.773,38.203,500.2], [-1, 0, 0, 0],[-1, 0, 1, 0], [ 9E+9,9E+9, 9E9, 9E9, 9E9, 9E9]];
CONST robtarget p403:= [[1088.551,38.203,500.2], [-1, 0, 0, 0],[-1, 0, 1, 0], [ 9E+9,9E+9, 9E9, 9E9, 9E9, 9E9]];
CONST robtarget p404:= [[1088.551,96.71700000000001,500.2], [-1, 0, 0, 0],[-1, 0, 1, 0], [ 9E+9,9E+9, 9E9, 9E9, 9E9, 9E9]];
CONST robtarget p405:= [[1096.699,96.71700000000001,500.2], [-1, 0, 0, 0],[-1, 0, 1, 0], [ 9E+9,9E+9, 9E9, 9E9, 9E9, 9E9]];
CONST robtarget p406:= [[1098.287,96.434,500.2], [-1, 0, 0, 0],[-1, 0, 1, 0], [ 9E+9,9E+9, 9E9, 9E9, 9E9, 9E9]];
CONST robtarget p407:= [[1099.865,96.05600000000001,500.2], [-1, 0, 0, 0],[-1, 0, 1, 0], [ 9E+9,9E+9, 9E9, 9E9, 9E9, 9E9]];
CONST robtarget p408:= [[1101.41,95.589,500.2], [-1, 0, 0, 0],[-1, 0, 1, 0], [ 9E+9,9E+9, 9E9, 9E9, 9E9, 9E9]];
CONST robtarget p409:= [[1102.923,95.02600000000001,500.2], [-1, 0, 0, 0],[-1, 0, 1, 0], [ 9E+9,9E+9, 9E9, 9E9, 9E9, 9E9]];
CONST robtarget p410:= [[1104.411,94.363,500.2], [-1, 0, 0, 0],[-1, 0, 1, 0], [ 9E+9,9E+9, 9E9, 9E9, 9E9, 9E9]];
CONST robtarget p411:= [[1105.836,93.61600000000001,500.2], [-1, 0, 0, 0],[-1, 0, 1, 0], [ 9E+9,9E+9, 9E9, 9E9, 9E9, 9E9]];
CONST robtarget p412:= [[1107.233,92.77099999999999,500.2], [-1, 0, 0, 0],[-1, 0, 1, 0], [ 9E+9,9E+9, 9E9, 9E9, 9E9, 9E9]];
CONST robtarget p413:= [[1108.595,91.827,500.2], [-1, 0, 0, 0],[-1, 0, 1, 0], [ 9E+9,9E+9, 9E9, 9E9, 9E9, 9E9]];
CONST robtarget p414:= [[1109.893,90.811,500.2], [-1, 0, 0, 0],[-1, 0, 1, 0], [ 9E+9,9E+9, 9E9, 9E9, 9E9, 9E9]];
CONST robtarget p415:= [[1111.134,89.719,500.2], [-1, 0, 0, 0],[-1, 0, 1, 0], [ 9E+9,9E+9, 9E9, 9E9, 9E9, 9E9]];
CONST robtarget p416:= [[1112.32,88.559,500.2], [-1, 0, 0, 0],[-1, 0, 1, 0], [ 9E+9,9E+9, 9E9, 9E9, 9E9, 9E9]];
CONST robtarget p417:= [[1113.443,87.33699999999999,500.2], [-1, 0, 0, 0],[-1, 0, 1, 0], [ 9E+9,9E+9, 9E9, 9E9, 9E9, 9E9]];
CONST robtarget p418:= [[1114.503,86.06,500.2], [-1, 0, 0, 0],[-1, 0, 1, 0], [ 9E+9,9E+9, 9E9, 9E9, 9E9, 9E9]];
CONST robtarget p419:= [[1115.504,84.72900000000001,500.2], [-1, 0, 0, 0],[-1, 0, 1, 0], [ 9E+9,9E+9, 9E9, 9E9, 9E9, 9E9]];
CONST robtarget p420:= [[1116.449,83.34700000000001,500.2], [-1, 0, 0, 0],[-1, 0, 1, 0], [ 9E+9,9E+9, 9E9, 9E9, 9E9, 9E9]];
CONST robtarget p421:= [[1116.983,82.48400000000001,500.2], [-1, 0, 0, 0],[-1, 0, 1, 0], [ 9E+9,9E+9, 9E9, 9E9, 9E9, 9E9]];
CONST robtarget p422:= [[1117.354,81.88499999999999,500.2], [-1, 0, 0, 0],[-1, 0, 1, 0], [ 9E+9,9E+9, 9E9, 9E9, 9E9, 9E9]];
CONST robtarget p423:= [[1117.437,81.83699999999999,500.2], [-1, 0, 0, 0],[-1, 0, 1, 0], [ 9E+9,9E+9, 9E9, 9E9, 9E9, 9E9]];
CONST robtarget p424:= [[1117.437,81.83699999999999,500.2], [-1, 0, 0, 0],[-1, 0, 1, 0], [ 9E+9,9E+9, 9E9, 9E9, 9E9, 9E9]];
CONST robtarget p425:= [[1116.806,81.445,500.2], [-1, 0, 0, 0],[-1, 0, 1, 0], [ 9E+9,9E+9, 9E9, 9E9, 9E9, 9E9]];
CONST robtarget p426:= [[1113.749,85.464,500.2], [-1, 0, 0, 0],[-1, 0, 1, 0], [ 9E+9,9E+9, 9E9, 9E9, 9E9, 9E9]];
CONST robtarget p427:= [[1112.719,86.70500000000001,500.2], [-1, 0, 0, 0],[-1, 0, 1, 0], [ 9E+9,9E+9, 9E9, 9E9, 9E9, 9E9]];
CONST robtarget p428:= [[1111.629,87.88999999999999,500.2], [-1, 0, 0, 0],[-1, 0, 1, 0], [ 9E+9,9E+9, 9E9, 9E9, 9E9, 9E9]];
CONST robtarget p429:= [[1110.481,89.01400000000001,500.2], [-1, 0, 0, 0],[-1, 0, 1, 0], [ 9E+9,9E+9, 9E9, 9E9, 9E9, 9E9]];
CONST robtarget p430:= [[1109.279,90.071,500.2], [-1, 0, 0, 0],[-1, 0, 1, 0], [ 9E+9,9E+9, 9E9, 9E9, 9E9, 9E9]];
CONST robtarget p431:= [[1108.024,91.054,500.2], [-1, 0, 0, 0],[-1, 0, 1, 0], [ 9E+9,9E+9, 9E9, 9E9, 9E9, 9E9]];
CONST robtarget p432:= [[1106.709,91.964,500.2], [-1, 0, 0, 0],[-1, 0, 1, 0], [ 9E+9,9E+9, 9E9, 9E9, 9E9, 9E9]];
CONST robtarget p433:= [[1105.363,92.779,500.2], [-1, 0, 0, 0],[-1, 0, 1, 0], [ 9E+9,9E+9, 9E9, 9E9, 9E9, 9E9]];
CONST robtarget p434:= [[1103.992,93.499,500.2], [-1, 0, 0, 0],[-1, 0, 1, 0], [ 9E+9,9E+9, 9E9, 9E9, 9E9, 9E9]];
CONST robtarget p435:= [[1102.56,94.137,500.2], [-1, 0, 0, 0],[-1, 0, 1, 0], [ 9E+9,9E+9, 9E9, 9E9, 9E9, 9E9]];
CONST robtarget p436:= [[1101.102,94.678,500.2], [-1, 0, 0, 0],[-1, 0, 1, 0], [ 9E+9,9E+9, 9E9, 9E9, 9E9, 9E9]];
CONST robtarget p437:= [[1099.614,95.12899999999999,500.2], [-1, 0, 0, 0],[-1, 0, 1, 0], [ 9E+9,9E+9, 9E9, 9E9, 9E9, 9E9]];
CONST robtarget p438:= [[1098.09,95.493,500.2], [-1, 0, 0, 0],[-1, 0, 1, 0], [ 9E+9,9E+9, 9E9, 9E9, 9E9, 9E9]];
CONST robtarget p439:= [[1096.613,95.756,500.2], [-1, 0, 0, 0],[-1, 0, 1, 0], [ 9E+9,9E+9, 9E9, 9E9, 9E9, 9E9]];
CONST robtarget p440:= [[1089.523,95.745,500.2], [-1, 0, 0, 0],[-1, 0, 1, 0], [ 9E+9,9E+9, 9E9, 9E9, 9E9, 9E9]];
CONST robtarget p441:= [[1089.523,39.175,500.2], [-1, 0, 0, 0],[-1, 0, 1, 0], [ 9E+9,9E+9, 9E9, 9E9, 9E9, 9E9]];
CONST robtarget p442:= [[1097.801,39.175,500.2], [-1, 0, 0, 0],[-1, 0, 1, 0], [ 9E+9,9E+9, 9E9, 9E9, 9E9, 9E9]];
CONST robtarget p443:= [[1098.013,83.696,500.2], [-1, 0, 0, 0],[-1, 0, 1, 0], [ 9E+9,9E+9, 9E9, 9E9, 9E9, 9E9]];
CONST robtarget p444:= [[1100.11,84.22300000000001,500.2], [-1, 0, 0, 0],[-1, 0, 1, 0], [ 9E+9,9E+9, 9E9, 9E9, 9E9, 9E9]];
CONST robtarget p445:= [[1104.047,82.839,500.2], [-1, 0, 0, 0],[-1, 0, 1, 0], [ 9E+9,9E+9, 9E9, 9E9, 9E9, 9E9]];
CONST robtarget p446:= [[1108.07,78.398,500.2], [-1, 0, 0, 0],[-1, 0, 1, 0], [ 9E+9,9E+9, 9E9, 9E9, 9E9, 9E9]];
CONST robtarget p447:= [[1111.459,69.614,500.2], [-1, 0, 0, 0],[-1, 0, 1, 0], [ 9E+9,9E+9, 9E9, 9E9, 9E9, 9E9]];
CONST robtarget p448:= [[1113.23,56.777,500.2], [-1, 0, 0, 0],[-1, 0, 1, 0], [ 9E+9,9E+9, 9E9, 9E9, 9E9, 9E9]];
CONST robtarget p449:= [[1113.243,52.622,500.2], [-1, 0, 0, 0],[-1, 0, 1, 0], [ 9E+9,9E+9, 9E9, 9E9, 9E9, 9E9]];
CONST robtarget p450:= [[1121.8029999999999,52.622,500.2], [-1, 0, 0, 0],[-1, 0, 1, 0], [ 9E+9,9E+9, 9E9, 9E9, 9E9, 9E9]];
CONST robtarget p451:= [[1122.571,67.796,500.2], [-1, 0, 0, 0],[-1, 0, 1, 0], [ 9E+9,9E+9, 9E9, 9E9, 9E9, 9E9]];
CONST robtarget p452:= [[1124.861,76.061,500.2], [-1, 0, 0, 0],[-1, 0, 1, 0], [ 9E+9,9E+9, 9E9, 9E9, 9E9, 9E9]];
CONST robtarget p453:= [[1128.396,81.213,500.2], [-1, 0, 0, 0],[-1, 0, 1, 0], [ 9E+9,9E+9, 9E9, 9E9, 9E9, 9E9]];
CONST robtarget p454:= [[1130.999,83.184,500.2], [-1, 0, 0, 0],[-1, 0, 1, 0], [ 9E+9,9E+9, 9E9, 9E9, 9E9, 9E9]];
CONST robtarget p455:= [[1133.741,83.84100000000001,500.2], [-1, 0, 0, 0],[-1, 0, 1, 0], [ 9E+9,9E+9, 9E9, 9E9, 9E9, 9E9]];
CONST robtarget p456:= [[1134.956,83.947,500.2], [-1, 0, 0, 0],[-1, 0, 1, 0], [ 9E+9,9E+9, 9E9, 9E9, 9E9, 9E9]];
CONST robtarget p457:= [[1136.6779999999999,83.881,500.2], [-1, 0, 0, 0],[-1, 0, 1, 0], [ 9E+9,9E+9, 9E9, 9E9, 9E9, 9E9]];
CONST robtarget p458:= [[1136.6779999999999,83.881,500.2], [-1, 0, 0, 0],[-1, 0, 1, 0], [ 9E+9,9E+9, 9E9, 9E9, 9E9, 9E9]];
CONST robtarget p459:= [[1136.8600000000001,84.066,500.2], [-1, 0, 0, 0],[-1, 0, 1, 0], [ 9E+9,9E+9, 9E9, 9E9, 9E9, 9E9]];
CONST robtarget p460:= [[1137.121,83.685,500.2], [-1, 0, 0, 0],[-1, 0, 1, 0], [ 9E+9,9E+9, 9E9, 9E9, 9E9, 9E9]];
CONST robtarget p461:= [[1137.252,83.27199999999999,500.2], [-1, 0, 0, 0],[-1, 0, 1, 0], [ 9E+9,9E+9, 9E9, 9E9, 9E9, 9E9]];
CONST robtarget p462:= [[1137.254,39.282,500.2], [-1, 0, 0, 0],[-1, 0, 1, 0], [ 9E+9,9E+9, 9E9, 9E9, 9E9, 9E9]];
CONST robtarget p463:= [[1145.19,39.257999999999996,500.2], [-1, 0, 0, 0],[-1, 0, 1, 0], [ 9E+9,9E+9, 9E9, 9E9, 9E9, 9E9]];
CONST robtarget p464:= [[1145.289,95.73500000000001,500.2], [-1, 0, 0, 0],[-1, 0, 1, 0], [ 9E+9,9E+9, 9E9, 9E9, 9E9, 9E9]];
CONST robtarget p465:= [[1140.916,95.745,500.2], [-1, 0, 0, 0],[-1, 0, 1, 0], [ 9E+9,9E+9, 9E9, 9E9, 9E9, 9E9]];
CONST robtarget p466:= [[1139.936,95.73400000000001,500.2], [-1, 0, 0, 0],[-1, 0, 1, 0], [ 9E+9,9E+9, 9E9, 9E9, 9E9, 9E9]];
CONST robtarget p467:= [[1139.007,95.685,500.2], [-1, 0, 0, 0],[-1, 0, 1, 0], [ 9E+9,9E+9, 9E9, 9E9, 9E9, 9E9]];
CONST robtarget p468:= [[1138.129,95.601,500.2], [-1, 0, 0, 0],[-1, 0, 1, 0], [ 9E+9,9E+9, 9E9, 9E9, 9E9, 9E9]];
CONST robtarget p469:= [[1137.304,95.482,500.2], [-1, 0, 0, 0],[-1, 0, 1, 0], [ 9E+9,9E+9, 9E9, 9E9, 9E9, 9E9]];
CONST robtarget p470:= [[1136.452,95.31899999999999,500.2], [-1, 0, 0, 0],[-1, 0, 1, 0], [ 9E+9,9E+9, 9E9, 9E9, 9E9, 9E9]];
CONST robtarget p471:= [[1135.512,95.089,500.2], [-1, 0, 0, 0],[-1, 0, 1, 0], [ 9E+9,9E+9, 9E9, 9E9, 9E9, 9E9]];
CONST robtarget p472:= [[1134.91,94.91900000000001,500.2], [-1, 0, 0, 0],[-1, 0, 1, 0], [ 9E+9,9E+9, 9E9, 9E9, 9E9, 9E9]];
CONST robtarget p473:= [[1134.059,94.631,500.2], [-1, 0, 0, 0],[-1, 0, 1, 0], [ 9E+9,9E+9, 9E9, 9E9, 9E9, 9E9]];
CONST robtarget p474:= [[1133.2640000000001,94.322,500.2], [-1, 0, 0, 0],[-1, 0, 1, 0], [ 9E+9,9E+9, 9E9, 9E9, 9E9, 9E9]];
CONST robtarget p475:= [[1132.529,94.00299999999999,500.2], [-1, 0, 0, 0],[-1, 0, 1, 0], [ 9E+9,9E+9, 9E9, 9E9, 9E9, 9E9]];
CONST robtarget p476:= [[1131.79,93.649,500.2], [-1, 0, 0, 0],[-1, 0, 1, 0], [ 9E+9,9E+9, 9E9, 9E9, 9E9, 9E9]];
CONST robtarget p477:= [[1131.05,93.267,500.2], [-1, 0, 0, 0],[-1, 0, 1, 0], [ 9E+9,9E+9, 9E9, 9E9, 9E9, 9E9]];
CONST robtarget p478:= [[1129.629,92.46199999999999,500.2], [-1, 0, 0, 0],[-1, 0, 1, 0], [ 9E+9,9E+9, 9E9, 9E9, 9E9, 9E9]];
CONST robtarget p479:= [[1128.3029999999999,91.63900000000001,500.2], [-1, 0, 0, 0],[-1, 0, 1, 0], [ 9E+9,9E+9, 9E9, 9E9, 9E9, 9E9]];
CONST robtarget p480:= [[1127.023,90.773,500.2], [-1, 0, 0, 0],[-1, 0, 1, 0], [ 9E+9,9E+9, 9E9, 9E9, 9E9, 9E9]];
CONST robtarget p481:= [[1125.77,89.844,500.2], [-1, 0, 0, 0],[-1, 0, 1, 0], [ 9E+9,9E+9, 9E9, 9E9, 9E9, 9E9]];
CONST robtarget p482:= [[1125.203,89.387,500.2], [-1, 0, 0, 0],[-1, 0, 1, 0], [ 9E+9,9E+9, 9E9, 9E9, 9E9, 9E9]];
CONST robtarget p483:= [[1124.601,88.86600000000001,500.2], [-1, 0, 0, 0],[-1, 0, 1, 0], [ 9E+9,9E+9, 9E9, 9E9, 9E9, 9E9]];
CONST robtarget p484:= [[1124.026,88.33500000000001,500.2], [-1, 0, 0, 0],[-1, 0, 1, 0], [ 9E+9,9E+9, 9E9, 9E9, 9E9, 9E9]];
CONST robtarget p485:= [[1123.411,87.715,500.2], [-1, 0, 0, 0],[-1, 0, 1, 0], [ 9E+9,9E+9, 9E9, 9E9, 9E9, 9E9]];
CONST robtarget p486:= [[1122.893,87.167,500.2], [-1, 0, 0, 0],[-1, 0, 1, 0], [ 9E+9,9E+9, 9E9, 9E9, 9E9, 9E9]];
CONST robtarget p487:= [[1122.291,86.47800000000001,500.2], [-1, 0, 0, 0],[-1, 0, 1, 0], [ 9E+9,9E+9, 9E9, 9E9, 9E9, 9E9]];
CONST robtarget p488:= [[1121.69,85.739,500.2], [-1, 0, 0, 0],[-1, 0, 1, 0], [ 9E+9,9E+9, 9E9, 9E9, 9E9, 9E9]];
CONST robtarget p489:= [[1121.138,85.017,500.2], [-1, 0, 0, 0],[-1, 0, 1, 0], [ 9E+9,9E+9, 9E9, 9E9, 9E9, 9E9]];
CONST robtarget p490:= [[1120.494,84.12899999999999,500.2], [-1, 0, 0, 0],[-1, 0, 1, 0], [ 9E+9,9E+9, 9E9, 9E9, 9E9, 9E9]];
CONST robtarget p491:= [[1119.844,83.18199999999999,500.2], [-1, 0, 0, 0],[-1, 0, 1, 0], [ 9E+9,9E+9, 9E9, 9E9, 9E9, 9E9]];
CONST robtarget p492:= [[1119.318,82.368,500.2], [-1, 0, 0, 0],[-1, 0, 1, 0], [ 9E+9,9E+9, 9E9, 9E9, 9E9, 9E9]];
CONST robtarget p493:= [[1118.581,81.196,500.2], [-1, 0, 0, 0],[-1, 0, 1, 0], [ 9E+9,9E+9, 9E9, 9E9, 9E9, 9E9]];
CONST robtarget p494:= [[1118.396,80.99799999999999,500.2], [-1, 0, 0, 0],[-1, 0, 1, 0], [ 9E+9,9E+9, 9E9, 9E9, 9E9, 9E9]];
CONST robtarget p495:= [[1118.112,80.81,500.2], [-1, 0, 0, 0],[-1, 0, 1, 0], [ 9E+9,9E+9, 9E9, 9E9, 9E9, 9E9]];
CONST robtarget p496:= [[1117.837,80.709,500.2], [-1, 0, 0, 0],[-1, 0, 1, 0], [ 9E+9,9E+9, 9E9, 9E9, 9E9, 9E9]];
CONST robtarget p497:= [[1117.424,80.65199999999999,500.2], [-1, 0, 0, 0],[-1, 0, 1, 0], [ 9E+9,9E+9, 9E9, 9E9, 9E9, 9E9]];
CONST robtarget p498:= [[1117.025,80.75299999999999,500.2], [-1, 0, 0, 0],[-1, 0, 1, 0], [ 9E+9,9E+9, 9E9, 9E9, 9E9, 9E9]];
CONST robtarget p499:= [[1116.689,80.91999999999999,500.2], [-1, 0, 0, 0],[-1, 0, 1, 0], [ 9E+9,9E+9, 9E9, 9E9, 9E9, 9E9]];
CONST robtarget p500:= [[1116.4,81.22300000000001,500.2], [-1, 0, 0, 0],[-1, 0, 1, 0], [ 9E+9,9E+9, 9E9, 9E9, 9E9, 9E9]];
CONST robtarget p501:= [[1115.482,82.707,500.2], [-1, 0, 0, 0],[-1, 0, 1, 0], [ 9E+9,9E+9, 9E9, 9E9, 9E9, 9E9]];
CONST robtarget p502:= [[1114.565,84.04599999999999,500.2], [-1, 0, 0, 0],[-1, 0, 1, 0], [ 9E+9,9E+9, 9E9, 9E9, 9E9, 9E9]];
CONST robtarget p503:= [[1113.597,85.33500000000001,500.2], [-1, 0, 0, 0],[-1, 0, 1, 0], [ 9E+9,9E+9, 9E9, 9E9, 9E9, 9E9]];
CONST robtarget p504:= [[1112.573,86.566,500.2], [-1, 0, 0, 0],[-1, 0, 1, 0], [ 9E+9,9E+9, 9E9, 9E9, 9E9, 9E9]];
CONST robtarget p505:= [[1111.479,87.757,500.2], [-1, 0, 0, 0],[-1, 0, 1, 0], [ 9E+9,9E+9, 9E9, 9E9, 9E9, 9E9]];
CONST robtarget p506:= [[1110.351,88.86099999999999,500.2], [-1, 0, 0, 0],[-1, 0, 1, 0], [ 9E+9,9E+9, 9E9, 9E9, 9E9, 9E9]];
CONST robtarget p507:= [[1109.159,89.912,500.2], [-1, 0, 0, 0],[-1, 0, 1, 0], [ 9E+9,9E+9, 9E9, 9E9, 9E9, 9E9]];
CONST robtarget p508:= [[1107.914,90.886,500.2], [-1, 0, 0, 0],[-1, 0, 1, 0], [ 9E+9,9E+9, 9E9, 9E9, 9E9, 9E9]];
CONST robtarget p509:= [[1106.593,91.80199999999999,500.2], [-1, 0, 0, 0],[-1, 0, 1, 0], [ 9E+9,9E+9, 9E9, 9E9, 9E9, 9E9]];
CONST robtarget p510:= [[1105.273,92.601,500.2], [-1, 0, 0, 0],[-1, 0, 1, 0], [ 9E+9,9E+9, 9E9, 9E9, 9E9, 9E9]];
CONST robtarget p511:= [[1103.914,93.31299999999999,500.2], [-1, 0, 0, 0],[-1, 0, 1, 0], [ 9E+9,9E+9, 9E9, 9E9, 9E9, 9E9]];
CONST robtarget p512:= [[1102.488,93.94900000000001,500.2], [-1, 0, 0, 0],[-1, 0, 1, 0], [ 9E+9,9E+9, 9E9, 9E9, 9E9, 9E9]];
CONST robtarget p513:= [[1101.033,94.49100000000001,500.2], [-1, 0, 0, 0],[-1, 0, 1, 0], [ 9E+9,9E+9, 9E9, 9E9, 9E9, 9E9]];
CONST robtarget p514:= [[1099.571,94.93299999999999,500.2], [-1, 0, 0, 0],[-1, 0, 1, 0], [ 9E+9,9E+9, 9E9, 9E9, 9E9, 9E9]];
CONST robtarget p515:= [[1098.0529999999999,95.297,500.2], [-1, 0, 0, 0],[-1, 0, 1, 0], [ 9E+9,9E+9, 9E9, 9E9, 9E9, 9E9]];
CONST robtarget p516:= [[1096.601,95.55600000000001,500.2], [-1, 0, 0, 0],[-1, 0, 1, 0], [ 9E+9,9E+9, 9E9, 9E9, 9E9, 9E9]];
CONST robtarget p517:= [[1089.712,95.55600000000001,500.2], [-1, 0, 0, 0],[-1, 0, 1, 0], [ 9E+9,9E+9, 9E9, 9E9, 9E9, 9E9]];
CONST robtarget p518:= [[1089.711,39.363,500.2], [-1, 0, 0, 0],[-1, 0, 1, 0], [ 9E+9,9E+9, 9E9, 9E9, 9E9, 9E9]];
CONST robtarget p519:= [[1097.613,39.363,500.2], [-1, 0, 0, 0],[-1, 0, 1, 0], [ 9E+9,9E+9, 9E9, 9E9, 9E9, 9E9]];
CONST robtarget p520:= [[1097.615,83.201,500.2], [-1, 0, 0, 0],[-1, 0, 1, 0], [ 9E+9,9E+9, 9E9, 9E9, 9E9, 9E9]];
CONST robtarget p521:= [[1097.671,83.43700000000001,500.2], [-1, 0, 0, 0],[-1, 0, 1, 0], [ 9E+9,9E+9, 9E9, 9E9, 9E9, 9E9]];
CONST robtarget p522:= [[1097.848,83.80600000000001,500.2], [-1, 0, 0, 0],[-1, 0, 1, 0], [ 9E+9,9E+9, 9E9, 9E9, 9E9, 9E9]];
CONST robtarget p523:= [[1098.091,84.08000000000001,500.2], [-1, 0, 0, 0],[-1, 0, 1, 0], [ 9E+9,9E+9, 9E9, 9E9, 9E9, 9E9]];
CONST robtarget p524:= [[1098.37,84.263,500.2], [-1, 0, 0, 0],[-1, 0, 1, 0], [ 9E+9,9E+9, 9E9, 9E9, 9E9, 9E9]];
CONST robtarget p525:= [[1098.687,84.398,500.2], [-1, 0, 0, 0],[-1, 0, 1, 0], [ 9E+9,9E+9, 9E9, 9E9, 9E9, 9E9]];
CONST robtarget p526:= [[1099.006,84.47999999999999,500.2], [-1, 0, 0, 0],[-1, 0, 1, 0], [ 9E+9,9E+9, 9E9, 9E9, 9E9, 9E9]];
CONST robtarget p527:= [[1099.71,84.46000000000001,500.2], [-1, 0, 0, 0],[-1, 0, 1, 0], [ 9E+9,9E+9, 9E9, 9E9, 9E9, 9E9]];
CONST robtarget p528:= [[1100.137,84.42099999999999,500.2], [-1, 0, 0, 0],[-1, 0, 1, 0], [ 9E+9,9E+9, 9E9, 9E9, 9E9, 9E9]];
CONST robtarget p529:= [[1100.763,84.326,500.2], [-1, 0, 0, 0],[-1, 0, 1, 0], [ 9E+9,9E+9, 9E9, 9E9, 9E9, 9E9]];
CONST robtarget p530:= [[1101.285,84.21700000000001,500.2], [-1, 0, 0, 0],[-1, 0, 1, 0], [ 9E+9,9E+9, 9E9, 9E9, 9E9, 9E9]];
CONST robtarget p531:= [[1102.0819999999999,83.99700000000001,500.2], [-1, 0, 0, 0],[-1, 0, 1, 0], [ 9E+9,9E+9, 9E9, 9E9, 9E9, 9E9]];
CONST robtarget p532:= [[1102.7930000000001,83.73400000000001,500.2], [-1, 0, 0, 0],[-1, 0, 1, 0], [ 9E+9,9E+9, 9E9, 9E9, 9E9, 9E9]];
CONST robtarget p533:= [[1103.481,83.412,500.2], [-1, 0, 0, 0],[-1, 0, 1, 0], [ 9E+9,9E+9, 9E9, 9E9, 9E9, 9E9]];
CONST robtarget p534:= [[1104.149,83.011,500.2], [-1, 0, 0, 0],[-1, 0, 1, 0], [ 9E+9,9E+9, 9E9, 9E9, 9E9, 9E9]];
CONST robtarget p535:= [[1104.8319999999999,82.50800000000001,500.2], [-1, 0, 0, 0],[-1, 0, 1, 0], [ 9E+9,9E+9, 9E9, 9E9, 9E9, 9E9]];
CONST robtarget p536:= [[1105.448,81.96700000000001,500.2], [-1, 0, 0, 0],[-1, 0, 1, 0], [ 9E+9,9E+9, 9E9, 9E9, 9E9, 9E9]];
CONST robtarget p537:= [[1105.965,81.445,500.2], [-1, 0, 0, 0],[-1, 0, 1, 0], [ 9E+9,9E+9, 9E9, 9E9, 9E9, 9E9]];
CONST robtarget p538:= [[1106.4569999999999,80.89699999999999,500.2], [-1, 0, 0, 0],[-1, 0, 1, 0], [ 9E+9,9E+9, 9E9, 9E9, 9E9, 9E9]];
CONST robtarget p539:= [[1107.354,79.78800000000001,500.2], [-1, 0, 0, 0],[-1, 0, 1, 0], [ 9E+9,9E+9, 9E9, 9E9, 9E9, 9E9]];
CONST robtarget p540:= [[1107.811,79.16,500.2], [-1, 0, 0, 0],[-1, 0, 1, 0], [ 9E+9,9E+9, 9E9, 9E9, 9E9, 9E9]];
CONST robtarget p541:= [[1108.242,78.5,500.2], [-1, 0, 0, 0],[-1, 0, 1, 0], [ 9E+9,9E+9, 9E9, 9E9, 9E9, 9E9]];
CONST robtarget p542:= [[1108.704,77.723,500.2], [-1, 0, 0, 0],[-1, 0, 1, 0], [ 9E+9,9E+9, 9E9, 9E9, 9E9, 9E9]];
CONST robtarget p543:= [[1109.069,77.048,500.2], [-1, 0, 0, 0],[-1, 0, 1, 0], [ 9E+9,9E+9, 9E9, 9E9, 9E9, 9E9]];
CONST robtarget p544:= [[1109.635,75.834,500.2], [-1, 0, 0, 0],[-1, 0, 1, 0], [ 9E+9,9E+9, 9E9, 9E9, 9E9, 9E9]];
CONST robtarget p545:= [[1109.891,75.232,500.2], [-1, 0, 0, 0],[-1, 0, 1, 0], [ 9E+9,9E+9, 9E9, 9E9, 9E9, 9E9]];
CONST robtarget p546:= [[1110.344,74.063,500.2], [-1, 0, 0, 0],[-1, 0, 1, 0], [ 9E+9,9E+9, 9E9, 9E9, 9E9, 9E9]];
CONST robtarget p547:= [[1110.589,73.361,500.2], [-1, 0, 0, 0],[-1, 0, 1, 0], [ 9E+9,9E+9, 9E9, 9E9, 9E9, 9E9]];
CONST robtarget p548:= [[1111.01,72.045,500.2], [-1, 0, 0, 0],[-1, 0, 1, 0], [ 9E+9,9E+9, 9E9, 9E9, 9E9, 9E9]];
CONST robtarget p549:= [[1111.45,70.471,500.2], [-1, 0, 0, 0],[-1, 0, 1, 0], [ 9E+9,9E+9, 9E9, 9E9, 9E9, 9E9]];
CONST robtarget p550:= [[1111.654,69.658,500.2], [-1, 0, 0, 0],[-1, 0, 1, 0], [ 9E+9,9E+9, 9E9, 9E9, 9E9, 9E9]];
CONST robtarget p551:= [[1112.037,67.942,500.2], [-1, 0, 0, 0],[-1, 0, 1, 0], [ 9E+9,9E+9, 9E9, 9E9, 9E9, 9E9]];
CONST robtarget p552:= [[1112.367,66.217,500.2], [-1, 0, 0, 0],[-1, 0, 1, 0], [ 9E+9,9E+9, 9E9, 9E9, 9E9, 9E9]];
CONST robtarget p553:= [[1112.676,64.272,500.2], [-1, 0, 0, 0],[-1, 0, 1, 0], [ 9E+9,9E+9, 9E9, 9E9, 9E9, 9E9]];
CONST robtarget p554:= [[1112.945,62.248999999999995,500.2], [-1, 0, 0, 0],[-1, 0, 1, 0], [ 9E+9,9E+9, 9E9, 9E9, 9E9, 9E9]];
CONST robtarget p555:= [[1113.06,61.19799999999999,500.2], [-1, 0, 0, 0],[-1, 0, 1, 0], [ 9E+9,9E+9, 9E9, 9E9, 9E9, 9E9]];
CONST robtarget p556:= [[1113.263,59.041,500.2], [-1, 0, 0, 0],[-1, 0, 1, 0], [ 9E+9,9E+9, 9E9, 9E9, 9E9, 9E9]];
CONST robtarget p557:= [[1113.355,57.92,500.2], [-1, 0, 0, 0],[-1, 0, 1, 0], [ 9E+9,9E+9, 9E9, 9E9, 9E9, 9E9]];
CONST robtarget p558:= [[1113.429,56.801,500.2], [-1, 0, 0, 0],[-1, 0, 1, 0], [ 9E+9,9E+9, 9E9, 9E9, 9E9, 9E9]];
CONST robtarget p559:= [[1113.431,52.81,500.2], [-1, 0, 0, 0],[-1, 0, 1, 0], [ 9E+9,9E+9, 9E9, 9E9, 9E9, 9E9]];
CONST robtarget p560:= [[1121.614,52.81,500.2], [-1, 0, 0, 0],[-1, 0, 1, 0], [ 9E+9,9E+9, 9E9, 9E9, 9E9, 9E9]];
CONST robtarget p561:= [[1121.626,58.480999999999995,500.2], [-1, 0, 0, 0],[-1, 0, 1, 0], [ 9E+9,9E+9, 9E9, 9E9, 9E9, 9E9]];
CONST robtarget p562:= [[1121.71,61.033,500.2], [-1, 0, 0, 0],[-1, 0, 1, 0], [ 9E+9,9E+9, 9E9, 9E9, 9E9, 9E9]];
CONST robtarget p563:= [[1121.802,62.559,500.2], [-1, 0, 0, 0],[-1, 0, 1, 0], [ 9E+9,9E+9, 9E9, 9E9, 9E9, 9E9]];
CONST robtarget p564:= [[1121.909,63.908,500.2], [-1, 0, 0, 0],[-1, 0, 1, 0], [ 9E+9,9E+9, 9E9, 9E9, 9E9, 9E9]];
CONST robtarget p565:= [[1122.069,65.515,500.2], [-1, 0, 0, 0],[-1, 0, 1, 0], [ 9E+9,9E+9, 9E9, 9E9, 9E9, 9E9]];
CONST robtarget p566:= [[1122.189,66.523,500.2], [-1, 0, 0, 0],[-1, 0, 1, 0], [ 9E+9,9E+9, 9E9, 9E9, 9E9, 9E9]];
CONST robtarget p567:= [[1122.38,67.872,500.2], [-1, 0, 0, 0],[-1, 0, 1, 0], [ 9E+9,9E+9, 9E9, 9E9, 9E9, 9E9]];
CONST robtarget p568:= [[1122.584,69.08,500.2], [-1, 0, 0, 0],[-1, 0, 1, 0], [ 9E+9,9E+9, 9E9, 9E9, 9E9, 9E9]];
CONST robtarget p569:= [[1122.829,70.323,500.2], [-1, 0, 0, 0],[-1, 0, 1, 0], [ 9E+9,9E+9, 9E9, 9E9, 9E9, 9E9]];
CONST robtarget p570:= [[1123.11,71.547,500.2], [-1, 0, 0, 0],[-1, 0, 1, 0], [ 9E+9,9E+9, 9E9, 9E9, 9E9, 9E9]];
CONST robtarget p571:= [[1123.429,72.729,500.2], [-1, 0, 0, 0],[-1, 0, 1, 0], [ 9E+9,9E+9, 9E9, 9E9, 9E9, 9E9]];
CONST robtarget p572:= [[1123.809,73.939,500.2], [-1, 0, 0, 0],[-1, 0, 1, 0], [ 9E+9,9E+9, 9E9, 9E9, 9E9, 9E9]];
CONST robtarget p573:= [[1124.191,74.994,500.2], [-1, 0, 0, 0],[-1, 0, 1, 0], [ 9E+9,9E+9, 9E9, 9E9, 9E9, 9E9]];
CONST robtarget p574:= [[1124.68,76.147,500.2], [-1, 0, 0, 0],[-1, 0, 1, 0], [ 9E+9,9E+9, 9E9, 9E9, 9E9, 9E9]];
CONST robtarget p575:= [[1125.194,77.196,500.2], [-1, 0, 0, 0],[-1, 0, 1, 0], [ 9E+9,9E+9, 9E9, 9E9, 9E9, 9E9]];
CONST robtarget p576:= [[1125.712,78.112,500.2], [-1, 0, 0, 0],[-1, 0, 1, 0], [ 9E+9,9E+9, 9E9, 9E9, 9E9, 9E9]];
CONST robtarget p577:= [[1126.302,79.03200000000001,500.2], [-1, 0, 0, 0],[-1, 0, 1, 0], [ 9E+9,9E+9, 9E9, 9E9, 9E9, 9E9]];
CONST robtarget p578:= [[1126.953,79.906,500.2], [-1, 0, 0, 0],[-1, 0, 1, 0], [ 9E+9,9E+9, 9E9, 9E9, 9E9, 9E9]];
CONST robtarget p579:= [[1127.574,80.64500000000001,500.2], [-1, 0, 0, 0],[-1, 0, 1, 0], [ 9E+9,9E+9, 9E9, 9E9, 9E9, 9E9]];
CONST robtarget p580:= [[1128.247,81.34800000000001,500.2], [-1, 0, 0, 0],[-1, 0, 1, 0], [ 9E+9,9E+9, 9E9, 9E9, 9E9, 9E9]];
CONST robtarget p581:= [[1129.051,82.071,500.2], [-1, 0, 0, 0],[-1, 0, 1, 0], [ 9E+9,9E+9, 9E9, 9E9, 9E9, 9E9]];
CONST robtarget p582:= [[1129.781,82.63300000000001,500.2], [-1, 0, 0, 0],[-1, 0, 1, 0], [ 9E+9,9E+9, 9E9, 9E9, 9E9, 9E9]];
CONST robtarget p583:= [[1130.452,83.08000000000001,500.2], [-1, 0, 0, 0],[-1, 0, 1, 0], [ 9E+9,9E+9, 9E9, 9E9, 9E9, 9E9]];
CONST robtarget p584:= [[1131.26,83.53299999999999,500.2], [-1, 0, 0, 0],[-1, 0, 1, 0], [ 9E+9,9E+9, 9E9, 9E9, 9E9, 9E9]];
CONST robtarget p585:= [[1132.098,83.904,500.2], [-1, 0, 0, 0],[-1, 0, 1, 0], [ 9E+9,9E+9, 9E9, 9E9, 9E9, 9E9]];
CONST robtarget p586:= [[1132.892,84.173,500.2], [-1, 0, 0, 0],[-1, 0, 1, 0], [ 9E+9,9E+9, 9E9, 9E9, 9E9, 9E9]];
CONST robtarget p587:= [[1133.69,84.357,500.2], [-1, 0, 0, 0],[-1, 0, 1, 0], [ 9E+9,9E+9, 9E9, 9E9, 9E9, 9E9]];
CONST robtarget p588:= [[1134.431,84.465,500.2], [-1, 0, 0, 0],[-1, 0, 1, 0], [ 9E+9,9E+9, 9E9, 9E9, 9E9, 9E9]];
CONST robtarget p589:= [[1135.191,84.493,500.2], [-1, 0, 0, 0],[-1, 0, 1, 0], [ 9E+9,9E+9, 9E9, 9E9, 9E9, 9E9]];
CONST robtarget p590:= [[1136.144,84.43700000000001,500.2], [-1, 0, 0, 0],[-1, 0, 1, 0], [ 9E+9,9E+9, 9E9, 9E9, 9E9, 9E9]];
CONST robtarget p591:= [[1136.156,84.43199999999999,500.2], [-1, 0, 0, 0],[-1, 0, 1, 0], [ 9E+9,9E+9, 9E9, 9E9, 9E9, 9E9]];
CONST robtarget p592:= [[1136.516,84.30099999999999,500.2], [-1, 0, 0, 0],[-1, 0, 1, 0], [ 9E+9,9E+9, 9E9, 9E9, 9E9, 9E9]];
CONST robtarget p593:= [[1136.8600000000001,84.066,500.2], [-1, 0, 0, 0],[-1, 0, 1, 0], [ 9E+9,9E+9, 9E9, 9E9, 9E9, 9E9]];
CONST robtarget p594:= [[1136.8600000000001,84.066,500.2], [-1, 0, 0, 0],[-1, 0, 1, 0], [ 9E+9,9E+9, 9E9, 9E9, 9E9, 9E9]];
CONST robtarget p595:= [[1136.6779999999999,83.881,500.2], [-1, 0, 0, 0],[-1, 0, 1, 0], [ 9E+9,9E+9, 9E9, 9E9, 9E9, 9E9]];
CONST robtarget p596:= [[1137.066,39.093,500.2], [-1, 0, 0, 0],[-1, 0, 1, 0], [ 9E+9,9E+9, 9E9, 9E9, 9E9, 9E9]];
CONST robtarget p597:= [[1145.379,39.06999999999999,500.2], [-1, 0, 0, 0],[-1, 0, 1, 0], [ 9E+9,9E+9, 9E9, 9E9, 9E9, 9E9]];
CONST robtarget p598:= [[1145.452,39.55200000000001,500.2], [-1, 0, 0, 0],[-1, 0, 1, 0], [ 9E+9,9E+9, 9E9, 9E9, 9E9, 9E9]];
CONST robtarget p599:= [[1145.452,39.55200000000001,500.2], [-1, 0, 0, 0],[-1, 0, 1, 0], [ 9E+9,9E+9, 9E9, 9E9, 9E9, 9E9]];
CONST robtarget p600:= [[1144.99,39.55200000000001,500.2], [-1, 0, 0, 0],[-1, 0, 1, 0], [ 9E+9,9E+9, 9E9, 9E9, 9E9, 9E9]];
CONST robtarget p601:= [[1144.896,39.459,500.2], [-1, 0, 0, 0],[-1, 0, 1, 0], [ 9E+9,9E+9, 9E9, 9E9, 9E9, 9E9]];
CONST robtarget p602:= [[1144.3319999999999,39.461,500.2], [-1, 0, 0, 0],[-1, 0, 1, 0], [ 9E+9,9E+9, 9E9, 9E9, 9E9, 9E9]];
CONST robtarget p603:= [[1144.99,40.119,500.2], [-1, 0, 0, 0],[-1, 0, 1, 0], [ 9E+9,9E+9, 9E9, 9E9, 9E9, 9E9]];
CONST robtarget p604:= [[1144.992,40.68600000000001,500.2], [-1, 0, 0, 0],[-1, 0, 1, 0], [ 9E+9,9E+9, 9E9, 9E9, 9E9, 9E9]];
CONST robtarget p605:= [[1143.768,39.462999999999994,500.2], [-1, 0, 0, 0],[-1, 0, 1, 0], [ 9E+9,9E+9, 9E9, 9E9, 9E9, 9E9]];
CONST robtarget p606:= [[1143.204,39.464,500.2], [-1, 0, 0, 0],[-1, 0, 1, 0], [ 9E+9,9E+9, 9E9, 9E9, 9E9, 9E9]];
CONST robtarget p607:= [[1144.992,41.251999999999995,500.2], [-1, 0, 0, 0],[-1, 0, 1, 0], [ 9E+9,9E+9, 9E9, 9E9, 9E9, 9E9]];
CONST robtarget p608:= [[1144.993,41.819,500.2], [-1, 0, 0, 0],[-1, 0, 1, 0], [ 9E+9,9E+9, 9E9, 9E9, 9E9, 9E9]];
CONST robtarget p609:= [[1142.6399999999999,39.465,500.2], [-1, 0, 0, 0],[-1, 0, 1, 0], [ 9E+9,9E+9, 9E9, 9E9, 9E9, 9E9]];
CONST robtarget p610:= [[1142.076,39.467,500.2], [-1, 0, 0, 0],[-1, 0, 1, 0], [ 9E+9,9E+9, 9E9, 9E9, 9E9, 9E9]];
CONST robtarget p611:= [[1144.995,42.385999999999996,500.2], [-1, 0, 0, 0],[-1, 0, 1, 0], [ 9E+9,9E+9, 9E9, 9E9, 9E9, 9E9]];
CONST robtarget p612:= [[1144.995,42.952,500.2], [-1, 0, 0, 0],[-1, 0, 1, 0], [ 9E+9,9E+9, 9E9, 9E9, 9E9, 9E9]];
CONST robtarget p613:= [[1141.512,39.468999999999994,500.2], [-1, 0, 0, 0],[-1, 0, 1, 0], [ 9E+9,9E+9, 9E9, 9E9, 9E9, 9E9]];
CONST robtarget p614:= [[1140.948,39.47,500.2], [-1, 0, 0, 0],[-1, 0, 1, 0], [ 9E+9,9E+9, 9E9, 9E9, 9E9, 9E9]];
CONST robtarget p615:= [[1144.997,43.519000000000005,500.2], [-1, 0, 0, 0],[-1, 0, 1, 0], [ 9E+9,9E+9, 9E9, 9E9, 9E9, 9E9]];
CONST robtarget p616:= [[1144.997,44.086,500.2], [-1, 0, 0, 0],[-1, 0, 1, 0], [ 9E+9,9E+9, 9E9, 9E9, 9E9, 9E9]];
CONST robtarget p617:= [[1140.384,39.471999999999994,500.2], [-1, 0, 0, 0],[-1, 0, 1, 0], [ 9E+9,9E+9, 9E9, 9E9, 9E9, 9E9]];
CONST robtarget p618:= [[1139.82,39.474000000000004,500.2], [-1, 0, 0, 0],[-1, 0, 1, 0], [ 9E+9,9E+9, 9E9, 9E9, 9E9, 9E9]];
CONST robtarget p619:= [[1144.999,44.653000000000006,500.2], [-1, 0, 0, 0],[-1, 0, 1, 0], [ 9E+9,9E+9, 9E9, 9E9, 9E9, 9E9]];
CONST robtarget p620:= [[1145.0,45.218999999999994,500.2], [-1, 0, 0, 0],[-1, 0, 1, 0], [ 9E+9,9E+9, 9E9, 9E9, 9E9, 9E9]];
CONST robtarget p621:= [[1139.256,39.474999999999994,500.2], [-1, 0, 0, 0],[-1, 0, 1, 0], [ 9E+9,9E+9, 9E9, 9E9, 9E9, 9E9]];
CONST robtarget p622:= [[1138.691,39.477000000000004,500.2], [-1, 0, 0, 0],[-1, 0, 1, 0], [ 9E+9,9E+9, 9E9, 9E9, 9E9, 9E9]];
CONST robtarget p623:= [[1145.0,45.786,500.2], [-1, 0, 0, 0],[-1, 0, 1, 0], [ 9E+9,9E+9, 9E9, 9E9, 9E9, 9E9]];
CONST robtarget p624:= [[1145.002,46.352999999999994,500.2], [-1, 0, 0, 0],[-1, 0, 1, 0], [ 9E+9,9E+9, 9E9, 9E9, 9E9, 9E9]];
CONST robtarget p625:= [[1138.128,39.479,500.2], [-1, 0, 0, 0],[-1, 0, 1, 0], [ 9E+9,9E+9, 9E9, 9E9, 9E9, 9E9]];
CONST robtarget p626:= [[1137.564,39.480000000000004,500.2], [-1, 0, 0, 0],[-1, 0, 1, 0], [ 9E+9,9E+9, 9E9, 9E9, 9E9, 9E9]];
CONST robtarget p627:= [[1145.002,46.919,500.2], [-1, 0, 0, 0],[-1, 0, 1, 0], [ 9E+9,9E+9, 9E9, 9E9, 9E9, 9E9]];
CONST robtarget p628:= [[1145.004,47.486000000000004,500.2], [-1, 0, 0, 0],[-1, 0, 1, 0], [ 9E+9,9E+9, 9E9, 9E9, 9E9, 9E9]];
CONST robtarget p629:= [[1137.453,39.935,500.2], [-1, 0, 0, 0],[-1, 0, 1, 0], [ 9E+9,9E+9, 9E9, 9E9, 9E9, 9E9]];
CONST robtarget p630:= [[1137.453,40.501000000000005,500.2], [-1, 0, 0, 0],[-1, 0, 1, 0], [ 9E+9,9E+9, 9E9, 9E9, 9E9, 9E9]];
CONST robtarget p631:= [[1145.004,48.053,500.2], [-1, 0, 0, 0],[-1, 0, 1, 0], [ 9E+9,9E+9, 9E9, 9E9, 9E9, 9E9]];
CONST robtarget p632:= [[1145.006,48.620000000000005,500.2], [-1, 0, 0, 0],[-1, 0, 1, 0], [ 9E+9,9E+9, 9E9, 9E9, 9E9, 9E9]];
CONST robtarget p633:= [[1137.453,41.066,500.2], [-1, 0, 0, 0],[-1, 0, 1, 0], [ 9E+9,9E+9, 9E9, 9E9, 9E9, 9E9]];
CONST robtarget p634:= [[1137.453,41.632000000000005,500.2], [-1, 0, 0, 0],[-1, 0, 1, 0], [ 9E+9,9E+9, 9E9, 9E9, 9E9, 9E9]];
CONST robtarget p635:= [[1145.007,49.18600000000001,500.2], [-1, 0, 0, 0],[-1, 0, 1, 0], [ 9E+9,9E+9, 9E9, 9E9, 9E9, 9E9]];
CONST robtarget p636:= [[1145.007,49.751999999999995,500.2], [-1, 0, 0, 0],[-1, 0, 1, 0], [ 9E+9,9E+9, 9E9, 9E9, 9E9, 9E9]];
CONST robtarget p637:= [[1137.453,42.19799999999999,500.2], [-1, 0, 0, 0],[-1, 0, 1, 0], [ 9E+9,9E+9, 9E9, 9E9, 9E9, 9E9]];
CONST robtarget p638:= [[1137.453,42.763000000000005,500.2], [-1, 0, 0, 0],[-1, 0, 1, 0], [ 9E+9,9E+9, 9E9, 9E9, 9E9, 9E9]];
CONST robtarget p639:= [[1145.009,50.31999999999999,500.2], [-1, 0, 0, 0],[-1, 0, 1, 0], [ 9E+9,9E+9, 9E9, 9E9, 9E9, 9E9]];
CONST robtarget p640:= [[1145.009,50.885999999999996,500.2], [-1, 0, 0, 0],[-1, 0, 1, 0], [ 9E+9,9E+9, 9E9, 9E9, 9E9, 9E9]];
CONST robtarget p641:= [[1137.453,43.32899999999999,500.2], [-1, 0, 0, 0],[-1, 0, 1, 0], [ 9E+9,9E+9, 9E9, 9E9, 9E9, 9E9]];
CONST robtarget p642:= [[1137.453,43.894999999999996,500.2], [-1, 0, 0, 0],[-1, 0, 1, 0], [ 9E+9,9E+9, 9E9, 9E9, 9E9, 9E9]];
CONST robtarget p643:= [[1145.011,51.453,500.2], [-1, 0, 0, 0],[-1, 0, 1, 0], [ 9E+9,9E+9, 9E9, 9E9, 9E9, 9E9]];
CONST robtarget p644:= [[1145.012,52.019000000000005,500.2], [-1, 0, 0, 0],[-1, 0, 1, 0], [ 9E+9,9E+9, 9E9, 9E9, 9E9, 9E9]];
CONST robtarget p645:= [[1137.453,44.459999999999994,500.2], [-1, 0, 0, 0],[-1, 0, 1, 0], [ 9E+9,9E+9, 9E9, 9E9, 9E9, 9E9]];
CONST robtarget p646:= [[1137.452,45.025000000000006,500.2], [-1, 0, 0, 0],[-1, 0, 1, 0], [ 9E+9,9E+9, 9E9, 9E9, 9E9, 9E9]];
CONST robtarget p647:= [[1145.013,52.587,500.2], [-1, 0, 0, 0],[-1, 0, 1, 0], [ 9E+9,9E+9, 9E9, 9E9, 9E9, 9E9]];
CONST robtarget p648:= [[1145.0140000000001,53.153000000000006,500.2], [-1, 0, 0, 0],[-1, 0, 1, 0], [ 9E+9,9E+9, 9E9, 9E9, 9E9, 9E9]];
CONST robtarget p649:= [[1137.452,45.590999999999994,500.2], [-1, 0, 0, 0],[-1, 0, 1, 0], [ 9E+9,9E+9, 9E9, 9E9, 9E9, 9E9]];
CONST robtarget p650:= [[1137.452,46.157,500.2], [-1, 0, 0, 0],[-1, 0, 1, 0], [ 9E+9,9E+9, 9E9, 9E9, 9E9, 9E9]];
CONST robtarget p651:= [[1145.0140000000001,53.718999999999994,500.2], [-1, 0, 0, 0],[-1, 0, 1, 0], [ 9E+9,9E+9, 9E9, 9E9, 9E9, 9E9]];
CONST robtarget p652:= [[1145.016,54.286,500.2], [-1, 0, 0, 0],[-1, 0, 1, 0], [ 9E+9,9E+9, 9E9, 9E9, 9E9, 9E9]];
CONST robtarget p653:= [[1137.452,46.723,500.2], [-1, 0, 0, 0],[-1, 0, 1, 0], [ 9E+9,9E+9, 9E9, 9E9, 9E9, 9E9]];
CONST robtarget p654:= [[1137.452,47.288,500.2], [-1, 0, 0, 0],[-1, 0, 1, 0], [ 9E+9,9E+9, 9E9, 9E9, 9E9, 9E9]];
CONST robtarget p655:= [[1145.016,54.852999999999994,500.2], [-1, 0, 0, 0],[-1, 0, 1, 0], [ 9E+9,9E+9, 9E9, 9E9, 9E9, 9E9]];
CONST robtarget p656:= [[1145.018,55.42,500.2], [-1, 0, 0, 0],[-1, 0, 1, 0], [ 9E+9,9E+9, 9E9, 9E9, 9E9, 9E9]];
CONST robtarget p657:= [[1137.452,47.854,500.2], [-1, 0, 0, 0],[-1, 0, 1, 0], [ 9E+9,9E+9, 9E9, 9E9, 9E9, 9E9]];
CONST robtarget p658:= [[1137.452,48.42,500.2], [-1, 0, 0, 0],[-1, 0, 1, 0], [ 9E+9,9E+9, 9E9, 9E9, 9E9, 9E9]];
CONST robtarget p659:= [[1145.019,55.986000000000004,500.2], [-1, 0, 0, 0],[-1, 0, 1, 0], [ 9E+9,9E+9, 9E9, 9E9, 9E9, 9E9]];
CONST robtarget p660:= [[1145.019,56.553,500.2], [-1, 0, 0, 0],[-1, 0, 1, 0], [ 9E+9,9E+9, 9E9, 9E9, 9E9, 9E9]];
CONST robtarget p661:= [[1137.452,48.985,500.2], [-1, 0, 0, 0],[-1, 0, 1, 0], [ 9E+9,9E+9, 9E9, 9E9, 9E9, 9E9]];
CONST robtarget p662:= [[1137.452,49.551,500.2], [-1, 0, 0, 0],[-1, 0, 1, 0], [ 9E+9,9E+9, 9E9, 9E9, 9E9, 9E9]];
CONST robtarget p663:= [[1145.021,57.120000000000005,500.2], [-1, 0, 0, 0],[-1, 0, 1, 0], [ 9E+9,9E+9, 9E9, 9E9, 9E9, 9E9]];
CONST robtarget p664:= [[1145.021,57.68600000000001,500.2], [-1, 0, 0, 0],[-1, 0, 1, 0], [ 9E+9,9E+9, 9E9, 9E9, 9E9, 9E9]];
CONST robtarget p665:= [[1137.452,50.117000000000004,500.2], [-1, 0, 0, 0],[-1, 0, 1, 0], [ 9E+9,9E+9, 9E9, 9E9, 9E9, 9E9]];
CONST robtarget p666:= [[1137.451,50.682,500.2], [-1, 0, 0, 0],[-1, 0, 1, 0], [ 9E+9,9E+9, 9E9, 9E9, 9E9, 9E9]];
CONST robtarget p667:= [[1145.023,58.253,500.2], [-1, 0, 0, 0],[-1, 0, 1, 0], [ 9E+9,9E+9, 9E9, 9E9, 9E9, 9E9]];
CONST robtarget p668:= [[1145.024,58.81999999999999,500.2], [-1, 0, 0, 0],[-1, 0, 1, 0], [ 9E+9,9E+9, 9E9, 9E9, 9E9, 9E9]];
CONST robtarget p669:= [[1137.451,51.247,500.2], [-1, 0, 0, 0],[-1, 0, 1, 0], [ 9E+9,9E+9, 9E9, 9E9, 9E9, 9E9]];
CONST robtarget p670:= [[1137.451,51.813,500.2], [-1, 0, 0, 0],[-1, 0, 1, 0], [ 9E+9,9E+9, 9E9, 9E9, 9E9, 9E9]];
CONST robtarget p671:= [[1145.025,59.387,500.2], [-1, 0, 0, 0],[-1, 0, 1, 0], [ 9E+9,9E+9, 9E9, 9E9, 9E9, 9E9]];
CONST robtarget p672:= [[1145.026,59.953,500.2], [-1, 0, 0, 0],[-1, 0, 1, 0], [ 9E+9,9E+9, 9E9, 9E9, 9E9, 9E9]];
CONST robtarget p673:= [[1137.451,52.379000000000005,500.2], [-1, 0, 0, 0],[-1, 0, 1, 0], [ 9E+9,9E+9, 9E9, 9E9, 9E9, 9E9]];
CONST robtarget p674:= [[1137.451,52.944,500.2], [-1, 0, 0, 0],[-1, 0, 1, 0], [ 9E+9,9E+9, 9E9, 9E9, 9E9, 9E9]];
CONST robtarget p675:= [[1145.026,60.519999999999996,500.2], [-1, 0, 0, 0],[-1, 0, 1, 0], [ 9E+9,9E+9, 9E9, 9E9, 9E9, 9E9]];
CONST robtarget p676:= [[1145.028,61.087,500.2], [-1, 0, 0, 0],[-1, 0, 1, 0], [ 9E+9,9E+9, 9E9, 9E9, 9E9, 9E9]];
CONST robtarget p677:= [[1137.451,53.510000000000005,500.2], [-1, 0, 0, 0],[-1, 0, 1, 0], [ 9E+9,9E+9, 9E9, 9E9, 9E9, 9E9]];
CONST robtarget p678:= [[1137.451,54.07599999999999,500.2], [-1, 0, 0, 0],[-1, 0, 1, 0], [ 9E+9,9E+9, 9E9, 9E9, 9E9, 9E9]];
CONST robtarget p679:= [[1145.029,61.653000000000006,500.2], [-1, 0, 0, 0],[-1, 0, 1, 0], [ 9E+9,9E+9, 9E9, 9E9, 9E9, 9E9]];
CONST robtarget p680:= [[1145.03,62.22,500.2], [-1, 0, 0, 0],[-1, 0, 1, 0], [ 9E+9,9E+9, 9E9, 9E9, 9E9, 9E9]];
CONST robtarget p681:= [[1137.451,54.641000000000005,500.2], [-1, 0, 0, 0],[-1, 0, 1, 0], [ 9E+9,9E+9, 9E9, 9E9, 9E9, 9E9]];
CONST robtarget p682:= [[1137.451,55.206999999999994,500.2], [-1, 0, 0, 0],[-1, 0, 1, 0], [ 9E+9,9E+9, 9E9, 9E9, 9E9, 9E9]];
CONST robtarget p683:= [[1145.031,62.787000000000006,500.2], [-1, 0, 0, 0],[-1, 0, 1, 0], [ 9E+9,9E+9, 9E9, 9E9, 9E9, 9E9]];
CONST robtarget p684:= [[1145.032,63.354,500.2], [-1, 0, 0, 0],[-1, 0, 1, 0], [ 9E+9,9E+9, 9E9, 9E9, 9E9, 9E9]];
CONST robtarget p685:= [[1137.451,55.772999999999996,500.2], [-1, 0, 0, 0],[-1, 0, 1, 0], [ 9E+9,9E+9, 9E9, 9E9, 9E9, 9E9]];
CONST robtarget p686:= [[1137.45,56.337999999999994,500.2], [-1, 0, 0, 0],[-1, 0, 1, 0], [ 9E+9,9E+9, 9E9, 9E9, 9E9, 9E9]];
CONST robtarget p687:= [[1145.033,63.92,500.2], [-1, 0, 0, 0],[-1, 0, 1, 0], [ 9E+9,9E+9, 9E9, 9E9, 9E9, 9E9]];
CONST robtarget p688:= [[1145.033,64.486,500.2], [-1, 0, 0, 0],[-1, 0, 1, 0], [ 9E+9,9E+9, 9E9, 9E9, 9E9, 9E9]];
CONST robtarget p689:= [[1137.45,56.903000000000006,500.2], [-1, 0, 0, 0],[-1, 0, 1, 0], [ 9E+9,9E+9, 9E9, 9E9, 9E9, 9E9]];
CONST robtarget p690:= [[1137.45,57.468999999999994,500.2], [-1, 0, 0, 0],[-1, 0, 1, 0], [ 9E+9,9E+9, 9E9, 9E9, 9E9, 9E9]];
CONST robtarget p691:= [[1145.035,65.054,500.2], [-1, 0, 0, 0],[-1, 0, 1, 0], [ 9E+9,9E+9, 9E9, 9E9, 9E9, 9E9]];
CONST robtarget p692:= [[1145.036,65.62,500.2], [-1, 0, 0, 0],[-1, 0, 1, 0], [ 9E+9,9E+9, 9E9, 9E9, 9E9, 9E9]];
CONST robtarget p693:= [[1137.45,58.035,500.2], [-1, 0, 0, 0],[-1, 0, 1, 0], [ 9E+9,9E+9, 9E9, 9E9, 9E9, 9E9]];
CONST robtarget p694:= [[1137.45,58.599999999999994,500.2], [-1, 0, 0, 0],[-1, 0, 1, 0], [ 9E+9,9E+9, 9E9, 9E9, 9E9, 9E9]];
CONST robtarget p695:= [[1145.037,66.187,500.2], [-1, 0, 0, 0],[-1, 0, 1, 0], [ 9E+9,9E+9, 9E9, 9E9, 9E9, 9E9]];
CONST robtarget p696:= [[1145.038,66.753,500.2], [-1, 0, 0, 0],[-1, 0, 1, 0], [ 9E+9,9E+9, 9E9, 9E9, 9E9, 9E9]];
CONST robtarget p697:= [[1137.45,59.166,500.2], [-1, 0, 0, 0],[-1, 0, 1, 0], [ 9E+9,9E+9, 9E9, 9E9, 9E9, 9E9]];
CONST robtarget p698:= [[1137.45,59.732,500.2], [-1, 0, 0, 0],[-1, 0, 1, 0], [ 9E+9,9E+9, 9E9, 9E9, 9E9, 9E9]];
CONST robtarget p699:= [[1145.039,67.321,500.2], [-1, 0, 0, 0],[-1, 0, 1, 0], [ 9E+9,9E+9, 9E9, 9E9, 9E9, 9E9]];
CONST robtarget p700:= [[1145.04,67.887,500.2], [-1, 0, 0, 0],[-1, 0, 1, 0], [ 9E+9,9E+9, 9E9, 9E9, 9E9, 9E9]];
CONST robtarget p701:= [[1137.45,60.298,500.2], [-1, 0, 0, 0],[-1, 0, 1, 0], [ 9E+9,9E+9, 9E9, 9E9, 9E9, 9E9]];
CONST robtarget p702:= [[1137.45,60.863,500.2], [-1, 0, 0, 0],[-1, 0, 1, 0], [ 9E+9,9E+9, 9E9, 9E9, 9E9, 9E9]];
CONST robtarget p703:= [[1145.041,68.453,500.2], [-1, 0, 0, 0],[-1, 0, 1, 0], [ 9E+9,9E+9, 9E9, 9E9, 9E9, 9E9]];
CONST robtarget p704:= [[1145.042,69.02,500.2], [-1, 0, 0, 0],[-1, 0, 1, 0], [ 9E+9,9E+9, 9E9, 9E9, 9E9, 9E9]];
CONST robtarget p705:= [[1137.45,61.428,500.2], [-1, 0, 0, 0],[-1, 0, 1, 0], [ 9E+9,9E+9, 9E9, 9E9, 9E9, 9E9]];
CONST robtarget p706:= [[1137.45,61.994,500.2], [-1, 0, 0, 0],[-1, 0, 1, 0], [ 9E+9,9E+9, 9E9, 9E9, 9E9, 9E9]];
CONST robtarget p707:= [[1145.0430000000001,69.587,500.2], [-1, 0, 0, 0],[-1, 0, 1, 0], [ 9E+9,9E+9, 9E9, 9E9, 9E9, 9E9]];
CONST robtarget p708:= [[1145.044,70.154,500.2], [-1, 0, 0, 0],[-1, 0, 1, 0], [ 9E+9,9E+9, 9E9, 9E9, 9E9, 9E9]];
CONST robtarget p709:= [[1137.45,62.56,500.2], [-1, 0, 0, 0],[-1, 0, 1, 0], [ 9E+9,9E+9, 9E9, 9E9, 9E9, 9E9]];
CONST robtarget p710:= [[1137.45,63.125,500.2], [-1, 0, 0, 0],[-1, 0, 1, 0], [ 9E+9,9E+9, 9E9, 9E9, 9E9, 9E9]];
CONST robtarget p711:= [[1145.045,70.72,500.2], [-1, 0, 0, 0],[-1, 0, 1, 0], [ 9E+9,9E+9, 9E9, 9E9, 9E9, 9E9]];
CONST robtarget p712:= [[1145.046,71.287,500.2], [-1, 0, 0, 0],[-1, 0, 1, 0], [ 9E+9,9E+9, 9E9, 9E9, 9E9, 9E9]];
CONST robtarget p713:= [[1137.45,63.691,500.2], [-1, 0, 0, 0],[-1, 0, 1, 0], [ 9E+9,9E+9, 9E9, 9E9, 9E9, 9E9]];
CONST robtarget p714:= [[1137.45,64.257,500.2], [-1, 0, 0, 0],[-1, 0, 1, 0], [ 9E+9,9E+9, 9E9, 9E9, 9E9, 9E9]];
CONST robtarget p715:= [[1145.047,71.854,500.2], [-1, 0, 0, 0],[-1, 0, 1, 0], [ 9E+9,9E+9, 9E9, 9E9, 9E9, 9E9]];
CONST robtarget p716:= [[1145.048,72.42,500.2], [-1, 0, 0, 0],[-1, 0, 1, 0], [ 9E+9,9E+9, 9E9, 9E9, 9E9, 9E9]];
CONST robtarget p717:= [[1137.45,64.822,500.2], [-1, 0, 0, 0],[-1, 0, 1, 0], [ 9E+9,9E+9, 9E9, 9E9, 9E9, 9E9]];
CONST robtarget p718:= [[1137.45,65.388,500.2], [-1, 0, 0, 0],[-1, 0, 1, 0], [ 9E+9,9E+9, 9E9, 9E9, 9E9, 9E9]];
CONST robtarget p719:= [[1145.049,72.987,500.2], [-1, 0, 0, 0],[-1, 0, 1, 0], [ 9E+9,9E+9, 9E9, 9E9, 9E9, 9E9]];
CONST robtarget p720:= [[1145.05,73.554,500.2], [-1, 0, 0, 0],[-1, 0, 1, 0], [ 9E+9,9E+9, 9E9, 9E9, 9E9, 9E9]];
CONST robtarget p721:= [[1137.45,65.954,500.2], [-1, 0, 0, 0],[-1, 0, 1, 0], [ 9E+9,9E+9, 9E9, 9E9, 9E9, 9E9]];
CONST robtarget p722:= [[1137.45,66.519,500.2], [-1, 0, 0, 0],[-1, 0, 1, 0], [ 9E+9,9E+9, 9E9, 9E9, 9E9, 9E9]];
CONST robtarget p723:= [[1145.051,74.121,500.2], [-1, 0, 0, 0],[-1, 0, 1, 0], [ 9E+9,9E+9, 9E9, 9E9, 9E9, 9E9]];
CONST robtarget p724:= [[1145.052,74.687,500.2], [-1, 0, 0, 0],[-1, 0, 1, 0], [ 9E+9,9E+9, 9E9, 9E9, 9E9, 9E9]];
CONST robtarget p725:= [[1137.449,67.084,500.2], [-1, 0, 0, 0],[-1, 0, 1, 0], [ 9E+9,9E+9, 9E9, 9E9, 9E9, 9E9]];
CONST robtarget p726:= [[1137.449,67.65,500.2], [-1, 0, 0, 0],[-1, 0, 1, 0], [ 9E+9,9E+9, 9E9, 9E9, 9E9, 9E9]];
CONST robtarget p727:= [[1145.0529999999999,75.254,500.2], [-1, 0, 0, 0],[-1, 0, 1, 0], [ 9E+9,9E+9, 9E9, 9E9, 9E9, 9E9]];
CONST robtarget p728:= [[1145.054,75.821,500.2], [-1, 0, 0, 0],[-1, 0, 1, 0], [ 9E+9,9E+9, 9E9, 9E9, 9E9, 9E9]];
CONST robtarget p729:= [[1137.449,68.216,500.2], [-1, 0, 0, 0],[-1, 0, 1, 0], [ 9E+9,9E+9, 9E9, 9E9, 9E9, 9E9]];
CONST robtarget p730:= [[1137.449,68.781,500.2], [-1, 0, 0, 0],[-1, 0, 1, 0], [ 9E+9,9E+9, 9E9, 9E9, 9E9, 9E9]];
CONST robtarget p731:= [[1145.055,76.387,500.2], [-1, 0, 0, 0],[-1, 0, 1, 0], [ 9E+9,9E+9, 9E9, 9E9, 9E9, 9E9]];
CONST robtarget p732:= [[1145.056,76.954,500.2], [-1, 0, 0, 0],[-1, 0, 1, 0], [ 9E+9,9E+9, 9E9, 9E9, 9E9, 9E9]];
CONST robtarget p733:= [[1137.449,69.347,500.2], [-1, 0, 0, 0],[-1, 0, 1, 0], [ 9E+9,9E+9, 9E9, 9E9, 9E9, 9E9]];
CONST robtarget p734:= [[1137.449,69.913,500.2], [-1, 0, 0, 0],[-1, 0, 1, 0], [ 9E+9,9E+9, 9E9, 9E9, 9E9, 9E9]];
CONST robtarget p735:= [[1145.057,77.521,500.2], [-1, 0, 0, 0],[-1, 0, 1, 0], [ 9E+9,9E+9, 9E9, 9E9, 9E9, 9E9]];
CONST robtarget p736:= [[1145.058,78.088,500.2], [-1, 0, 0, 0],[-1, 0, 1, 0], [ 9E+9,9E+9, 9E9, 9E9, 9E9, 9E9]];
CONST robtarget p737:= [[1137.449,70.478,500.2], [-1, 0, 0, 0],[-1, 0, 1, 0], [ 9E+9,9E+9, 9E9, 9E9, 9E9, 9E9]];
CONST robtarget p738:= [[1137.449,71.044,500.2], [-1, 0, 0, 0],[-1, 0, 1, 0], [ 9E+9,9E+9, 9E9, 9E9, 9E9, 9E9]];
CONST robtarget p739:= [[1145.059,78.654,500.2], [-1, 0, 0, 0],[-1, 0, 1, 0], [ 9E+9,9E+9, 9E9, 9E9, 9E9, 9E9]];
CONST robtarget p740:= [[1145.06,79.22,500.2], [-1, 0, 0, 0],[-1, 0, 1, 0], [ 9E+9,9E+9, 9E9, 9E9, 9E9, 9E9]];
CONST robtarget p741:= [[1137.449,71.61,500.2], [-1, 0, 0, 0],[-1, 0, 1, 0], [ 9E+9,9E+9, 9E9, 9E9, 9E9, 9E9]];
CONST robtarget p742:= [[1137.449,72.176,500.2], [-1, 0, 0, 0],[-1, 0, 1, 0], [ 9E+9,9E+9, 9E9, 9E9, 9E9, 9E9]];
CONST robtarget p743:= [[1145.061,79.78800000000001,500.2], [-1, 0, 0, 0],[-1, 0, 1, 0], [ 9E+9,9E+9, 9E9, 9E9, 9E9, 9E9]];
CONST robtarget p744:= [[1145.062,80.35400000000001,500.2], [-1, 0, 0, 0],[-1, 0, 1, 0], [ 9E+9,9E+9, 9E9, 9E9, 9E9, 9E9]];
CONST robtarget p745:= [[1137.448,72.741,500.2], [-1, 0, 0, 0],[-1, 0, 1, 0], [ 9E+9,9E+9, 9E9, 9E9, 9E9, 9E9]];
CONST robtarget p746:= [[1137.448,73.306,500.2], [-1, 0, 0, 0],[-1, 0, 1, 0], [ 9E+9,9E+9, 9E9, 9E9, 9E9, 9E9]];
CONST robtarget p747:= [[1145.063,80.92099999999999,500.2], [-1, 0, 0, 0],[-1, 0, 1, 0], [ 9E+9,9E+9, 9E9, 9E9, 9E9, 9E9]];
CONST robtarget p748:= [[1145.064,81.487,500.2], [-1, 0, 0, 0],[-1, 0, 1, 0], [ 9E+9,9E+9, 9E9, 9E9, 9E9, 9E9]];
CONST robtarget p749:= [[1137.448,73.872,500.2], [-1, 0, 0, 0],[-1, 0, 1, 0], [ 9E+9,9E+9, 9E9, 9E9, 9E9, 9E9]];
CONST robtarget p750:= [[1137.448,74.438,500.2], [-1, 0, 0, 0],[-1, 0, 1, 0], [ 9E+9,9E+9, 9E9, 9E9, 9E9, 9E9]];
CONST robtarget p751:= [[1145.065,82.055,500.2], [-1, 0, 0, 0],[-1, 0, 1, 0], [ 9E+9,9E+9, 9E9, 9E9, 9E9, 9E9]];
CONST robtarget p752:= [[1145.066,82.62100000000001,500.2], [-1, 0, 0, 0],[-1, 0, 1, 0], [ 9E+9,9E+9, 9E9, 9E9, 9E9, 9E9]];
CONST robtarget p753:= [[1137.448,75.003,500.2], [-1, 0, 0, 0],[-1, 0, 1, 0], [ 9E+9,9E+9, 9E9, 9E9, 9E9, 9E9]];
CONST robtarget p754:= [[1137.448,75.569,500.2], [-1, 0, 0, 0],[-1, 0, 1, 0], [ 9E+9,9E+9, 9E9, 9E9, 9E9, 9E9]];
CONST robtarget p755:= [[1145.067,83.18700000000001,500.2], [-1, 0, 0, 0],[-1, 0, 1, 0], [ 9E+9,9E+9, 9E9, 9E9, 9E9, 9E9]];
CONST robtarget p756:= [[1145.068,83.75399999999999,500.2], [-1, 0, 0, 0],[-1, 0, 1, 0], [ 9E+9,9E+9, 9E9, 9E9, 9E9, 9E9]];
CONST robtarget p757:= [[1137.448,76.135,500.2], [-1, 0, 0, 0],[-1, 0, 1, 0], [ 9E+9,9E+9, 9E9, 9E9, 9E9, 9E9]];
CONST robtarget p758:= [[1137.448,76.7,500.2], [-1, 0, 0, 0],[-1, 0, 1, 0], [ 9E+9,9E+9, 9E9, 9E9, 9E9, 9E9]];
CONST robtarget p759:= [[1145.069,84.321,500.2], [-1, 0, 0, 0],[-1, 0, 1, 0], [ 9E+9,9E+9, 9E9, 9E9, 9E9, 9E9]];
CONST robtarget p760:= [[1145.07,84.888,500.2], [-1, 0, 0, 0],[-1, 0, 1, 0], [ 9E+9,9E+9, 9E9, 9E9, 9E9, 9E9]];
CONST robtarget p761:= [[1137.448,77.266,500.2], [-1, 0, 0, 0],[-1, 0, 1, 0], [ 9E+9,9E+9, 9E9, 9E9, 9E9, 9E9]];
CONST robtarget p762:= [[1137.448,77.831,500.2], [-1, 0, 0, 0],[-1, 0, 1, 0], [ 9E+9,9E+9, 9E9, 9E9, 9E9, 9E9]];
CONST robtarget p763:= [[1145.071,85.45400000000001,500.2], [-1, 0, 0, 0],[-1, 0, 1, 0], [ 9E+9,9E+9, 9E9, 9E9, 9E9, 9E9]];
CONST robtarget p764:= [[1145.0720000000001,86.02099999999999,500.2], [-1, 0, 0, 0],[-1, 0, 1, 0], [ 9E+9,9E+9, 9E9, 9E9, 9E9, 9E9]];
CONST robtarget p765:= [[1137.448,78.39699999999999,500.2], [-1, 0, 0, 0],[-1, 0, 1, 0], [ 9E+9,9E+9, 9E9, 9E9, 9E9, 9E9]];
CONST robtarget p766:= [[1137.448,78.96199999999999,500.2], [-1, 0, 0, 0],[-1, 0, 1, 0], [ 9E+9,9E+9, 9E9, 9E9, 9E9, 9E9]];
CONST robtarget p767:= [[1145.073,86.588,500.2], [-1, 0, 0, 0],[-1, 0, 1, 0], [ 9E+9,9E+9, 9E9, 9E9, 9E9, 9E9]];
CONST robtarget p768:= [[1145.074,87.154,500.2], [-1, 0, 0, 0],[-1, 0, 1, 0], [ 9E+9,9E+9, 9E9, 9E9, 9E9, 9E9]];
CONST robtarget p769:= [[1137.448,79.52799999999999,500.2], [-1, 0, 0, 0],[-1, 0, 1, 0], [ 9E+9,9E+9, 9E9, 9E9, 9E9, 9E9]];
CONST robtarget p770:= [[1137.448,80.094,500.2], [-1, 0, 0, 0],[-1, 0, 1, 0], [ 9E+9,9E+9, 9E9, 9E9, 9E9, 9E9]];
CONST robtarget p771:= [[1145.075,87.721,500.2], [-1, 0, 0, 0],[-1, 0, 1, 0], [ 9E+9,9E+9, 9E9, 9E9, 9E9, 9E9]];
CONST robtarget p772:= [[1145.076,88.28800000000001,500.2], [-1, 0, 0, 0],[-1, 0, 1, 0], [ 9E+9,9E+9, 9E9, 9E9, 9E9, 9E9]];
CONST robtarget p773:= [[1137.448,80.65899999999999,500.2], [-1, 0, 0, 0],[-1, 0, 1, 0], [ 9E+9,9E+9, 9E9, 9E9, 9E9, 9E9]];
CONST robtarget p774:= [[1137.448,81.225,500.2], [-1, 0, 0, 0],[-1, 0, 1, 0], [ 9E+9,9E+9, 9E9, 9E9, 9E9, 9E9]];
CONST robtarget p775:= [[1145.077,88.85499999999999,500.2], [-1, 0, 0, 0],[-1, 0, 1, 0], [ 9E+9,9E+9, 9E9, 9E9, 9E9, 9E9]];
CONST robtarget p776:= [[1145.078,89.42099999999999,500.2], [-1, 0, 0, 0],[-1, 0, 1, 0], [ 9E+9,9E+9, 9E9, 9E9, 9E9, 9E9]];
CONST robtarget p777:= [[1137.448,81.791,500.2], [-1, 0, 0, 0],[-1, 0, 1, 0], [ 9E+9,9E+9, 9E9, 9E9, 9E9, 9E9]];
CONST robtarget p778:= [[1137.448,82.356,500.2], [-1, 0, 0, 0],[-1, 0, 1, 0], [ 9E+9,9E+9, 9E9, 9E9, 9E9, 9E9]];
CONST robtarget p779:= [[1145.079,89.988,500.2], [-1, 0, 0, 0],[-1, 0, 1, 0], [ 9E+9,9E+9, 9E9, 9E9, 9E9, 9E9]];
CONST robtarget p780:= [[1145.08,90.555,500.2], [-1, 0, 0, 0],[-1, 0, 1, 0], [ 9E+9,9E+9, 9E9, 9E9, 9E9, 9E9]];
CONST robtarget p781:= [[1137.448,82.922,500.2], [-1, 0, 0, 0],[-1, 0, 1, 0], [ 9E+9,9E+9, 9E9, 9E9, 9E9, 9E9]];
CONST robtarget p782:= [[1137.402,83.44300000000001,500.2], [-1, 0, 0, 0],[-1, 0, 1, 0], [ 9E+9,9E+9, 9E9, 9E9, 9E9, 9E9]];
CONST robtarget p783:= [[1145.081,91.12100000000001,500.2], [-1, 0, 0, 0],[-1, 0, 1, 0], [ 9E+9,9E+9, 9E9, 9E9, 9E9, 9E9]];
CONST robtarget p784:= [[1145.0819999999999,91.68799999999999,500.2], [-1, 0, 0, 0],[-1, 0, 1, 0], [ 9E+9,9E+9, 9E9, 9E9, 9E9, 9E9]];
CONST robtarget p785:= [[1137.244,83.85,500.2], [-1, 0, 0, 0],[-1, 0, 1, 0], [ 9E+9,9E+9, 9E9, 9E9, 9E9, 9E9]];
CONST robtarget p786:= [[1137.02,84.191,500.2], [-1, 0, 0, 0],[-1, 0, 1, 0], [ 9E+9,9E+9, 9E9, 9E9, 9E9, 9E9]];
CONST robtarget p787:= [[1145.083,92.255,500.2], [-1, 0, 0, 0],[-1, 0, 1, 0], [ 9E+9,9E+9, 9E9, 9E9, 9E9, 9E9]];
CONST robtarget p788:= [[1145.084,92.822,500.2], [-1, 0, 0, 0],[-1, 0, 1, 0], [ 9E+9,9E+9, 9E9, 9E9, 9E9, 9E9]];
CONST robtarget p789:= [[1136.686,84.423,500.2], [-1, 0, 0, 0],[-1, 0, 1, 0], [ 9E+9,9E+9, 9E9, 9E9, 9E9, 9E9]];
CONST robtarget p790:= [[1136.294,84.59700000000001,500.2], [-1, 0, 0, 0],[-1, 0, 1, 0], [ 9E+9,9E+9, 9E9, 9E9, 9E9, 9E9]];
CONST robtarget p791:= [[1145.085,93.388,500.2], [-1, 0, 0, 0],[-1, 0, 1, 0], [ 9E+9,9E+9, 9E9, 9E9, 9E9, 9E9]];
CONST robtarget p792:= [[1145.086,93.95500000000001,500.2], [-1, 0, 0, 0],[-1, 0, 1, 0], [ 9E+9,9E+9, 9E9, 9E9, 9E9, 9E9]];
CONST robtarget p793:= [[1135.789,84.65799999999999,500.2], [-1, 0, 0, 0],[-1, 0, 1, 0], [ 9E+9,9E+9, 9E9, 9E9, 9E9, 9E9]];
CONST robtarget p794:= [[1135.256,84.691,500.2], [-1, 0, 0, 0],[-1, 0, 1, 0], [ 9E+9,9E+9, 9E9, 9E9, 9E9, 9E9]];
CONST robtarget p795:= [[1145.087,94.52199999999999,500.2], [-1, 0, 0, 0],[-1, 0, 1, 0], [ 9E+9,9E+9, 9E9, 9E9, 9E9, 9E9]];
CONST robtarget p796:= [[1145.088,95.088,500.2], [-1, 0, 0, 0],[-1, 0, 1, 0], [ 9E+9,9E+9, 9E9, 9E9, 9E9, 9E9]];
CONST robtarget p797:= [[1134.672,84.672,500.2], [-1, 0, 0, 0],[-1, 0, 1, 0], [ 9E+9,9E+9, 9E9, 9E9, 9E9, 9E9]];
CONST robtarget p798:= [[1134.044,84.60900000000001,500.2], [-1, 0, 0, 0],[-1, 0, 1, 0], [ 9E+9,9E+9, 9E9, 9E9, 9E9, 9E9]];
CONST robtarget p799:= [[1144.968,95.53399999999999,500.2], [-1, 0, 0, 0],[-1, 0, 1, 0], [ 9E+9,9E+9, 9E9, 9E9, 9E9, 9E9]];
CONST robtarget p800:= [[1144.404,95.536,500.2], [-1, 0, 0, 0],[-1, 0, 1, 0], [ 9E+9,9E+9, 9E9, 9E9, 9E9, 9E9]];
CONST robtarget p801:= [[1133.351,84.483,500.2], [-1, 0, 0, 0],[-1, 0, 1, 0], [ 9E+9,9E+9, 9E9, 9E9, 9E9, 9E9]];
CONST robtarget p802:= [[1132.58,84.27699999999999,500.2], [-1, 0, 0, 0],[-1, 0, 1, 0], [ 9E+9,9E+9, 9E9, 9E9, 9E9, 9E9]];
CONST robtarget p803:= [[1143.84,95.537,500.2], [-1, 0, 0, 0],[-1, 0, 1, 0], [ 9E+9,9E+9, 9E9, 9E9, 9E9, 9E9]];
CONST robtarget p804:= [[1143.276,95.53800000000001,500.2], [-1, 0, 0, 0],[-1, 0, 1, 0], [ 9E+9,9E+9, 9E9, 9E9, 9E9, 9E9]];
CONST robtarget p805:= [[1131.669,83.93199999999999,500.2], [-1, 0, 0, 0],[-1, 0, 1, 0], [ 9E+9,9E+9, 9E9, 9E9, 9E9, 9E9]];
CONST robtarget p806:= [[1131.855,83.513,500.2], [-1, 0, 0, 0],[-1, 0, 1, 0], [ 9E+9,9E+9, 9E9, 9E9, 9E9, 9E9]];
CONST robtarget p807:= [[1130.737,82.94200000000001,500.2], [-1, 0, 0, 0],[-1, 0, 1, 0], [ 9E+9,9E+9, 9E9, 9E9, 9E9, 9E9]];
CONST robtarget p808:= [[1130.513,83.34100000000001,500.2], [-1, 0, 0, 0],[-1, 0, 1, 0], [ 9E+9,9E+9, 9E9, 9E9, 9E9, 9E9]];
CONST robtarget p809:= [[1142.711,95.53899999999999,500.2], [-1, 0, 0, 0],[-1, 0, 1, 0], [ 9E+9,9E+9, 9E9, 9E9, 9E9, 9E9]];
CONST robtarget p810:= [[1142.146,95.53999999999999,500.2], [-1, 0, 0, 0],[-1, 0, 1, 0], [ 9E+9,9E+9, 9E9, 9E9, 9E9, 9E9]];
CONST robtarget p811:= [[1112.603,65.997,500.2], [-1, 0, 0, 0],[-1, 0, 1, 0], [ 9E+9,9E+9, 9E9, 9E9, 9E9, 9E9]];
CONST robtarget p812:= [[1112.519,66.479,500.2], [-1, 0, 0, 0],[-1, 0, 1, 0], [ 9E+9,9E+9, 9E9, 9E9, 9E9, 9E9]];
CONST robtarget p813:= [[1141.5819999999999,95.542,500.2], [-1, 0, 0, 0],[-1, 0, 1, 0], [ 9E+9,9E+9, 9E9, 9E9, 9E9, 9E9]];
CONST robtarget p814:= [[1141.018,95.543,500.2], [-1, 0, 0, 0],[-1, 0, 1, 0], [ 9E+9,9E+9, 9E9, 9E9, 9E9, 9E9]];
CONST robtarget p815:= [[1112.4279999999999,66.954,500.2], [-1, 0, 0, 0],[-1, 0, 1, 0], [ 9E+9,9E+9, 9E9, 9E9, 9E9, 9E9]];
CONST robtarget p816:= [[1112.338,67.429,500.2], [-1, 0, 0, 0],[-1, 0, 1, 0], [ 9E+9,9E+9, 9E9, 9E9, 9E9, 9E9]];
CONST robtarget p817:= [[1140.4470000000001,95.53800000000001,500.2], [-1, 0, 0, 0],[-1, 0, 1, 0], [ 9E+9,9E+9, 9E9, 9E9, 9E9, 9E9]];
CONST robtarget p818:= [[1139.872,95.529,500.2], [-1, 0, 0, 0],[-1, 0, 1, 0], [ 9E+9,9E+9, 9E9, 9E9, 9E9, 9E9]];
CONST robtarget p819:= [[1112.247,67.904,500.2], [-1, 0, 0, 0],[-1, 0, 1, 0], [ 9E+9,9E+9, 9E9, 9E9, 9E9, 9E9]];
CONST robtarget p820:= [[1112.146,68.368,500.2], [-1, 0, 0, 0],[-1, 0, 1, 0], [ 9E+9,9E+9, 9E9, 9E9, 9E9, 9E9]];
CONST robtarget p821:= [[1139.275,95.49799999999999,500.2], [-1, 0, 0, 0],[-1, 0, 1, 0], [ 9E+9,9E+9, 9E9, 9E9, 9E9, 9E9]];
CONST robtarget p822:= [[1138.661,95.44900000000001,500.2], [-1, 0, 0, 0],[-1, 0, 1, 0], [ 9E+9,9E+9, 9E9, 9E9, 9E9, 9E9]];
CONST robtarget p823:= [[1112.0430000000001,68.831,500.2], [-1, 0, 0, 0],[-1, 0, 1, 0], [ 9E+9,9E+9, 9E9, 9E9, 9E9, 9E9]];
CONST robtarget p824:= [[1111.939,69.293,500.2], [-1, 0, 0, 0],[-1, 0, 1, 0], [ 9E+9,9E+9, 9E9, 9E9, 9E9, 9E9]];
CONST robtarget p825:= [[1138.029,95.38300000000001,500.2], [-1, 0, 0, 0],[-1, 0, 1, 0], [ 9E+9,9E+9, 9E9, 9E9, 9E9, 9E9]];
CONST robtarget p826:= [[1137.368,95.28800000000001,500.2], [-1, 0, 0, 0],[-1, 0, 1, 0], [ 9E+9,9E+9, 9E9, 9E9, 9E9, 9E9]];
CONST robtarget p827:= [[1111.835,69.754,500.2], [-1, 0, 0, 0],[-1, 0, 1, 0], [ 9E+9,9E+9, 9E9, 9E9, 9E9, 9E9]];
CONST robtarget p828:= [[1111.722,70.207,500.2], [-1, 0, 0, 0],[-1, 0, 1, 0], [ 9E+9,9E+9, 9E9, 9E9, 9E9, 9E9]];
CONST robtarget p829:= [[1136.671,95.156,500.2], [-1, 0, 0, 0],[-1, 0, 1, 0], [ 9E+9,9E+9, 9E9, 9E9, 9E9, 9E9]];
CONST robtarget p830:= [[1135.934,94.98500000000001,500.2], [-1, 0, 0, 0],[-1, 0, 1, 0], [ 9E+9,9E+9, 9E9, 9E9, 9E9, 9E9]];
CONST robtarget p831:= [[1111.605,70.656,500.2], [-1, 0, 0, 0],[-1, 0, 1, 0], [ 9E+9,9E+9, 9E9, 9E9, 9E9, 9E9]];
CONST robtarget p832:= [[1111.481,71.098,500.2], [-1, 0, 0, 0],[-1, 0, 1, 0], [ 9E+9,9E+9, 9E9, 9E9, 9E9, 9E9]];
CONST robtarget p833:= [[1135.166,94.78200000000001,500.2], [-1, 0, 0, 0],[-1, 0, 1, 0], [ 9E+9,9E+9, 9E9, 9E9, 9E9, 9E9]];
CONST robtarget p834:= [[1134.327,94.50899999999999,500.2], [-1, 0, 0, 0],[-1, 0, 1, 0], [ 9E+9,9E+9, 9E9, 9E9, 9E9, 9E9]];
CONST robtarget p835:= [[1111.358,71.54,500.2], [-1, 0, 0, 0],[-1, 0, 1, 0], [ 9E+9,9E+9, 9E9, 9E9, 9E9, 9E9]];
CONST robtarget p836:= [[1111.234,71.982,500.2], [-1, 0, 0, 0],[-1, 0, 1, 0], [ 9E+9,9E+9, 9E9, 9E9, 9E9, 9E9]];
CONST robtarget p837:= [[1133.4180000000001,94.166,500.2], [-1, 0, 0, 0],[-1, 0, 1, 0], [ 9E+9,9E+9, 9E9, 9E9, 9E9, 9E9]];
CONST robtarget p838:= [[1133.25,94.596,500.2], [-1, 0, 0, 0],[-1, 0, 1, 0], [ 9E+9,9E+9, 9E9, 9E9, 9E9, 9E9]];
CONST robtarget p839:= [[1132.209,94.13900000000001,500.2], [-1, 0, 0, 0],[-1, 0, 1, 0], [ 9E+9,9E+9, 9E9, 9E9, 9E9, 9E9]];
CONST robtarget p840:= [[1132.409,93.72200000000001,500.2], [-1, 0, 0, 0],[-1, 0, 1, 0], [ 9E+9,9E+9, 9E9, 9E9, 9E9, 9E9]];
CONST robtarget p841:= [[1111.101,72.415,500.2], [-1, 0, 0, 0],[-1, 0, 1, 0], [ 9E+9,9E+9, 9E9, 9E9, 9E9, 9E9]];
CONST robtarget p842:= [[1110.964,72.843,500.2], [-1, 0, 0, 0],[-1, 0, 1, 0], [ 9E+9,9E+9, 9E9, 9E9, 9E9, 9E9]];
CONST robtarget p843:= [[1131.282,93.161,500.2], [-1, 0, 0, 0],[-1, 0, 1, 0], [ 9E+9,9E+9, 9E9, 9E9, 9E9, 9E9]];
CONST robtarget p844:= [[1131.07,93.571,500.2], [-1, 0, 0, 0],[-1, 0, 1, 0], [ 9E+9,9E+9, 9E9, 9E9, 9E9, 9E9]];
CONST robtarget p845:= [[1129.763,92.838,500.2], [-1, 0, 0, 0],[-1, 0, 1, 0], [ 9E+9,9E+9, 9E9, 9E9, 9E9, 9E9]];
CONST robtarget p846:= [[1129.991,92.436,500.2], [-1, 0, 0, 0],[-1, 0, 1, 0], [ 9E+9,9E+9, 9E9, 9E9, 9E9, 9E9]];
CONST robtarget p847:= [[1118.927,81.37200000000001,500.2], [-1, 0, 0, 0],[-1, 0, 1, 0], [ 9E+9,9E+9, 9E9, 9E9, 9E9, 9E9]];
CONST robtarget p848:= [[1118.538,81.61500000000001,500.2], [-1, 0, 0, 0],[-1, 0, 1, 0], [ 9E+9,9E+9, 9E9, 9E9, 9E9, 9E9]];
CONST robtarget p849:= [[1117.996,81.042,500.2], [-1, 0, 0, 0],[-1, 0, 1, 0], [ 9E+9,9E+9, 9E9, 9E9, 9E9, 9E9]];
CONST robtarget p850:= [[1118.176,80.62100000000001,500.2], [-1, 0, 0, 0],[-1, 0, 1, 0], [ 9E+9,9E+9, 9E9, 9E9, 9E9, 9E9]];
CONST robtarget p851:= [[1110.826,73.271,500.2], [-1, 0, 0, 0],[-1, 0, 1, 0], [ 9E+9,9E+9, 9E9, 9E9, 9E9, 9E9]];
